;FLAVOR:Marlin
;TIME:20185
;Filament used: 13.8298m
;Layer height: 0.1
;Generated with Cura_SteamEngine 3.0.4
M190 S60
M104 S200
M109 S200
M82 ; absolute extrusion mode
G21 ;metric values
G90 ;absolute positioning
M82 ;set extruder to absolute mode
M107 ;start with the fan off
G28 X0 Y0 ;move X/Y to min endstops
G28 Z0 ;move Z to min endstops
G1 Z15.0 F9000 ;move the platform down 15mm
G92 E0 ;zero the extruded length
G1 F200 E3 ;extrude 3mm of feed stock
G92 E0 ;zero the extruded length again
G1 F9000
;Put printing message on LCD screen
M117 Printing...
;LAYER_COUNT:173
;LAYER:0
M107
G0 F3600 X67.294 Y46.308 Z0.3
;TYPE:SKIRT
G1 F1800 X69.018 Y43.94 E0.14613
G1 X69.2 Y43.713 E0.16065
G1 X71.503 Y41.088 E0.33487
G1 X71.696 Y40.886 E0.34881
G1 X73.773 Y38.899 E0.49221
G1 X73.956 Y38.737 E0.5044
G1 X76.119 Y36.963 E0.64397
G1 X76.345 Y36.793 E0.65808
G1 X79.161 Y34.873 E0.82812
G1 X79.398 Y34.726 E0.84203
G1 X82.083 Y33.219 E0.99564
G1 X82.3 Y33.108 E1.0078
G1 X84.433 Y32.116 E1.12516
G1 X84.628 Y32.034 E1.13572
G1 X87.102 Y31.077 E1.26806
G1 X87.374 Y30.985 E1.28238
G1 X90.772 Y30.011 E1.45874
G1 X91.018 Y29.951 E1.47137
G1 X93.296 Y29.489 E1.58733
G1 X93.531 Y29.45 E1.59922
G1 X96.615 Y29.06 E1.75431
G1 X96.868 Y29.038 E1.76698
G1 X99.588 Y28.912 E1.90282
G1 X99.868 Y28.912 E1.91679
G1 X103.282 Y29.053 E2.08726
G1 X103.563 Y29.077 E2.10133
G1 X106.63 Y29.476 E2.25563
G1 X106.888 Y29.52 E2.26869
G1 X109.724 Y30.128 E2.4134
G1 X109.947 Y30.184 E2.42487
G1 X112.298 Y30.868 E2.54702
G1 X112.555 Y30.955 E2.56056
G1 X115.464 Y32.076 E2.71609
G1 X115.704 Y32.18 E2.72914
G1 X118.56 Y33.558 E2.88735
G1 X118.791 Y33.681 E2.9004
G1 X121.251 Y35.127 E3.04276
G1 X121.49 Y35.283 E3.057
G1 X124.27 Y37.271 E3.22751
G1 X124.491 Y37.444 E3.24151
G1 X126.785 Y39.409 E3.39221
G1 X126.961 Y39.571 E3.40414
G1 X128.833 Y41.435 E3.53594
G1 X129.027 Y41.647 E3.55028
G1 X131.274 Y44.327 E3.72476
G1 X131.451 Y44.558 E3.73928
G1 X133.279 Y47.191 E3.8992
G1 X133.415 Y47.406 E3.91189
G1 X134.796 Y49.778 E4.04882
G1 X134.928 Y50.03 E4.06302
G1 X136.39 Y53.149 E4.23487
G1 X136.489 Y53.382 E4.2475
G1 X137.311 Y55.571 E4.36416
G1 X137.376 Y55.764 E4.37432
G1 X138.043 Y57.955 E4.48858
G1 X138.096 Y58.15 E4.49866
G1 X138.635 Y60.429 E4.6155
G1 X138.681 Y60.663 E4.62739
G1 X139.16 Y63.671 E4.77936
G1 X139.19 Y63.926 E4.79217
G1 X139.408 Y66.732 E4.93258
G1 X139.418 Y66.979 E4.94491
G1 X139.438 Y132.105 E8.19406
G1 X139.434 Y132.266 E8.2021
G1 X139.293 Y135.079 E8.34261
G1 X139.266 Y135.363 E8.35685
G1 X138.789 Y138.767 E8.52833
G1 X138.738 Y139.044 E8.54238
G1 X138.04 Y142.064 E8.69702
G1 X137.971 Y142.315 E8.71001
G1 X137.115 Y145 E8.85061
G1 X137.018 Y145.264 E8.86464
G1 X135.706 Y148.397 E9.0341
G1 X135.588 Y148.647 E9.04789
G1 X134.195 Y151.304 E9.19756
G1 X134.064 Y151.532 E9.21068
G1 X132.482 Y154.027 E9.35807
G1 X132.317 Y154.261 E9.37236
G1 X130.22 Y156.993 E9.54418
G1 X130.101 Y157.14 E9.55361
G1 X129.336 Y158.023 E9.6119
G1 X129.19 Y158.181 E9.62263
G1 X126.826 Y160.566 E9.79017
G1 X126.625 Y160.752 E9.80383
G1 X124.313 Y162.716 E9.95518
G1 X124.102 Y162.88 E9.96851
G1 X121.739 Y164.569 E10.11342
G1 X121.501 Y164.724 E10.12759
G1 X118.586 Y166.44 E10.29635
G1 X118.365 Y166.558 E10.30885
G1 X116.197 Y167.615 E10.42918
G1 X116.007 Y167.701 E10.43958
G1 X113.915 Y168.557 E10.55235
G1 X113.703 Y168.635 E10.56362
G1 X110.847 Y169.575 E10.71363
G1 X110.606 Y169.644 E10.72614
G1 X107.944 Y170.294 E10.86284
G1 X107.694 Y170.344 E10.87556
G1 X105.017 Y170.775 E11.01084
G1 X104.812 Y170.802 E11.02116
G1 X102.367 Y171.035 E11.14369
G1 X102.109 Y171.049 E11.15658
G1 X99.372 Y171.088 E11.29314
G1 X99.187 Y171.085 E11.30238
G1 X97.065 Y170.993 E11.40834
G1 X96.801 Y170.971 E11.42156
G1 X93.358 Y170.534 E11.59471
G1 X93.099 Y170.49 E11.60781
G1 X90.447 Y169.929 E11.74305
G1 X90.206 Y169.868 E11.75545
G1 X87.671 Y169.122 E11.88729
G1 X87.482 Y169.06 E11.89721
G1 X85.513 Y168.345 E12.00172
G1 X85.331 Y168.273 E12.01149
G1 X83.22 Y167.357 E12.12629
G1 X82.985 Y167.243 E12.13932
G1 X79.923 Y165.605 E12.31257
G1 X79.683 Y165.463 E12.32648
G1 X77.18 Y163.829 E12.47561
G1 X76.968 Y163.678 E12.4886
G1 X74.681 Y161.905 E12.63297
G1 X74.463 Y161.72 E12.64723
G1 X71.977 Y159.409 E12.81657
G1 X71.784 Y159.213 E12.8303
G1 X69.732 Y156.947 E12.98281
G1 X69.559 Y156.739 E12.99631
G1 X67.765 Y154.386 E13.14393
G1 X67.604 Y154.154 E13.15802
G1 X65.81 Y151.312 E13.32569
G1 X65.674 Y151.075 E13.33933
G1 X64.286 Y148.394 E13.48994
G1 X64.178 Y148.163 E13.50267
G1 X63.101 Y145.601 E13.64132
G1 X63.018 Y145.381 E13.65305
G1 X62.266 Y143.146 E13.7707
G1 X62.208 Y142.953 E13.78075
G1 X61.611 Y140.721 E13.89602
G1 X61.564 Y140.522 E13.90622
G1 X61.107 Y138.24 E14.02233
G1 X61.067 Y137.984 E14.03526
G1 X60.67 Y134.595 E14.20549
G1 X60.653 Y134.409 E14.21481
G1 X60.581 Y133.172 E14.27663
G1 X60.576 Y132.987 E14.28586
G1 X60.558 Y67.895 E17.53332
G1 X60.562 Y67.733 E17.5414
G1 X60.704 Y64.918 E17.68202
G1 X60.731 Y64.636 E17.69615
G1 X61.207 Y61.232 E17.86763
G1 X61.258 Y60.954 E17.88173
G1 X61.956 Y57.936 E18.03628
G1 X62.025 Y57.685 E18.04926
G1 X62.881 Y55 E18.18986
G1 X62.979 Y54.734 E18.204
G1 X64.304 Y51.576 E18.37486
G1 X64.41 Y51.349 E18.38736
G1 X65.451 Y49.327 E18.50082
G1 X65.563 Y49.127 E18.51226
G1 X67.148 Y46.526 E18.66422
G1 X67.294 Y46.308 E18.67731
G1 F1500 E12.17731
G0 F3600 X69.417 Y47.685
G0 X70.479 Y48.373
G0 X70.844 Y47.993
G0 X70.762 Y47.936
;TYPE:WALL-INNER
G1 F1500 E18.67731
G1 F1800 X72.121 Y46.119 E18.79051
G1 X73.599 Y44.374 E18.9046
G1 X75.177 Y42.756 E19.01736
G1 X76.877 Y41.211 E19.13196
G1 X78.683 Y39.769 E19.24726
G1 X80.545 Y38.473 E19.36044
G1 X82.508 Y37.283 E19.47497
G1 X84.518 Y36.232 E19.58813
G1 X86.616 Y35.307 E19.70252
G1 X88.758 Y34.509 E19.81656
G1 X90.963 Y33.859 E19.93125
G1 X93.185 Y33.354 E20.04493
G1 X95.44 Y32.986 E20.15892
G1 X97.704 Y32.772 E20.27238
G1 X100 Y32.694 E20.38699
G1 X102.292 Y32.772 E20.50141
G1 X104.557 Y32.986 E20.61491
G1 X106.814 Y33.355 E20.72901
G1 X109.038 Y33.86 E20.84279
G1 X111.24 Y34.508 E20.9573
G1 X113.38 Y35.307 E21.07127
G1 X115.478 Y36.232 E21.18566
G1 X117.488 Y37.283 E21.29882
G1 X119.456 Y38.473 E21.41356
G1 X121.326 Y39.776 E21.52727
G1 X123.107 Y41.201 E21.64106
G1 X124.819 Y42.756 E21.75645
G1 X126.397 Y44.374 E21.86921
G1 X127.875 Y46.119 E21.98329
G1 X129.234 Y47.936 E22.0965
G1 X130.494 Y49.879 E22.21203
G1 X131.616 Y51.862 E22.3257
G1 X132.608 Y53.916 E22.4395
G1 X133.46 Y56.027 E22.55307
G1 X134.185 Y58.21 E22.66783
G1 X134.761 Y60.404 E22.781
G1 X135.202 Y62.667 E22.89603
G1 X135.493 Y64.939 E23.0103
G1 X135.638 Y67.21 E23.12383
G1 X135.638 Y132.791 E26.39568
G1 X135.493 Y135.077 E26.50996
G1 X135.202 Y137.333 E26.62345
G1 X134.763 Y139.587 E26.73801
G1 X134.188 Y141.78 E26.85112
G1 X133.46 Y143.973 E26.9664
G1 X132.608 Y146.084 E27.07997
G1 X131.617 Y148.137 E27.19371
G1 X130.488 Y150.146 E27.30868
G1 X129.243 Y152.052 E27.42226
G1 X127.881 Y153.889 E27.53635
G1 X126.403 Y155.62 E27.64991
G1 X124.806 Y157.271 E27.7645
G1 X123.107 Y158.815 E27.87904
G1 X121.332 Y160.235 E27.99245
G1 X119.399 Y161.577 E28.10985
G1 X117.459 Y162.748 E28.2229
G1 X115.419 Y163.809 E28.33762
G1 X113.332 Y164.727 E28.45136
G1 X111.185 Y165.509 E28.56536
G1 X108.982 Y166.167 E28.68007
G1 X106.767 Y166.668 E28.79337
G1 X104.506 Y167.019 E28.90752
G1 X102.284 Y167.244 E29.01894
G1 X100 Y167.306 E29.13293
G1 X97.712 Y167.244 E29.24712
G1 X95.442 Y167.014 E29.36096
G1 X93.175 Y166.66 E29.47543
G1 X90.948 Y166.153 E29.58938
G1 X88.774 Y165.497 E29.70267
G1 X86.615 Y164.708 E29.81735
G1 X84.525 Y163.786 E29.93131
G1 X82.493 Y162.724 E30.0457
G1 X80.545 Y161.543 E30.15935
G1 X78.672 Y160.239 E30.27321
G1 X76.887 Y158.814 E30.38716
G1 X75.19 Y157.271 E30.50159
G1 X73.593 Y155.62 E30.61619
G1 X72.115 Y153.889 E30.72975
G1 X70.753 Y152.052 E30.84384
G1 X69.508 Y150.146 E30.95742
G1 X68.38 Y148.137 E31.07237
G1 X67.388 Y146.083 E31.18617
G1 X66.536 Y143.973 E31.29969
G1 X65.808 Y141.78 E31.41497
G1 X65.233 Y139.587 E31.52808
G1 X64.794 Y137.333 E31.64265
G1 X64.503 Y135.077 E31.75613
G1 X64.358 Y132.791 E31.87041
G1 X64.358 Y67.21 E35.14226
G1 X64.503 Y64.939 E35.25579
G1 X64.794 Y62.667 E35.37007
G1 X65.234 Y60.409 E35.48484
G1 X65.808 Y58.22 E35.59774
G1 X66.536 Y56.027 E35.71302
G1 X67.388 Y53.917 E35.82655
G1 X68.386 Y51.851 E35.94101
G1 X69.496 Y49.889 E36.05348
G1 X70.762 Y47.936 E36.16959
G0 F3600 X70.844 Y47.993
G0 X126.329 Y155.553
G0 X126.696 Y155.892
;TYPE:WALL-OUTER
G1 F1800 X125.088 Y157.555 E36.285
G1 X123.369 Y159.118 E36.40092
G1 X121.566 Y160.56 E36.5161
G1 X119.623 Y161.909 E36.63411
G1 X117.644 Y163.103 E36.74942
G1 X115.598 Y164.167 E36.86447
G1 X113.476 Y165.1 E36.98012
G1 X111.316 Y165.887 E37.09481
G1 X109.085 Y166.554 E37.21099
G1 X106.844 Y167.061 E37.32562
G1 X104.551 Y167.417 E37.44138
G1 X102.308 Y167.644 E37.55386
G1 X100 Y167.706 E37.66905
G1 X97.688 Y167.644 E37.78444
G1 X95.394 Y167.411 E37.89947
G1 X93.097 Y167.052 E38.01546
G1 X90.848 Y166.54 E38.13054
G1 X88.643 Y165.875 E38.24544
G1 X86.464 Y165.079 E38.36117
G1 X84.35 Y164.146 E38.47646
G1 X82.304 Y163.077 E38.59163
G1 X80.323 Y161.876 E38.7072
G1 X78.434 Y160.56 E38.82206
G1 X76.627 Y159.118 E38.9374
G1 X74.908 Y157.555 E39.05331
G1 X73.3 Y155.892 E39.16872
G1 X71.806 Y154.143 E39.28348
G1 X70.419 Y152.272 E39.39968
G1 X69.165 Y150.353 E39.51404
G1 X68.031 Y148.333 E39.62962
G1 X67.02 Y146.241 E39.74554
G1 X66.159 Y144.109 E39.86025
G1 X65.428 Y141.906 E39.97605
G1 X64.841 Y139.668 E40.09148
G1 X64.399 Y137.4 E40.20676
G1 X64.106 Y135.128 E40.32105
G1 X63.958 Y132.8 E40.43743
G1 X63.958 Y67.2 E43.71022
G1 X64.106 Y64.888 E43.82581
G1 X64.399 Y62.6 E43.94089
G1 X64.841 Y60.332 E44.05617
G1 X65.428 Y58.094 E44.1716
G1 X66.159 Y55.891 E44.2874
G1 X67.02 Y53.759 E44.40211
G1 X68.032 Y51.665 E44.51814
G1 X69.16 Y49.671 E44.63244
G1 X70.426 Y47.718 E44.74855
G1 X71.801 Y45.879 E44.86311
G1 X73.304 Y44.104 E44.97915
G1 X74.908 Y42.46 E45.09374
G1 X76.627 Y40.898 E45.20962
G1 X78.437 Y39.453 E45.32517
G1 X80.323 Y38.14 E45.43982
G1 X82.307 Y36.937 E45.55557
G1 X84.35 Y35.869 E45.67059
G1 X86.472 Y34.933 E45.78629
G1 X88.631 Y34.129 E45.90123
G1 X90.858 Y33.473 E46.01706
G1 X93.11 Y32.961 E46.13228
G1 X95.384 Y32.59 E46.24723
G1 X97.685 Y32.372 E46.36254
G1 X100 Y32.294 E46.4781
G1 X102.311 Y32.372 E46.59346
G1 X104.616 Y32.59 E46.70897
G1 X106.886 Y32.961 E46.82373
G1 X109.143 Y33.474 E46.9392
G1 X111.367 Y34.128 E47.05486
G1 X113.524 Y34.933 E47.16972
G1 X115.646 Y35.869 E47.28543
G1 X117.689 Y36.937 E47.40044
G1 X119.677 Y38.14 E47.51637
G1 X121.563 Y39.453 E47.63102
G1 X123.369 Y40.898 E47.74641
G1 X125.088 Y42.46 E47.86229
G1 X126.692 Y44.104 E47.97688
G1 X128.195 Y45.879 E48.09292
G1 X129.57 Y47.718 E48.20747
G1 X130.83 Y49.661 E48.32301
G1 X131.971 Y51.677 E48.43858
G1 X132.976 Y53.759 E48.55392
G1 X133.837 Y55.891 E48.66863
G1 X134.568 Y58.094 E48.78443
G1 X135.152 Y60.319 E48.8992
G1 X135.597 Y62.6 E49.01514
G1 X135.89 Y64.888 E49.13022
G1 X136.038 Y67.2 E49.24581
G1 X136.038 Y132.8 E52.5186
G1 X135.89 Y135.128 E52.63498
G1 X135.597 Y137.4 E52.74927
G1 X135.155 Y139.668 E52.86455
G1 X134.568 Y141.906 E52.97998
G1 X133.837 Y144.109 E53.09578
G1 X132.976 Y146.241 E53.2105
G1 X131.966 Y148.333 E53.32639
G1 X130.831 Y150.353 E53.44199
G1 X129.577 Y152.272 E53.55636
G1 X128.19 Y154.143 E53.67255
G1 X126.696 Y155.892 E53.78731
G0 F3600 X126.557 Y156.035
G0 X126.2 Y155.688
G0 X126.115 Y155.342
;TYPE:WALL-INNER
G1 F1800 X124.536 Y156.975 E53.90064
G1 X122.838 Y158.518 E54.01511
G1 X121.092 Y159.915 E54.12667
G1 X119.179 Y161.243 E54.24285
G1 X117.259 Y162.402 E54.35474
G1 X115.257 Y163.443 E54.46731
G1 X113.177 Y164.357 E54.58066
G1 X111.071 Y165.125 E54.6925
G1 X108.87 Y165.783 E54.80711
G1 X106.705 Y166.272 E54.91784
G1 X104.444 Y166.623 E55.03199
G1 X102.26 Y166.844 E55.14151
G1 X100 Y166.906 E55.25431
G1 X97.736 Y166.844 E55.3673
G1 X95.504 Y166.618 E55.47922
G1 X93.237 Y166.264 E55.5937
G1 X91.042 Y165.765 E55.706
G1 X88.912 Y165.121 E55.81702
G1 X86.761 Y164.334 E55.93129
G1 X84.693 Y163.422 E56.04405
G1 X82.695 Y162.378 E56.15652
G1 X80.753 Y161.201 E56.26981
G1 X78.912 Y159.919 E56.38173
G1 X77.157 Y158.518 E56.49377
G1 X75.46 Y156.975 E56.60819
G1 X73.881 Y155.342 E56.72152
G1 X72.431 Y153.645 E56.83288
G1 X71.075 Y151.814 E56.94655
G1 X69.854 Y149.946 E57.05789
G1 X68.738 Y147.959 E57.17159
G1 X67.749 Y145.911 E57.28505
G1 X66.916 Y143.847 E57.3961
G1 X66.188 Y141.654 E57.51138
G1 X65.619 Y139.485 E57.62325
G1 X65.186 Y137.257 E57.73649
G1 X64.903 Y135.051 E57.84745
G1 X64.758 Y132.765 E57.96172
G1 X64.758 Y67.236 E61.23098
G1 X64.903 Y64.965 E61.34451
G1 X65.186 Y62.743 E61.45626
G1 X65.62 Y60.511 E61.5697
G1 X66.188 Y58.346 E61.68137
G1 X66.916 Y56.153 E61.79665
G1 X67.753 Y54.079 E61.90823
G1 X68.74 Y52.037 E62.02138
G1 X69.832 Y50.107 E62.13202
G1 X71.098 Y48.154 E62.24813
G1 X72.427 Y46.377 E62.35884
G1 X73.895 Y44.644 E62.47215
G1 X75.447 Y43.052 E62.58307
G1 X77.147 Y41.507 E62.69768
G1 X78.933 Y40.081 E62.8117
G1 X80.753 Y38.815 E62.92231
G1 X82.716 Y37.625 E63.03683
G1 X84.686 Y36.596 E63.14771
G1 X86.778 Y35.673 E63.26179
G1 X88.872 Y34.893 E63.37327
G1 X91.077 Y34.243 E63.48796
G1 X93.273 Y33.744 E63.60031
G1 X95.482 Y33.384 E63.71198
G1 X97.722 Y33.172 E63.82423
G1 X100 Y33.094 E63.93795
G1 X102.274 Y33.172 E64.05146
G1 X104.515 Y33.384 E64.16377
G1 X106.726 Y33.745 E64.27553
G1 X108.934 Y34.246 E64.38849
G1 X111.122 Y34.89 E64.50228
G1 X113.218 Y35.673 E64.61391
G1 X115.31 Y36.596 E64.72799
G1 X117.291 Y37.631 E64.8395
G1 X119.242 Y38.811 E64.95325
G1 X121.076 Y40.088 E65.06474
G1 X122.857 Y41.513 E65.17854
G1 X124.533 Y43.036 E65.29152
G1 X126.101 Y44.644 E65.40357
G1 X127.569 Y46.377 E65.51688
G1 X128.898 Y48.154 E65.62759
G1 X130.152 Y50.087 E65.74254
G1 X131.262 Y52.048 E65.85496
G1 X132.248 Y54.09 E65.96809
G1 X133.08 Y56.153 E66.07907
G1 X133.805 Y58.336 E66.19383
G1 X134.369 Y60.48 E66.30444
G1 X134.81 Y62.743 E66.41946
G1 X135.093 Y64.965 E66.53121
G1 X135.238 Y67.236 E66.64474
G1 X135.238 Y132.765 E69.914
G1 X135.093 Y135.051 E70.02828
G1 X134.81 Y137.257 E70.13924
G1 X134.377 Y139.485 E70.25247
G1 X133.808 Y141.654 E70.36434
G1 X133.08 Y143.847 E70.47963
G1 X132.247 Y145.912 E70.59071
G1 X131.259 Y147.959 E70.70411
G1 X130.142 Y149.946 E70.81784
G1 X128.921 Y151.814 E70.92917
G1 X127.565 Y153.645 E71.04284
G1 X126.115 Y155.342 E71.1542
G0 F3600 X78.331 Y159.224
;TYPE:SKIN
G1 F1800 X72.378 Y153.271 E71.57422
G1 X72.308 Y153.201
G0 F3600 X70.919 Y151.247
G1 F1800 X80.426 Y160.753 E72.24496
G1 X80.496 Y160.823
G0 F3600 X81.957 Y161.718
G1 F1800 X69.902 Y149.664 E73.09547
G1 X69.832 Y149.594
G0 F3600 X69.176 Y148.372
G1 F1800 X83.286 Y162.482 E74.091
G1 X83.356 Y162.552
G0 F3600 X84.471 Y163.101
G1 F1800 X68.573 Y147.203 E75.21269
G1 X68.503 Y147.133
G0 F3600 X68.044 Y146.109
G1 F1800 X85.526 Y163.591 E76.44614
G1 X85.596 Y163.661
G0 F3600 X86.538 Y164.037
G1 F1800 X67.625 Y145.124 E77.78056
G1 X67.555 Y145.054
G0 F3600 X67.243 Y144.176
G1 F1800 X87.464 Y164.398 E79.20729
G1 X87.534 Y164.468
G0 F3600 X88.357 Y164.724
G1 F1800 X66.92 Y143.288 E80.71975
G1 X66.85 Y143.218
G0 F3600 X66.639 Y142.441
G1 F1800 X89.224 Y165.025 E82.31321
G1 X89.294 Y165.095
G0 F3600 X90.035 Y165.271
G1 F1800 X66.358 Y141.594 E83.98375
G1 X66.288 Y141.524
G0 F3600 X66.156 Y140.827
G1 F1800 X90.846 Y165.516 E85.72573
G1 X90.916 Y165.586
G0 F3600 X91.601 Y165.706
G1 F1800 X65.955 Y140.06 E87.53519
G1 X65.885 Y139.99
G0 F3600 X65.765 Y139.304
G1 F1800 X92.334 Y165.873 E89.40978
G1 X92.404 Y165.943
G0 F3600 X93.066 Y166.039
G1 F1800 X65.63 Y138.603 E91.34554
G1 X65.56 Y138.533
G0 F3600 X65.493 Y137.901
G1 F1800 X93.753 Y166.161 E93.33943
G1 X93.823 Y166.231
G0 F3600 X94.424 Y166.266
G1 F1800 X65.359 Y137.201 E95.39013
G1 X65.289 Y137.131
G0 F3600 X65.276 Y136.552
G1 F1800 X95.094 Y166.37 E97.49395
G1 X95.164 Y166.44
G0 F3600 X95.75 Y166.461
G1 F1800 X65.193 Y135.903 E99.64994
G1 X65.123 Y135.833
G0 F3600 X65.11 Y135.255
G1 F1800 X96.379 Y166.524 E101.85614
G1 X96.449 Y166.594
G0 F3600 X97.008 Y166.587
