;FLAVOR:Marlin
;TIME:251
;Filament used: 0.02374m
;Layer height: 0.1
;Generated with Cura_SteamEngine 3.0.4
M190 S60
M104 S200
M109 S200
M82 ; absolute extrusion mode
G21 ;metric values
G90 ;absolute positioning
M82 ;set extruder to absolute mode
M107 ;start with the fan off
G28 X0 Y0 ;move X/Y to min endstops
G28 Z0 ;move Z to min endstops
G1 Z15.0 F9000 ;move the platform down 15mm
G92 E0 ;zero the extruded length
G1 F200 E3 ;extrude 3mm of feed stock
G92 E0 ;zero the extruded length again
G1 F9000
;Put printing message on LCD screen
M117 Printing...
;LAYER_COUNT:148
;LAYER:0
M107
G0 F3600 X74.337 Y72.352 Z0.3
;TYPE:SKIRT
G1 F1800 X74.802 Y71.889 E0.03274
G1 X76.213 Y70.717 E0.12425
G1 X76.607 Y70.432 E0.14851
G1 X83.973 Y65.836 E0.58167
G1 X84.549 Y65.545 E0.61386
G1 X86.448 Y64.79 E0.71582
G1 X86.91 Y64.641 E0.74004
G1 X95.306 Y62.554 E1.17166
G1 X96.003 Y62.452 E1.20681
G1 X97.455 Y62.383 E1.27933
G1 X97.839 Y62.385 E1.29849
G1 X107.065 Y62.932 E1.75958
G1 X107.739 Y63.037 E1.79361
G1 X109.722 Y63.541 E1.89569
G1 X110.217 Y63.706 E1.92172
G1 X113.658 Y65.137 E2.10765
G1 X118.201 Y66.938 E2.35146
G1 X118.8 Y67.243 E2.38499
G1 X120.517 Y68.33 E2.48638
G1 X120.907 Y68.616 E2.51051
G1 X127.54 Y74.189 E2.94273
G1 X128.03 Y74.69 E2.97769
G1 X129.403 Y76.399 E3.08706
G1 X129.645 Y76.739 E3.10788
G1 X133.936 Y83.57 E3.51034
G1 X134.193 Y84.057 E3.53781
G1 X135.171 Y86.32 E3.66081
G1 X135.36 Y86.879 E3.69025
G1 X137.452 Y95.288 E4.12256
G1 X137.55 Y95.921 E4.15452
G1 X137.684 Y97.962 E4.25656
G1 X137.683 Y98.451 E4.28096
G1 X137.073 Y107.093 E4.71318
G1 X136.971 Y107.725 E4.74512
G1 X136.467 Y109.712 E4.84739
G1 X136.308 Y110.196 E4.87281
G1 X133.907 Y116.036 E5.18783
G1 X133.083 Y118.161 E5.30154
G1 X132.768 Y118.785 E5.33641
G1 X131.677 Y120.509 E5.4382
G1 X131.389 Y120.902 E5.46251
G1 X128.139 Y124.764 E5.71433
G1 X125.821 Y127.528 E5.8943
G1 X125.363 Y127.985 E5.92658
G1 X123.777 Y129.302 E6.02943
G1 X123.382 Y129.586 E6.0537
G1 X116.114 Y134.12 E6.48107
G1 X115.561 Y134.403 E6.51207
G1 X113.589 Y135.202 E6.61822
G1 X113.105 Y135.359 E6.6436
G1 X104.709 Y137.445 E7.07522
G1 X104.077 Y137.543 E7.10712
G1 X102.041 Y137.677 E7.20892
G1 X101.551 Y137.676 E7.23337
G1 X92.897 Y137.064 E7.66619
G1 X92.26 Y136.961 E7.69839
G1 X90.28 Y136.455 E7.80034
G1 X89.832 Y136.309 E7.82385
G1 X83.565 Y133.798 E8.16068
G1 X83.406 Y133.73 E8.1693
G1 X81.513 Y132.864 E8.27316
G1 X81.144 Y132.668 E8.29401
G1 X79.551 Y131.702 E8.38695
G1 X79.07 Y131.353 E8.4166
G1 X76 Y128.712 E8.61864
G1 X72.5 Y125.832 E8.84477
G1 X72.016 Y125.351 E8.87881
G1 X70.711 Y123.778 E8.98078
G1 X70.427 Y123.383 E9.00505
G1 X67.759 Y119.101 E9.25676
G1 X65.845 Y116.036 E9.43704
G1 X65.553 Y115.461 E9.46921
G1 X64.853 Y113.703 E9.56362
G1 X64.697 Y113.209 E9.58946
G1 X63.895 Y109.858 E9.76136
G1 X62.947 Y106.346 E9.94285
G1 X62.886 Y106.079 E9.95651
G1 X62.505 Y104.07 E10.05853
G1 X62.452 Y103.668 E10.07876
G1 X62.332 Y102.066 E10.15891
G1 X62.331 Y101.543 E10.185
G1 X62.942 Y92.896 E10.61748
G1 X63.045 Y92.261 E10.64957
G1 X63.553 Y90.268 E10.75218
G1 X63.704 Y89.805 E10.77648
G1 X66.956 Y81.779 E11.20852
G1 X67.32 Y81.101 E11.24691
G1 X68.488 Y79.391 E11.35022
G1 X68.696 Y79.115 E11.36747
G1 X74.337 Y72.352 E11.80684
G0 F3600 X74.645 Y72.608
G1 F1800 X75.057 Y72.196 E11.83591
G1 X76.468 Y71.024 E11.92742
G1 X76.819 Y70.771 E11.949
G1 X84.185 Y66.175 E12.38216
G1 X84.697 Y65.916 E12.41079
G1 X86.596 Y65.161 E12.51274
G1 X87.006 Y65.03 E12.53422
G1 X95.402 Y62.943 E12.96584
G1 X96.022 Y62.852 E12.9971
G1 X97.474 Y62.783 E13.06963
G1 X97.815 Y62.785 E13.08664
G1 X107.041 Y63.332 E13.54773
G1 X107.64 Y63.425 E13.57798
G1 X109.623 Y63.929 E13.68005
G1 X110.064 Y64.075 E13.70323
G1 X113.551 Y65.525 E13.89164
G1 X118.053 Y67.31 E14.13326
G1 X118.586 Y67.581 E14.16309
G1 X120.303 Y68.668 E14.26447
G1 X120.649 Y68.922 E14.28588
G1 X127.282 Y74.495 E14.71811
G1 X127.719 Y74.941 E14.74926
G1 X129.092 Y76.65 E14.85863
G1 X129.307 Y76.952 E14.87712
G1 X133.598 Y83.783 E15.27958
G1 X133.825 Y84.216 E15.30397
G1 X134.803 Y86.479 E15.42697
G1 X134.971 Y86.975 E15.45309
G1 X137.063 Y95.384 E15.88541
G1 X137.151 Y95.947 E15.91384
G1 X137.285 Y97.988 E16.01588
G1 X137.284 Y98.423 E16.03759
G1 X136.674 Y107.065 E16.46981
G1 X136.584 Y107.627 E16.4982
G1 X136.08 Y109.614 E16.60048
G1 X135.938 Y110.044 E16.62307
G1 X133.513 Y115.943 E16.94127
G1 X132.71 Y118.016 E17.05218
G1 X132.43 Y118.571 E17.08319
G1 X131.339 Y120.295 E17.18498
G1 X131.083 Y120.644 E17.20657
G1 X127.837 Y124.502 E17.45811
G1 X125.515 Y127.271 E17.6384
G1 X125.107 Y127.677 E17.66712
G1 X123.521 Y128.994 E17.76997
G1 X123.171 Y129.247 E17.79151
G1 X115.903 Y133.781 E18.21889
G1 X115.411 Y134.032 E18.24644
G1 X113.439 Y134.831 E18.35259
G1 X113.009 Y134.971 E18.37516
G1 X104.613 Y137.057 E18.80677
G1 X104.051 Y137.144 E18.83514
G1 X102.015 Y137.278 E18.93694
G1 X101.579 Y137.277 E18.95869
G1 X92.925 Y136.665 E19.39152
G1 X92.359 Y136.573 E19.42013
G1 X90.379 Y136.067 E19.52208
G1 X89.981 Y135.937 E19.54297
G1 X83.714 Y133.426 E19.8798
G1 X83.573 Y133.366 E19.88744
G1 X81.68 Y132.5 E19.9913
G1 X81.352 Y132.326 E20.00982
G1 X79.759 Y131.36 E20.10277
G1 X79.331 Y131.05 E20.12913
G1 X76.254 Y128.403 E20.33163
G1 X72.754 Y125.523 E20.55776
G1 X72.324 Y125.095 E20.58803
G1 X71.019 Y123.522 E20.69
G1 X70.766 Y123.171 E20.71159
G1 X68.098 Y118.889 E20.96329
G1 X66.184 Y115.824 E21.14357
G1 X65.925 Y115.313 E21.17215
G1 X65.225 Y113.555 E21.26656
G1 X65.086 Y113.116 E21.28953
G1 X64.284 Y109.766 E21.46139
G1 X63.333 Y106.242 E21.64349
G1 X63.279 Y106.004 E21.65566
G1 X62.898 Y103.995 E21.75768
G1 X62.851 Y103.638 E21.77564
G1 X62.731 Y102.036 E21.85579
G1 X62.73 Y101.571 E21.87899
G1 X63.341 Y92.924 E22.31147
G1 X63.432 Y92.36 E22.33997
G1 X63.94 Y90.367 E22.44258
G1 X64.075 Y89.955 E22.46421
G1 X67.327 Y81.929 E22.89625
G1 X67.651 Y81.326 E22.9304
G1 X68.819 Y79.616 E23.03371
G1 X69.004 Y79.371 E23.04903
G1 X74.645 Y72.608 E23.4884
G1 F1500 E16.9884
G0 F3600 X69.69 Y82.824
G0 X66.4 Y90.939
G0 X65.866 Y93.033
G0 X65.245 Y101.767
G0 X65.421 Y104.212
G0 X65.92 Y106.161
G0 X67.22 Y110.228
G0 X68.086 Y110.356
G0 X68.091 Y110.376
G0 X68.103 Y110.354
;TYPE:WALL-OUTER
G1 F1500 E23.4884
G1 F1800 X68.129 Y110.369 E23.4899
G1 X68.113 Y110.382
G1 X68.066 Y110.419 E23.49119
G1 X68.074 Y110.36
G1 X68.078 Y110.339
G1 X68.103 Y110.354
G0 F3600 X68.129 Y110.369
G0 X68.113 Y110.382
G0 X68.066 Y110.419
G0 X68.074 Y110.36
G0 X68.078 Y110.339
G0 X68.087 Y110.344
G1 F1500 E16.99119
G0 F3600 X68.091 Y110.376
G0 X68.11 Y110.37
G0 X68.649 Y111.06
G0 X69.235 Y111.679
G0 X69.29 Y111.737
G0 X70.644 Y113.168
G0 X73.968 Y113.077
G0 X72.432 Y115.059
G0 X73.437 Y116.122
G0 X74.868 Y114.437
G0 X71.803 Y118.726
G0 X72.036 Y120.154
G0 X72.922 Y121.863
G0 X74.304 Y123.526
G0 X81.004 Y129.161
G0 X82.407 Y130.121
G0 X84.956 Y131.198
G0 X87.193 Y131.733
G0 X88.269 Y131.802
G0 X89.251 Y131.545
G0 X89.281 Y131.551
G0 X89.282 Y131.54
G1 F1500 E23.49119
G1 F1800 X89.284 Y131.594 E23.49388
G1 X89.246 Y131.556
G1 X89.232 Y131.542
G1 X89.256 Y131.532
G1 X89.282 Y131.52
G1 X89.282 Y131.54
G0 F3600 X89.284 Y131.594
G0 X89.246 Y131.556
G0 X89.232 Y131.542
G0 X89.256 Y131.532
G0 X89.282 Y131.52
G0 X89.282 Y131.54
G1 F1500 E16.99388
G0 F3600 X89.281 Y131.551
G0 X89.272 Y131.536
G0 X90.146 Y131.516
G0 X91.21 Y131.354
G0 X89.996 Y133.117
G0 X90.946 Y133.607
G0 X93.04 Y134.141
G0 X101.774 Y134.762
G0 X103.931 Y134.623
G0 X106.118 Y134.082
G0 X103.306 Y128.803
G0 X106.758 Y128.194
G0 X106.703 Y129.011
G0 X108.192 Y128.786
G0 X108.364 Y127.916
G0 X109.071 Y128.653
G0 X110.777 Y128.395
G0 X109.86 Y127.265
G0 X113.078 Y125.878
G0 X113.337 Y128.007
G0 X114.776 Y127.79
G0 X114.855 Y127.778
G0 X117.533 Y127.374
G0 X118.712 Y127.336
G1 F1500 E23.49388
G1 F1800 X118.664 Y127.345 E23.49632
G1 X118.704 Y127.296
G1 X118.752 Y127.33 E23.49859
G1 X118.712 Y127.336
G0 F3600 X118.664 Y127.345
G0 X118.704 Y127.296
G0 X118.752 Y127.33
G0 X118.721 Y127.334
G1 F1500 E16.99859
G0 F3600 X117.533 Y127.374
G0 X114.717 Y126.433
G0 X114.641 Y126.408
G0 X113.14 Y125.907
G0 X113.615 Y131.546
G0 X109.86 Y127.265
G0 X112.995 Y125.859
G0 X110.721 Y125.1
G0 X107.87 Y126.26
G0 X79.009 Y117.621
G0 X76.295 Y113.611
G0 X70.509 Y111.68
G0 X70.433 Y111.655
G0 X68.649 Y111.06
G0 X68.11 Y110.37
G0 X68.08 Y110.372
G0 X68.077 Y110.376
;TIME_ELAPSED:22.283371
;LAYER:1
M140 S60
M106 S255
G0 F5400 X68.077 Y110.376 Z0.4
;TYPE:WALL-OUTER
G1 F1500 E23.49859
G1 F600 X68.102 Y110.391 E23.49908
G1 X68.086 Y110.404
G1 X68.039 Y110.44 E23.49951
G1 X68.047 Y110.382
G1 X68.051 Y110.36
G1 X68.077 Y110.376
G0 F5400 X68.102 Y110.391
G0 X68.086 Y110.404
G0 X68.039 Y110.44
G0 X68.047 Y110.382
G0 X68.051 Y110.36
G0 X68.061 Y110.366
G1 F1500 E16.99951
G0 F5400 X68.064 Y110.397
G0 X68.083 Y110.392
G0 X68.622 Y111.08
G0 X69.191 Y111.68
G0 X69.246 Y111.738
G0 X70.601 Y113.17
G0 X73.967 Y113.077
G0 X72.412 Y115.082
G0 X73.419 Y116.146
G0 X74.868 Y114.437
G0 X71.78 Y118.733
G0 X72.02 Y120.202
G0 X72.906 Y121.911
G0 X74.288 Y123.574
G0 X81.004 Y129.212
G0 X82.368 Y130.156
G0 X84.956 Y131.249
G0 X87.192 Y131.784
G0 X88.29 Y131.855
G0 X89.253 Y131.579
G0 X89.283 Y131.585
G0 X89.283 Y131.574
G1 F1500 E23.49951
G1 F600 X89.285 Y131.626 E23.50038
G1 X89.249 Y131.591
G1 X89.234 Y131.576
G1 X89.258 Y131.566
G1 X89.283 Y131.555
G1 X89.283 Y131.574
G0 F5400 X89.285 Y131.626
G0 X89.249 Y131.591
G0 X89.234 Y131.576
G0 X89.258 Y131.566
G0 X89.283 Y131.555
G0 X89.283 Y131.574
G0 X89.283 Y131.579
G1 F1500 E17.00038
G0 F5400 X89.283 Y131.585
G0 X89.273 Y131.571
G0 X90.147 Y131.551
G0 X91.155 Y131.433
G0 X89.976 Y133.146
G0 X90.961 Y133.656
G0 X93.056 Y134.189
G0 X101.804 Y134.803
G0 X103.961 Y134.664
G0 X113.668 Y132.22
G0 X116.442 Y130.545
G0 X118.19 Y129.05
G0 X118.887 Y128.208
G0 X118.782 Y127.351
G1 F1500 E23.50038
G1 F600 X118.752 Y127.356 E23.50088
G1 X118.716 Y127.362 E23.50149
G1 X118.747 Y127.326
G1 X118.782 Y127.351
G0 F5400 X118.752 Y127.356
G0 X118.716 Y127.362
G0 X118.747 Y127.326
G0 X118.782 Y127.351
G0 X118.752 Y127.356
G0 X118.738 Y127.358
G1 F1500 E17.00149
G0 F5400 X117.574 Y127.404
G0 X114.718 Y126.451
G0 X114.642 Y126.426
G0 X113.142 Y125.925
G0 X113.615 Y131.548
G0 X109.86 Y127.265
G0 X112.971 Y125.869
G0 X110.697 Y125.11
G0 X107.87 Y126.26
G0 X79.009 Y117.621
G0 X76.319 Y113.646
G0 X70.429 Y111.682
G0 X70.353 Y111.657
G0 X68.622 Y111.08
G0 X68.083 Y110.392
G0 X68.072 Y110.405
G0 X68.058 Y110.424
;TIME_ELAPSED:25.429417
;LAYER:2
G0 F7200 X68.058 Y110.424 Z0.5
;TYPE:WALL-OUTER
G1 F1500 E23.50149
G1 F600 X68.012 Y110.46 E23.50246
G1 X68.02 Y110.403
G1 X68.024 Y110.382
G1 X68.049 Y110.397
G1 X68.074 Y110.412
G1 X68.058 Y110.424
G0 F7200 X68.012 Y110.46
G0 X68.02 Y110.403
G0 X68.024 Y110.382
G0 X68.049 Y110.397
G0 X68.074 Y110.412
G0 X68.07 Y110.415
G1 F1500 E17.00246
G0 F7200 X68.045 Y110.427
G0 X68.055 Y110.413
G0 X68.594 Y111.102
G0 X69.146 Y111.684
G0 X69.201 Y111.742
G0 X70.555 Y113.171
G0 X73.968 Y113.077
G0 X72.392 Y115.109
G0 X73.398 Y116.171
G0 X74.868 Y114.437
G0 X71.757 Y118.739
G0 X72.004 Y120.25
G0 X72.89 Y121.959
G0 X74.271 Y123.622
G0 X81.003 Y129.263
G0 X82.329 Y130.191
G0 X84.955 Y131.3
G0 X87.192 Y131.835
G0 X88.304 Y131.906
G0 X89.252 Y131.614
G0 X89.282 Y131.62
G0 X89.284 Y131.609
G1 F1500 E23.50246
G1 F600 X89.286 Y131.663 E23.50336
G1 X89.249 Y131.626
G1 X89.233 Y131.611
G1 X89.258 Y131.6
G1 X89.284 Y131.589
G1 X89.284 Y131.609
G0 F7200 X89.286 Y131.663
G0 X89.249 Y131.626
G0 X89.233 Y131.611
G0 X89.258 Y131.6
G0 X89.284 Y131.589
G0 X89.284 Y131.607
G1 F1500 E17.00336
G0 F7200 X89.282 Y131.62
G0 X89.274 Y131.605
G0 X90.148 Y131.585
G0 X91.129 Y131.469
G0 X89.954 Y133.176
G0 X90.976 Y133.704
G0 X93.071 Y134.238
G0 X101.833 Y134.844
G0 X103.99 Y134.705
G0 X113.673 Y132.272
G0 X116.483 Y130.575
G0 X118.231 Y129.08
G0 X118.941 Y128.222
G0 X118.791 Y127.373
G1 F1500 E23.50336
G1 F600 X118.769 Y127.377 E23.50373
G1 X118.788 Y127.355 E23.50382
G1 X118.81 Y127.371 E23.50392
G1 X118.791 Y127.373
G0 F7200 X118.769 Y127.377
G0 X118.788 Y127.355
G0 X118.81 Y127.371
G0 X118.791 Y127.373
G0 X118.769 Y127.377
G0 X118.788 Y127.355
G0 X118.81 Y127.371
G0 X118.791 Y127.373
G0 X118.785 Y127.374
G1 F1500 E17.00392
G0 F7200 X117.616 Y127.433
G0 X114.72 Y126.468
G0 X114.644 Y126.442
G0 X113.144 Y125.943
G0 X113.615 Y131.547
G0 X109.86 Y127.265
G0 X112.949 Y125.878
G0 X110.674 Y125.12
G0 X107.87 Y126.26
G0 X79.009 Y117.621
G0 X76.342 Y113.683
G0 X70.347 Y111.686
G0 X70.271 Y111.66
G0 X68.594 Y111.102
G0 X68.055 Y110.413
G0 X68.045 Y110.427
G0 X68.031 Y110.446
;TIME_ELAPSED:28.313994
;LAYER:3
G0 X68.031 Y110.446 Z0.6
;TYPE:WALL-OUTER
G1 F1500 E23.50392
G1 F600 X67.985 Y110.482 E23.50489
G1 X67.993 Y110.424
G1 X67.997 Y110.403
G1 X68.022 Y110.417
G1 X68.048 Y110.433
G1 X68.031 Y110.446
G0 F7200 X67.985 Y110.482
G0 X67.993 Y110.424
G0 X67.997 Y110.403
G0 X68.022 Y110.417
G0 X68.048 Y110.433
G0 X68.044 Y110.436
G1 F1500 E17.00489
G0 F7200 X68.018 Y110.448
G0 X68.029 Y110.434
G0 X68.569 Y111.122
G0 X69.103 Y111.684
G0 X69.158 Y111.742
G0 X70.514 Y113.172
G0 X73.968 Y113.077
G0 X72.372 Y115.133
G0 X73.38 Y116.195
G0 X74.868 Y114.437
G0 X71.734 Y118.745
G0 X71.988 Y120.298
G0 X72.874 Y122.007
G0 X74.255 Y123.67
G0 X81.003 Y129.314
G0 X82.29 Y130.226
G0 X84.955 Y131.351
G0 X87.191 Y131.886
G0 X88.323 Y131.959
G0 X89.253 Y131.648
G0 X89.283 Y131.654
G0 X89.285 Y131.644
G1 F1500 E23.50489
G1 F600 X89.286 Y131.697 E23.50577
G1 X89.249 Y131.66
G1 X89.234 Y131.645
G1 X89.259 Y131.635
G1 X89.285 Y131.623
G1 X89.285 Y131.644
G0 F7200 X89.286 Y131.697
G0 X89.249 Y131.66
G0 X89.234 Y131.645
G0 X89.259 Y131.635
G0 X89.285 Y131.623
G0 X89.285 Y131.643
G1 F1500 E17.00577
G0 F7200 X89.283 Y131.654
G0 X89.275 Y131.639
G0 X90.148 Y131.619
G0 X91.104 Y131.505
G0 X89.933 Y133.207
G0 X90.991 Y133.753
G0 X93.086 Y134.286
G0 X101.863 Y134.886
G0 X104.02 Y134.747
G0 X112.553 Y132.607
G0 X114.56 Y131.806
G0 X116.524 Y130.605
G0 X118.271 Y129.111
G0 X118.994 Y128.237
G0 X118.837 Y127.39
G1 F1500 E23.50577
G1 F600 X118.822 Y127.393 E23.50603
G1 X118.829 Y127.385
G1 X118.837 Y127.39
G0 F7200 X118.822 Y127.393
G0 X118.829 Y127.385
G0 X118.837 Y127.39
G0 X118.822 Y127.393
G0 X118.829 Y127.385
G0 X118.837 Y127.39
G0 X118.822 Y127.393
G0 X118.829 Y127.385
G0 X118.837 Y127.39
G0 X118.822 Y127.393
G0 X118.829 Y127.385
G0 X118.837 Y127.39
G0 X118.822 Y127.393
G0 X118.829 Y127.385
G0 X118.837 Y127.39
G0 X118.822 Y127.393
G0 X118.829 Y127.385
G0 X118.833 Y127.387
G1 F1500 E17.00603
G0 F7200 X119.346 Y126.692
G0 X119.262 Y126.665
G0 X119.186 Y126.642
G0 X114.647 Y125.25
G0 X114.578 Y125.237
G0 X114.521 Y125.211
G0 X112.148 Y124.484
G0 X107.87 Y126.26
G0 X79.009 Y117.621
G0 X76.195 Y113.459
G0 X70.401 Y111.683
G0 X70.325 Y111.659
G0 X68.569 Y111.122
G0 X68.029 Y110.434
G0 X67.999 Y110.435
G0 X67.996 Y110.439
;TIME_ELAPSED:31.000442
;LAYER:4
G0 X67.996 Y110.439 Z0.7
;TYPE:WALL-OUTER
G1 F1500 E23.50603
G1 F600 X68.02 Y110.454 E23.5065
G1 X68.005 Y110.466
G1 X67.957 Y110.504 E23.50696
G1 X67.965 Y110.445
G1 X67.969 Y110.423
G1 X67.996 Y110.439
G0 F7200 X68.02 Y110.454
G0 X68.005 Y110.466
G0 X67.957 Y110.504
G0 X67.965 Y110.445
G0 X67.969 Y110.423
G0 X67.978 Y110.428
G1 F1500 E17.00696
G0 F7200 X67.982 Y110.461
G0 X68.001 Y110.455
G0 X68.54 Y111.145
G0 X69.055 Y111.686
G0 X69.11 Y111.744
G0 X70.468 Y113.175
G0 X73.967 Y113.077
G0 X72.35 Y115.159
G0 X73.359 Y116.221
G0 X74.868 Y114.437
G0 X71.713 Y118.75
G0 X71.972 Y120.347
G0 X72.858 Y122.056
G0 X74.239 Y123.719
G0 X81.002 Y129.365
G0 X82.251 Y130.261
G0 X84.955 Y131.402
G0 X87.191 Y131.937
G0 X88.342 Y132.011
G0 X89.253 Y131.681
G0 X89.283 Y131.687
G0 X89.285 Y131.676
G1 F1500 E23.50696
G1 F600 X89.287 Y131.731 E23.50788
G1 X89.248 Y131.692
G1 X89.234 Y131.678
G1 X89.259 Y131.668
G1 X89.285 Y131.656
G1 X89.285 Y131.676
G0 F7200 X89.287 Y131.731
G0 X89.248 Y131.692
G0 X89.234 Y131.678
G0 X89.259 Y131.668
G0 X89.285 Y131.656
G0 X89.285 Y131.673
G1 F1500 E17.00788
G0 F7200 X89.283 Y131.687
G0 X89.253 Y131.681
G0 X88.342 Y132.011
G0 X87.191 Y131.937
G0 X84.955 Y131.402
G0 X82.251 Y130.261
G0 X81.002 Y129.365
