;FLAVOR:RepRap
;TIME:230
;Filament used: 0.14245m
;Layer height: 0.1
;Generated with Cura_SteamEngine 2.5.0
M190 S50
M104 S210
M109 S210
G21 ;metric values
G90 ;absolute positioning
M82 ;set extruder to absolute mode
M107 ;start with the fan off
G28 X0 Y0 ;move X/Y to min endstops
G28 Z0 ;move Z to min endstops
G1 Z15.0 F9000 ;move the platform down 15mm
G92 E0 ;zero the extruded length
G1 F200 E3 ;extrude 3mm of feed stock
G92 E0 ;zero the extruded length again
G1 F9000
;Put printing message on LCD screen
M117 Printing...
;LAYER_COUNT:40
;LAYER:0
M107
G0 F3600 X87.838 Y89.5 Z0.3
;TYPE:SKIRT
G1 F1800 X88.47 Y88.971 E0.04112
G1 X89.696 Y88.05 E0.11762
G1 X90.351 Y87.608 E0.15704
G1 X91.047 Y87.235 E0.19644
G1 X91.777 Y86.934 E0.23583
G1 X92.533 Y86.708 E0.2752
G1 X93.309 Y86.56 E0.31461
G1 X94.41 Y86.486 E0.36966
G1 X94.949 Y86.488 E0.39656
G1 X95.737 Y86.531 E0.43593
G1 X96.518 Y86.653 E0.47536
G1 X97.281 Y86.854 E0.51473
G1 X97.994 Y87.121 E0.55271
G1 X102.023 Y87.121 E0.75372
G1 X102.365 Y86.974 E0.77229
G1 X103.118 Y86.737 E0.81168
G1 X103.892 Y86.578 E0.8511
G1 X105.065 Y86.487 E0.9098
G1 X105.605 Y86.486 E0.93674
G1 X106.393 Y86.525 E0.9761
G1 X107.174 Y86.643 E1.0155
G1 X107.939 Y86.839 E1.0549
G1 X108.68 Y87.112 E1.0943
G1 X109.39 Y87.458 E1.1337
G1 X110.304 Y88.05 E1.18803
G1 X111.53 Y88.971 E1.26454
G1 X112.136 Y89.476 E1.30389
G1 X112.689 Y90.041 E1.34333
G1 X113.181 Y90.658 E1.3827
G1 X113.609 Y91.322 E1.42212
G1 X113.967 Y92.026 E1.46152
G1 X114.252 Y92.762 E1.5009
G1 X114.461 Y93.524 E1.54032
G1 X114.592 Y94.302 E1.57968
G1 X114.645 Y95.125 E1.62082
G1 X114.658 Y96.363 E1.68259
G1 X114.626 Y97.152 E1.72199
G1 X114.515 Y97.934 E1.76139
G1 X114.325 Y98.7 E1.80076
G1 X114.058 Y99.444 E1.8402
G1 X113.794 Y99.998 E1.87082
G1 X113.859 Y100.116 E1.87754
G1 X114.171 Y100.841 E1.91692
G1 X114.408 Y101.594 E1.9563
G1 X114.567 Y102.368 E1.99572
G1 X114.648 Y103.153 E2.03509
G1 X114.658 Y103.637 E2.05925
G1 X114.645 Y104.875 E2.12101
G1 X114.596 Y105.663 E2.1604
G1 X114.469 Y106.442 E2.19978
G1 X114.263 Y107.205 E2.23921
G1 X113.981 Y107.942 E2.27858
G1 X113.626 Y108.648 E2.318
G1 X113.201 Y109.314 E2.35742
G1 X112.712 Y109.933 E2.39677
G1 X112.162 Y110.5 E2.43618
G1 X111.531 Y111.029 E2.47726
G1 X110.304 Y111.951 E2.55384
G1 X109.649 Y112.393 E2.59326
G1 X108.953 Y112.766 E2.63265
G1 X108.223 Y113.067 E2.67205
G1 X107.467 Y113.293 E2.71141
G1 X106.691 Y113.441 E2.75083
G1 X105.604 Y113.515 E2.80518
G1 X105.065 Y113.514 E2.83207
G1 X104.276 Y113.473 E2.87149
G1 X103.496 Y113.352 E2.91087
G1 X102.731 Y113.152 E2.95032
G1 X101.999 Y112.88 E2.98928
G1 X97.978 Y112.88 E3.18989
G1 X97.634 Y113.028 E3.20857
G1 X96.881 Y113.265 E3.24795
G1 X96.107 Y113.424 E3.28738
G1 X95.322 Y113.505 E3.32675
G1 X94.92 Y113.515 E3.34681
G1 X94.382 Y113.515 E3.37365
G1 X93.593 Y113.475 E3.41306
G1 X92.813 Y113.356 E3.45243
G1 X92.048 Y113.158 E3.49185
G1 X91.308 Y112.884 E3.53122
G1 X90.599 Y112.536 E3.57062
G1 X89.797 Y112.025 E3.61807
G1 X88.59 Y111.148 E3.6925
G1 X87.976 Y110.652 E3.73188
G1 X87.414 Y110.097 E3.77129
G1 X86.912 Y109.487 E3.8107
G1 X86.474 Y108.83 E3.85009
G1 X86.105 Y108.132 E3.88948
G1 X85.808 Y107.4 E3.9289
G1 X85.587 Y106.642 E3.96829
G1 X85.443 Y105.866 E4.00766
G1 X85.378 Y105.039 E4.04905
G1 X85.345 Y103.756 E4.11308
G1 X85.364 Y102.966 E4.1525
G1 X85.464 Y102.183 E4.19189
G1 X85.642 Y101.413 E4.23131
G1 X85.897 Y100.666 E4.27069
G1 X86.204 Y99.997 E4.30742
G1 X86.141 Y99.884 E4.31387
G1 X85.829 Y99.159 E4.35325
G1 X85.592 Y98.406 E4.39263
G1 X85.433 Y97.632 E4.43205
G1 X85.352 Y96.847 E4.47143
G1 X85.342 Y96.363 E4.49558
G1 X85.355 Y95.125 E4.55735
G1 X85.404 Y94.337 E4.59673
G1 X85.531 Y93.558 E4.63611
G1 X85.737 Y92.795 E4.67554
G1 X86.019 Y92.058 E4.71491
G1 X86.374 Y91.352 E4.75434
G1 X86.799 Y90.686 E4.79375
G1 X87.288 Y90.067 E4.83311
G1 X87.838 Y89.5 E4.87252
G0 F3600 X88.229 Y89.685
G1 F1800 X88.71 Y89.29 E4.90357
G1 X89.936 Y88.369 E4.98007
G1 X90.575 Y87.94 E5.01847
G1 X91.254 Y87.579 E5.05683
G1 X91.967 Y87.291 E5.0952
G1 X92.706 Y87.078 E5.13357
G1 X93.463 Y86.943 E5.17193
G1 X94.408 Y86.886 E5.21916
G1 X94.947 Y86.888 E5.24605
G1 X95.715 Y86.931 E5.28443
G1 X96.475 Y87.053 E5.32283
G1 X97.217 Y87.254 E5.36118
G1 X97.912 Y87.521 E5.39833
G1 X102.091 Y87.521 E5.60682
G1 X102.73 Y87.27 E5.64107
G1 X103.472 Y87.064 E5.67949
G1 X104.23 Y86.936 E5.71784
G1 X105.065 Y86.887 E5.75957
G1 X105.605 Y86.886 E5.78651
G1 X106.373 Y86.925 E5.82488
G1 X107.134 Y87.043 E5.8633
G1 X107.877 Y87.239 E5.90163
G1 X108.596 Y87.511 E5.93999
G1 X109.284 Y87.857 E5.97841
G1 X110.064 Y88.369 E6.02496
G1 X111.29 Y89.29 E6.10146
G1 X111.88 Y89.784 E6.13985
G1 X112.415 Y90.336 E6.1782
G1 X112.891 Y90.94 E6.21657
G1 X113.301 Y91.591 E6.25495
G1 X113.642 Y92.281 E6.29335
G1 X113.909 Y93.002 E6.33171
G1 X114.1 Y93.747 E6.37008
G1 X114.212 Y94.508 E6.40845
G1 X114.245 Y95.129 E6.43948
G1 X114.258 Y96.367 E6.50124
G1 X114.226 Y97.136 E6.53964
G1 X114.114 Y97.897 E6.57802
G1 X113.924 Y98.642 E6.61638
G1 X113.658 Y99.364 E6.65476
G1 X113.342 Y100.006 E6.69046
G1 X113.594 Y100.491 E6.71773
G1 X113.875 Y101.206 E6.75606
G1 X114.081 Y101.948 E6.79448
G1 X114.209 Y102.706 E6.83283
G1 X114.258 Y103.633 E6.87914
G1 X114.245 Y104.871 E6.94091
G1 X114.197 Y105.638 E6.97925
G1 X114.069 Y106.397 E7.01765
G1 X113.864 Y107.138 E7.05601
G1 X113.582 Y107.854 E7.0944
G1 X113.228 Y108.537 E7.13278
G1 X112.805 Y109.179 E7.17114
G1 X112.318 Y109.774 E7.2095
G1 X111.771 Y110.315 E7.24788
G1 X111.29 Y110.709 E7.2789
G1 X110.063 Y111.631 E7.35547
G1 X109.425 Y112.06 E7.39383
G1 X108.746 Y112.421 E7.43219
G1 X108.033 Y112.71 E7.47058
G1 X107.294 Y112.923 E7.50895
G1 X106.537 Y113.058 E7.54731
G1 X105.604 Y113.115 E7.59394
G1 X105.065 Y113.114 E7.62083
G1 X104.297 Y113.073 E7.65921
G1 X103.538 Y112.952 E7.69755
G1 X102.795 Y112.753 E7.73592
G1 X102.084 Y112.48 E7.77392
G1 X97.91 Y112.48 E7.98216
G1 X97.269 Y112.732 E8.01653
G1 X96.527 Y112.938 E8.05494
G1 X95.769 Y113.066 E8.0933
G1 X94.92 Y113.115 E8.13572
G1 X94.382 Y113.115 E8.16256
G1 X93.614 Y113.075 E8.20093
G1 X92.854 Y112.956 E8.23931
G1 X92.111 Y112.758 E8.27767
G1 X91.392 Y112.484 E8.31606
G1 X90.706 Y112.137 E8.35441
G1 X90.032 Y111.702 E8.39444
G1 X88.825 Y110.825 E8.46887
G1 X88.227 Y110.341 E8.50725
G1 X87.683 Y109.797 E8.54563
G1 X87.198 Y109.201 E8.58397
G1 X86.777 Y108.557 E8.62236
G1 X86.426 Y107.872 E8.66076
G1 X86.147 Y107.155 E8.69914
G1 X85.945 Y106.413 E8.73751
G1 X85.82 Y105.654 E8.77588
G1 X85.777 Y105.028 E8.80719
G1 X85.744 Y103.745 E8.87122
G1 X85.765 Y102.976 E8.9096
G1 X85.865 Y102.214 E8.94794
G1 X86.043 Y101.466 E8.9863
G1 X86.298 Y100.74 E9.02469
G1 X86.627 Y100.045 E9.06305
G1 X86.658 Y99.994 E9.06603
G1 X86.406 Y99.509 E9.0933
G1 X86.125 Y98.794 E9.13162
G1 X85.919 Y98.052 E9.17004
G1 X85.791 Y97.294 E9.2084
G1 X85.742 Y96.367 E9.25471
G1 X85.755 Y95.129 E9.31648
G1 X85.803 Y94.362 E9.35482
G1 X85.931 Y93.603 E9.39322
G1 X86.136 Y92.862 E9.43158
G1 X86.418 Y92.146 E9.46997
G1 X86.772 Y91.463 E9.50835
G1 X87.195 Y90.821 E9.5467
G1 X87.682 Y90.226 E9.58506
G1 X88.229 Y89.685 E9.62345
G0 F3600 X88.951 Y89.61
G1 F1800 X90.177 Y88.689 E9.69995
G1 X90.798 Y88.273 E9.73724
G1 X91.46 Y87.925 E9.77455
G1 X92.156 Y87.649 E9.81191
G1 X92.877 Y87.45 E9.84922
G1 X93.615 Y87.328 E9.88654
G1 X94.407 Y87.286 E9.92611
G1 X94.946 Y87.288 E9.953
G1 X95.693 Y87.331 E9.99033
G1 X96.431 Y87.453 E10.02765
G1 X97.152 Y87.653 E10.06498
G1 X97.827 Y87.921 E10.10121
G1 X102.187 Y87.921 E10.31873
G1 X102.387 Y87.825 E10.3298
G1 X103.092 Y87.575 E10.36712
G1 X103.82 Y87.401 E10.40446
G1 X104.562 Y87.306 E10.44178
G1 X105.066 Y87.287 E10.46695
G1 X105.606 Y87.286 E10.49389
G1 X106.353 Y87.325 E10.5312
G1 X107.092 Y87.443 E10.56854
G1 X107.814 Y87.639 E10.60586
G1 X108.51 Y87.911 E10.64315
G1 X109.174 Y88.256 E10.68048
G1 X109.823 Y88.689 E10.7194
G1 X111.049 Y89.61 E10.7959
G1 X111.623 Y90.091 E10.83327
G1 X112.141 Y90.63 E10.87056
G1 X112.599 Y91.221 E10.90786
G1 X112.992 Y91.858 E10.94521
G1 X113.314 Y92.533 E10.98252
G1 X113.563 Y93.239 E11.01987
G1 X113.734 Y93.967 E11.05717
G1 X113.827 Y94.709 E11.09448
G1 X113.845 Y95.133 E11.11565
G1 X113.858 Y96.371 E11.17742
G1 X113.825 Y97.119 E11.21478
G1 X113.714 Y97.859 E11.25211
G1 X113.524 Y98.582 E11.2894
G1 X113.258 Y99.281 E11.32672
G1 X112.918 Y99.948 E11.36407
G1 X112.881 Y100.004 E11.36742
G1 X112.996 Y100.189 E11.37828
G1 X113.32 Y100.863 E11.41559
G1 X113.57 Y101.568 E11.45291
G1 X113.744 Y102.296 E11.49025
G1 X113.839 Y103.038 E11.52758
G1 X113.858 Y103.629 E11.55708
G1 X113.845 Y104.867 E11.61884
G1 X113.797 Y105.613 E11.65614
G1 X113.67 Y106.35 E11.69345
G1 X113.464 Y107.07 E11.73081
G1 X113.184 Y107.763 E11.7681
G1 X112.831 Y108.422 E11.8054
G1 X112.409 Y109.04 E11.84273
G1 X111.924 Y109.61 E11.88007
G1 X111.381 Y110.124 E11.91737
G1 X111.05 Y110.389 E11.93853
G1 X109.823 Y111.311 E12.0151
G1 X109.202 Y111.728 E12.05242
G1 X108.54 Y112.076 E12.08973
G1 X107.844 Y112.352 E12.12709
G1 X107.123 Y112.551 E12.1644
G1 X106.385 Y112.673 E12.20172
G1 X105.605 Y112.715 E12.24069
G1 X105.066 Y112.714 E12.26758
G1 X104.319 Y112.673 E12.30491
G1 X103.581 Y112.552 E12.34222
G1 X102.86 Y112.353 E12.37953
G1 X102.169 Y112.08 E12.4166
G1 X97.814 Y112.08 E12.63387
G1 X97.612 Y112.177 E12.64505
G1 X96.907 Y112.427 E12.68237
G1 X96.179 Y112.601 E12.71971
G1 X95.437 Y112.696 E12.75703
G1 X94.92 Y112.715 E12.78284
G1 X94.382 Y112.715 E12.80968
G1 X93.635 Y112.675 E12.84701
G1 X92.897 Y112.556 E12.8843
G1 X92.175 Y112.358 E12.92165
G1 X91.479 Y112.085 E12.95895
G1 X90.816 Y111.738 E12.99628
G1 X90.267 Y111.378 E13.02904
G1 X89.06 Y110.501 E13.10347
G1 X88.479 Y110.03 E13.14079
G1 X87.952 Y109.499 E13.17811
G1 X87.485 Y108.915 E13.21542
G1 X87.082 Y108.284 E13.25277
G1 X86.749 Y107.615 E13.29005
G1 X86.49 Y106.913 E13.32738
G1 X86.306 Y106.188 E13.3647
G1 X86.202 Y105.447 E13.40203
G1 X86.177 Y105.018 E13.42347
G1 X86.144 Y103.735 E13.4875
G1 X86.165 Y102.987 E13.52483
G1 X86.265 Y102.246 E13.56214
G1 X86.444 Y101.52 E13.59944
G1 X86.7 Y100.816 E13.63681
G1 X87.029 Y100.145 E13.6741
G1 X87.121 Y99.999 E13.68271
G1 X87.004 Y99.811 E13.69376
G1 X86.68 Y99.137 E13.73106
G1 X86.43 Y98.432 E13.76838
G1 X86.256 Y97.704 E13.80573
G1 X86.161 Y96.962 E13.84305
G1 X86.142 Y96.371 E13.87255
G1 X86.155 Y95.133 E13.93431
G1 X86.203 Y94.387 E13.97161
G1 X86.33 Y93.65 E14.00892
G1 X86.536 Y92.93 E14.04628
G1 X86.816 Y92.237 E14.08357
G1 X87.169 Y91.578 E14.12087
G1 X87.591 Y90.96 E14.1582
G1 X88.076 Y90.39 E14.19554
G1 X88.619 Y89.876 E14.23285
G1 X88.951 Y89.61 E14.25407
G0 F3600 X89.191 Y89.93
G1 F1800 X90.417 Y89.009 E14.33057
G1 X91.021 Y88.605 E14.36682
G1 X91.665 Y88.271 E14.40302
G1 X92.343 Y88.009 E14.43928
G1 X93.045 Y87.823 E14.47551
G1 X93.763 Y87.715 E14.51174
G1 X94.405 Y87.686 E14.5438
G1 X94.944 Y87.688 E14.57069
G1 X95.67 Y87.731 E14.60697
G1 X96.386 Y87.853 E14.64321
G1 X97.084 Y88.053 E14.67943
G1 X97.739 Y88.321 E14.71474
G1 X102.276 Y88.321 E14.94109
G1 X102.757 Y88.109 E14.96732
G1 X103.45 Y87.891 E15.00356
G1 X104.162 Y87.751 E15.03976
G1 X105.067 Y87.687 E15.08503
G1 X105.607 Y87.686 E15.11197
G1 X106.332 Y87.725 E15.14819
G1 X107.049 Y87.843 E15.18444
G1 X107.748 Y88.039 E15.22066
G1 X108.422 Y88.311 E15.25692
G1 X109.061 Y88.655 E15.29313
G1 X109.583 Y89.009 E15.3246
G1 X110.809 Y89.93 E15.4011
G1 X111.365 Y90.398 E15.43735
G1 X111.866 Y90.923 E15.47356
G1 X112.306 Y91.501 E15.5098
G1 X112.681 Y92.124 E15.54608
G1 X112.984 Y92.784 E15.58231
G1 X113.213 Y93.473 E15.61853
G1 X113.365 Y94.183 E15.65476
G1 X113.445 Y95.138 E15.70257
G1 X113.458 Y96.376 E15.76434
G1 X113.425 Y97.101 E15.80055
G1 X113.313 Y97.819 E15.8368
G1 X113.123 Y98.52 E15.87304
G1 X112.857 Y99.196 E15.90928
G1 X112.519 Y99.839 E15.94552
G1 X112.412 Y99.997 E15.95504
G1 X112.743 Y100.568 E15.98797
G1 X113.036 Y101.233 E16.02422
G1 X113.254 Y101.926 E16.06047
G1 X113.394 Y102.638 E16.09667
G1 X113.458 Y103.624 E16.14596
G1 X113.445 Y104.862 E16.20773
G1 X113.397 Y105.587 E16.24398
G1 X113.27 Y106.302 E16.28021
G1 X113.065 Y106.999 E16.31646
G1 X112.785 Y107.669 E16.35268
G1 X112.433 Y108.305 E16.38895
G1 X112.013 Y108.898 E16.4252
G1 X111.531 Y109.441 E16.46143
G1 X110.81 Y110.069 E16.50913
G1 X109.583 Y110.991 E16.5857
G1 X108.979 Y111.395 E16.62195
G1 X108.334 Y111.73 E16.65822
G1 X107.657 Y111.992 E16.69443
G1 X106.955 Y112.178 E16.73066
G1 X106.237 Y112.286 E16.76689
G1 X105.606 Y112.315 E16.7984
G1 X105.067 Y112.314 E16.82529
G1 X104.342 Y112.273 E16.86152
G1 X103.625 Y112.152 E16.8978
G1 X102.927 Y111.953 E16.93401
G1 X102.256 Y111.68 E16.97015
G1 X97.725 Y111.68 E17.1962
G1 X97.242 Y111.893 E17.22254
G1 X96.549 Y112.111 E17.25878
G1 X95.837 Y112.251 E17.29498
G1 X94.92 Y112.315 E17.34084
G1 X94.382 Y112.315 E17.36769
G1 X93.657 Y112.275 E17.40391
G1 X92.94 Y112.156 E17.44017
G1 X92.241 Y111.958 E17.47642
G1 X91.568 Y111.685 E17.51265
G1 X90.929 Y111.34 E17.54888
G1 X90.502 Y111.054 E17.57452
G1 X89.295 Y110.177 E17.64896
G1 X88.732 Y109.719 E17.68516
G1 X88.223 Y109.201 E17.7214
G1 X87.773 Y108.63 E17.75767
G1 X87.389 Y108.014 E17.79388
G1 X87.075 Y107.359 E17.83012
G1 X86.835 Y106.673 E17.86638
G1 X86.672 Y105.965 E17.90262
G1 X86.577 Y105.008 E17.9506
G1 X86.544 Y103.725 E18.01463
G1 X86.565 Y102.999 E18.05087
G1 X86.666 Y102.279 E18.08714
G1 X86.846 Y101.575 E18.12339
G1 X87.102 Y100.896 E18.1596
G1 X87.43 Y100.248 E18.19583
G1 X87.589 Y100.005 E18.21032
G1 X87.257 Y99.432 E18.24336
G1 X86.964 Y98.767 E18.27961
G1 X86.746 Y98.074 E18.31586
G1 X86.606 Y97.362 E18.35206
G1 X86.542 Y96.376 E18.40136
G1 X86.555 Y95.138 E18.46312
G1 X86.603 Y94.413 E18.49937
G1 X86.73 Y93.698 E18.5356
G1 X86.935 Y93.001 E18.57185
G1 X87.215 Y92.331 E18.60808
G1 X87.567 Y91.695 E18.64434
G1 X87.987 Y91.102 E18.6806
G1 X88.469 Y90.559 E18.71682
G1 X89.191 Y89.93 E18.76459
G0 F3600 X89.431 Y90.25
G1 F1800 X90.657 Y89.329 E18.84109
G1 X91.243 Y88.939 E18.87621
G1 X91.869 Y88.617 E18.91133
G1 X92.528 Y88.369 E18.94646
G1 X93.211 Y88.197 E18.9816
G1 X93.909 Y88.104 E19.01673
G1 X94.404 Y88.086 E19.04144
G1 X94.943 Y88.088 E19.06834
G1 X95.646 Y88.131 E19.10347
G1 X96.339 Y88.253 E19.13858
G1 X97.014 Y88.452 E19.17369
G1 X97.648 Y88.721 E19.20805
G1 X102.361 Y88.721 E19.44318
G1 X102.468 Y88.664 E19.44923
G1 X103.122 Y88.404 E19.48434
G1 X103.802 Y88.22 E19.51949
G1 X104.498 Y88.114 E19.55461
G1 X105.068 Y88.087 E19.58308
G1 X105.608 Y88.086 E19.61002
G1 X106.31 Y88.125 E19.6451
G1 X107.004 Y88.243 E19.68022
G1 X107.681 Y88.439 E19.71538
G1 X108.33 Y88.71 E19.75047
G1 X108.945 Y89.053 E19.7856
G1 X109.343 Y89.329 E19.80976
G1 X110.569 Y90.25 E19.88627
G1 X111.107 Y90.704 E19.92139
G1 X111.59 Y91.216 E19.9565
G1 X112.012 Y91.78 E19.99165
G1 X112.367 Y92.388 E20.02677
G1 X112.651 Y93.032 E20.06189
G1 X112.86 Y93.704 E20.097
G1 X112.992 Y94.396 E20.13214
G1 X113.045 Y95.142 E20.16945
G1 X113.058 Y96.38 E20.23122
G1 X113.025 Y97.083 E20.26633
G1 X112.913 Y97.778 E20.30145
G1 X112.723 Y98.456 E20.33658
G1 X112.457 Y99.108 E20.37171
G1 X112.119 Y99.725 E20.40681
G1 X111.926 Y100 E20.42357
G1 X112.149 Y100.323 E20.44316
G1 X112.481 Y100.944 E20.47829
G1 X112.741 Y101.598 E20.5134
G1 X112.925 Y102.278 E20.54855
G1 X113.031 Y102.974 E20.58367
G1 X113.058 Y103.62 E20.61593
G1 X113.045 Y104.858 E20.67769
G1 X112.997 Y105.56 E20.7128
G1 X112.871 Y106.253 E20.74794
G1 X112.666 Y106.927 E20.78309
G1 X112.387 Y107.573 E20.81819
G1 X112.036 Y108.183 E20.8533
G1 X111.618 Y108.75 E20.88845
G1 X111.139 Y109.265 E20.92354
G1 X110.57 Y109.75 E20.96084
G1 X109.343 Y110.672 E21.03741
G1 X108.757 Y111.062 E21.07253
G1 X108.13 Y111.383 E21.10767
G1 X107.471 Y111.631 E21.1428
G1 X106.789 Y111.803 E21.17789
G1 X106.091 Y111.897 E21.21303
G1 X105.606 Y111.915 E21.23724
G1 X105.067 Y111.914 E21.26413
G1 X104.365 Y111.873 E21.29921
G1 X103.671 Y111.752 E21.33436
G1 X102.996 Y111.554 E21.36945
G1 X102.347 Y111.28 E21.4046
G1 X97.639 Y111.28 E21.63948
G1 X97.531 Y111.338 E21.6456
G1 X96.877 Y111.598 E21.68071
G1 X96.197 Y111.782 E21.71586
G1 X95.501 Y111.888 E21.75098
G1 X94.92 Y111.915 E21.78
