;FLAVOR:RepRap
;TIME:1691
;Filament used: 0.985222m
;Layer height: 0.1
;Generated with Cura_SteamEngine 2.5.0
M190 S50
M104 S210
M109 S210
G21 ;metric values
G90 ;absolute positioning
M82 ;set extruder to absolute mode
M107 ;start with the fan off
G28 X0 Y0 ;move X/Y to min endstops
G28 Z0 ;move Z to min endstops
G1 Z15.0 F9000 ;move the platform down 15mm
G92 E0 ;zero the extruded length
G1 F200 E3 ;extrude 3mm of feed stock
G92 E0 ;zero the extruded length again
G1 F9000
;Put printing message on LCD screen
M117 Printing...
;LAYER_COUNT:143
;LAYER:0
M107
G0 F3600 X91.506 Y62.157 Z0.3
;TYPE:SKIRT
G1 F1800 X91.953 Y61.506 E0.0394
G1 X92.723 Y60.64 E0.09721
G1 X93.352 Y60.031 E0.14089
G1 X93.947 Y59.511 E0.18031
G1 X94.448 Y59.147 E0.21121
G1 X95.374 Y58.529 E0.26675
G1 X96.052 Y58.125 E0.30613
G1 X96.768 Y57.791 E0.34554
G1 X97.514 Y57.531 E0.38496
G1 X98.282 Y57.348 E0.42435
G1 X99.171 Y57.235 E0.46906
G1 X99.726 Y57.197 E0.49681
G1 X100.516 Y57.183 E0.53623
G1 X101.303 Y57.249 E0.57563
G1 X102.079 Y57.394 E0.61502
G1 X102.836 Y57.617 E0.65439
G1 X103.753 Y58.005 E0.70406
G1 X104.282 Y58.27 E0.73358
G1 X104.969 Y58.659 E0.77297
G1 X105.867 Y59.324 E0.82872
G1 X107 Y60.296 E0.90319
G1 X107.572 Y60.84 E0.94258
G1 X108.087 Y61.439 E0.98199
G1 X108.538 Y62.087 E1.02137
G1 X108.922 Y62.777 E1.06077
G1 X109.234 Y63.503 E1.10019
G1 X109.471 Y64.256 E1.13958
G1 X109.676 Y65.38 E1.19658
G1 X109.697 Y65.579 E1.20656
G1 X110.511 Y69.264 E1.39484
G1 X110.602 Y69.75 E1.41951
G1 X110.972 Y72.135 E1.53992
G1 X111.041 Y72.734 E1.57
G1 X111.319 Y76.358 E1.75134
G1 X111.341 Y77.066 E1.78667
G1 X111.292 Y80.507 E1.95836
G1 X111.241 Y81.295 E1.99776
G1 X111.11 Y82.074 E2.03717
G1 X110.902 Y82.835 E2.07653
G1 X110.617 Y83.572 E2.11595
G1 X110.259 Y84.276 E2.15535
G1 X109.832 Y84.94 E2.19474
G1 X109.34 Y85.558 E2.23415
G1 X109.107 Y85.806 E2.25113
G1 X109.107 Y136.905 E4.80047
G1 X109.067 Y137.694 E4.83988
G1 X108.948 Y138.474 E4.87924
G1 X108.75 Y139.239 E4.91867
G1 X108.476 Y139.979 E4.95804
G1 X108.128 Y140.688 E4.99744
G1 X107.71 Y141.359 E5.03688
G1 X107.227 Y141.983 E5.07625
G1 X106.684 Y142.556 E5.11563
G1 X106.085 Y143.071 E5.15504
G1 X105.437 Y143.522 E5.19443
G1 X104.746 Y143.906 E5.23387
G1 X104.021 Y144.218 E5.27325
G1 X103.268 Y144.455 E5.31263
G1 X102.494 Y144.614 E5.35205
G1 X101.709 Y144.695 E5.39143
G1 X101.31 Y144.705 E5.41134
G1 X98.771 Y144.706 E5.53801
G1 X97.982 Y144.666 E5.57742
G1 X97.202 Y144.547 E5.61679
G1 X96.437 Y144.35 E5.6562
G1 X95.696 Y144.076 E5.69561
G1 X94.987 Y143.728 E5.73502
G1 X94.317 Y143.311 E5.77439
G1 X93.692 Y142.828 E5.8138
G1 X93.119 Y142.285 E5.85318
G1 X92.604 Y141.686 E5.89259
G1 X92.153 Y141.038 E5.93198
G1 X91.769 Y140.348 E5.97138
G1 X91.456 Y139.623 E6.01077
G1 X91.219 Y138.87 E6.05016
G1 X91.059 Y138.096 E6.08959
G1 X90.979 Y137.311 E6.12896
G1 X90.968 Y136.906 E6.14917
G1 X90.968 Y85.803 E8.69871
G1 X90.539 Y85.329 E8.7306
G1 X90.072 Y84.693 E8.76997
G1 X89.671 Y84.013 E8.80935
G1 X89.34 Y83.295 E8.8488
G1 X89.085 Y82.548 E8.88818
G1 X88.905 Y81.779 E8.92758
G1 X88.785 Y80.623 E8.98556
G1 X88.721 Y78.411 E9.09597
G1 X88.721 Y77.97 E9.11797
G1 X88.788 Y75.535 E9.2395
G1 X88.819 Y75.024 E9.26504
G1 X89.045 Y72.605 E9.38625
G1 X89.103 Y72.135 E9.40987
G1 X89.473 Y69.751 E9.53024
G1 X89.572 Y69.233 E9.55655
G1 X90.3 Y66 E9.72188
G1 X90.432 Y65.106 E9.76697
G1 X90.587 Y64.332 E9.80635
G1 X90.819 Y63.577 E9.84575
G1 X91.126 Y62.849 E9.88517
G1 X91.506 Y62.157 E9.92456
G0 F3600 X91.889 Y62.298
G1 F1800 X92.332 Y61.67 E9.9629
G1 X93.002 Y60.928 E10.01278
G1 X93.631 Y60.319 E10.05646
G1 X94.21 Y59.813 E10.09482
G1 X94.67 Y59.48 E10.12315
G1 X95.596 Y58.862 E10.17869
G1 X96.257 Y58.469 E10.21706
G1 X96.956 Y58.146 E10.25547
G1 X97.684 Y57.898 E10.29384
G1 X98.433 Y57.727 E10.33217
G1 X99.199 Y57.634 E10.37067
G1 X99.754 Y57.596 E10.39842
G1 X100.523 Y57.584 E10.43679
G1 X101.289 Y57.651 E10.47516
G1 X102.044 Y57.797 E10.51352
G1 X102.78 Y58.022 E10.55192
G1 X103.573 Y58.363 E10.59498
G1 X104.102 Y58.628 E10.6245
G1 X104.771 Y59.008 E10.66289
G1 X105.606 Y59.628 E10.71477
G1 X106.739 Y60.6 E10.78925
G1 X107.296 Y61.13 E10.82761
G1 X107.795 Y61.715 E10.86597
G1 X108.231 Y62.35 E10.9044
G1 X108.598 Y63.025 E10.94273
G1 X108.893 Y63.736 E10.98113
G1 X109.113 Y64.473 E11.01951
G1 X109.278 Y65.423 E11.06761
G1 X109.302 Y65.646 E11.0788
G1 X110.12 Y69.351 E11.2681
G1 X110.207 Y69.812 E11.2915
G1 X110.577 Y72.197 E11.41191
G1 X110.642 Y72.765 E11.44043
G1 X110.92 Y76.389 E11.62177
G1 X110.941 Y77.06 E11.65526
G1 X110.892 Y80.501 E11.82695
G1 X110.841 Y81.269 E11.86535
G1 X110.711 Y82.027 E11.90372
G1 X110.503 Y82.767 E11.94207
G1 X110.219 Y83.482 E11.98045
G1 X109.862 Y84.164 E12.01886
G1 X109.437 Y84.804 E12.05718
G1 X108.724 Y85.63 E12.11162
G1 X108.707 Y85.647 E12.11282
G1 X108.707 Y136.905 E14.67009
G1 X108.667 Y137.673 E14.70846
G1 X108.548 Y138.433 E14.74684
G1 X108.35 Y139.176 E14.7852
G1 X108.076 Y139.895 E14.82359
G1 X107.729 Y140.581 E14.86194
G1 X107.313 Y141.228 E14.90032
G1 X106.832 Y141.828 E14.93869
G1 X106.291 Y142.375 E14.97707
G1 X105.696 Y142.863 E15.01546
G1 X105.054 Y143.286 E15.05382
G1 X104.371 Y143.641 E15.09222
G1 X103.656 Y143.922 E15.13055
G1 X102.914 Y144.128 E15.16897
G1 X102.156 Y144.256 E15.20732
G1 X101.31 Y144.305 E15.2496
G1 X98.771 Y144.306 E15.37627
G1 X98.003 Y144.266 E15.41463
G1 X97.243 Y144.147 E15.45301
G1 X96.5 Y143.95 E15.49136
G1 X95.781 Y143.676 E15.52975
G1 X95.094 Y143.33 E15.56813
G1 X94.447 Y142.913 E15.60653
G1 X93.847 Y142.433 E15.64486
G1 X93.3 Y141.892 E15.68325
G1 X92.812 Y141.297 E15.72164
G1 X92.388 Y140.655 E15.76002
G1 X92.033 Y139.973 E15.79838
G1 X91.751 Y139.257 E15.83677
G1 X91.545 Y138.516 E15.87514
G1 X91.417 Y137.758 E15.9135
G1 X91.368 Y136.906 E15.95607
G1 X91.368 Y85.648 E18.51334
G1 X91.352 Y85.632 E18.51447
G1 X90.837 Y85.061 E18.55284
G1 X90.384 Y84.439 E18.59122
G1 X89.998 Y83.774 E18.62959
G1 X89.683 Y83.072 E18.66797
G1 X89.442 Y82.342 E18.70633
G1 X89.279 Y81.59 E18.74471
G1 X89.185 Y80.611 E18.79378
G1 X89.121 Y78.399 E18.90419
G1 X89.121 Y77.981 E18.92504
G1 X89.188 Y75.546 E19.04657
G1 X89.217 Y75.062 E19.07076
G1 X89.443 Y72.643 E19.19197
G1 X89.499 Y72.196 E19.21444
G1 X89.869 Y69.812 E19.33481
G1 X89.962 Y69.321 E19.35974
G1 X90.695 Y66.067 E19.52615
G1 X90.828 Y65.164 E19.57168
G1 X90.98 Y64.41 E19.61006
G1 X91.209 Y63.676 E19.64842
G1 X91.513 Y62.969 E19.68681
G1 X91.889 Y62.298 E19.72519
G0 F3600 X92.271 Y62.442
G1 F1800 X92.71 Y61.837 E19.76248
G1 X93.28 Y61.215 E19.80457
G1 X93.909 Y60.606 E19.84825
G1 X94.473 Y60.115 E19.88556
G1 X94.892 Y59.813 E19.91133
G1 X95.818 Y59.195 E19.96687
G1 X96.462 Y58.813 E20.00422
G1 X97.142 Y58.503 E20.04151
G1 X97.852 Y58.266 E20.07885
G1 X98.583 Y58.107 E20.11617
G1 X99.226 Y58.033 E20.14847
G1 X99.781 Y57.995 E20.17622
G1 X100.529 Y57.984 E20.21354
G1 X101.274 Y58.053 E20.25087
G1 X102.007 Y58.201 E20.28818
G1 X102.72 Y58.426 E20.32548
G1 X103.394 Y58.72 E20.36216
G1 X103.923 Y58.985 E20.39168
G1 X104.573 Y59.356 E20.42902
G1 X105.346 Y59.931 E20.47708
G1 X106.479 Y60.903 E20.55156
G1 X107.02 Y61.42 E20.58889
G1 X107.502 Y61.991 E20.62617
G1 X107.921 Y62.611 E20.66351
G1 X108.272 Y63.272 E20.70085
G1 X108.55 Y63.967 E20.73819
G1 X108.752 Y64.687 E20.7755
G1 X108.881 Y65.466 E20.81489
G1 X108.908 Y65.72 E20.82764
G1 X109.729 Y69.437 E21.01755
G1 X109.811 Y69.873 E21.03968
G1 X110.181 Y72.258 E21.16009
G1 X110.243 Y72.796 E21.18711
G1 X110.521 Y76.42 E21.36844
G1 X110.541 Y77.055 E21.40014
G1 X110.492 Y80.496 E21.57183
G1 X110.442 Y81.242 E21.60913
G1 X110.312 Y81.979 E21.64647
G1 X110.104 Y82.697 E21.68376
G1 X109.821 Y83.39 E21.72111
G1 X109.465 Y84.048 E21.75843
G1 X109.041 Y84.664 E21.79574
G1 X108.442 Y85.347 E21.84106
G1 X108.307 Y85.482 E21.85059
G1 X108.307 Y136.905 E24.41609
G1 X108.267 Y137.652 E24.45341
G1 X108.148 Y138.39 E24.49071
G1 X107.95 Y139.112 E24.52806
G1 X107.677 Y139.808 E24.56536
G1 X107.33 Y140.471 E24.60269
G1 X106.915 Y141.094 E24.64004
G1 X106.436 Y141.668 E24.67734
G1 X105.899 Y142.189 E24.71466
G1 X105.309 Y142.648 E24.75196
G1 X104.673 Y143.043 E24.78931
G1 X103.999 Y143.367 E24.82662
G1 X103.294 Y143.617 E24.86394
G1 X102.566 Y143.791 E24.90128
G1 X101.824 Y143.886 E24.9386
G1 X101.31 Y143.905 E24.96426
G1 X98.771 Y143.906 E25.09093
G1 X98.024 Y143.866 E25.12826
G1 X97.285 Y143.747 E25.1656
G1 X96.564 Y143.55 E25.20289
G1 X95.867 Y143.277 E25.24023
G1 X95.204 Y142.931 E25.27755
G1 X94.581 Y142.516 E25.31489
G1 X94.007 Y142.037 E25.35219
G1 X93.486 Y141.5 E25.38952
G1 X93.026 Y140.91 E25.42684
G1 X92.632 Y140.274 E25.46417
G1 X92.307 Y139.6 E25.5015
G1 X92.057 Y138.895 E25.53882
G1 X91.883 Y138.168 E25.57611
G1 X91.787 Y137.426 E25.61344
G1 X91.768 Y136.906 E25.6394
G1 X91.768 Y85.482 E28.20495
G1 X91.635 Y85.349 E28.21434
G1 X91.134 Y84.793 E28.25168
G1 X90.696 Y84.186 E28.28902
G1 X90.326 Y83.537 E28.32629
G1 X90.026 Y82.851 E28.36365
G1 X89.802 Y82.137 E28.40098
G1 X89.655 Y81.404 E28.43828
G1 X89.585 Y80.599 E28.47859
G1 X89.521 Y78.387 E28.58899
G1 X89.521 Y77.992 E28.6087
G1 X89.588 Y75.557 E28.73023
G1 X89.615 Y75.099 E28.75312
G1 X89.841 Y72.68 E28.87433
G1 X89.894 Y72.257 E28.8956
G1 X90.264 Y69.873 E29.01596
G1 X90.352 Y69.409 E29.03952
G1 X91.09 Y66.133 E29.20706
G1 X91.224 Y65.223 E29.25295
G1 X91.372 Y64.489 E29.2903
G1 X91.598 Y63.776 E29.32762
G1 X91.899 Y63.091 E29.36495
G1 X92.271 Y62.442 E29.40227
G0 F3600 X92.653 Y62.589
G1 F1800 X93.088 Y62.007 E29.43852
G1 X93.558 Y61.502 E29.47294
G1 X94.187 Y60.893 E29.51662
G1 X94.736 Y60.418 E29.55283
G1 X95.114 Y60.145 E29.5761
G1 X96.04 Y59.527 E29.63164
G1 X96.666 Y59.158 E29.66789
G1 X97.328 Y58.86 E29.70411
G1 X98.019 Y58.636 E29.74035
G1 X98.73 Y58.489 E29.77657
G1 X99.253 Y58.432 E29.80282
G1 X99.808 Y58.394 E29.83057
G1 X100.534 Y58.385 E29.8668
G1 X101.257 Y58.455 E29.90304
G1 X101.968 Y58.604 E29.93928
G1 X102.658 Y58.831 E29.97552
G1 X103.215 Y59.078 E30.00592
G1 X103.744 Y59.343 E30.03544
G1 X104.375 Y59.704 E30.0717
G1 X105.085 Y60.235 E30.11594
G1 X106.218 Y61.207 E30.19041
G1 X106.743 Y61.709 E30.22665
G1 X107.209 Y62.267 E30.26292
G1 X107.611 Y62.871 E30.29912
G1 X107.944 Y63.517 E30.33538
G1 X108.204 Y64.195 E30.37161
G1 X108.388 Y64.898 E30.40786
G1 X108.483 Y65.509 E30.43871
G1 X108.512 Y65.777 E30.45216
G1 X109.339 Y69.523 E30.64355
G1 X109.416 Y69.934 E30.66441
G1 X109.786 Y72.319 E30.78482
G1 X109.845 Y72.826 E30.81029
G1 X110.123 Y76.45 E30.99162
G1 X110.141 Y77.049 E31.02152
G1 X110.092 Y80.49 E31.19321
G1 X110.042 Y81.215 E31.22946
G1 X109.912 Y81.929 E31.26567
G1 X109.705 Y82.625 E31.3019
G1 X109.422 Y83.295 E31.33818
G1 X109.068 Y83.929 E31.37441
G1 X108.646 Y84.52 E31.41064
G1 X108.159 Y85.064 E31.44707
G1 X107.907 Y85.316 E31.46485
G1 X107.907 Y136.905 E34.03863
G1 X107.867 Y137.63 E34.07486
G1 X107.748 Y138.347 E34.11112
G1 X107.55 Y139.046 E34.14736
G1 X107.277 Y139.719 E34.1836
G1 X106.932 Y140.358 E34.21983
G1 X106.518 Y140.955 E34.25607
G1 X106.042 Y141.503 E34.29228
G1 X105.508 Y141.996 E34.32854
G1 X104.923 Y142.426 E34.36477
G1 X104.294 Y142.79 E34.40102
G1 X103.629 Y143.083 E34.43728
G1 X102.936 Y143.301 E34.47352
G1 X102.224 Y143.441 E34.50972
G1 X101.31 Y143.505 E34.55543
G1 X98.771 Y143.506 E34.68211
G1 X98.045 Y143.466 E34.71838
G1 X97.329 Y143.347 E34.75459
G1 X96.63 Y143.15 E34.79082
G1 X95.957 Y142.877 E34.82706
G1 X95.317 Y142.532 E34.86333
G1 X94.72 Y142.119 E34.89955
G1 X94.172 Y141.642 E34.93579
G1 X93.679 Y141.109 E34.97202
G1 X93.248 Y140.524 E35.00827
G1 X92.884 Y139.896 E35.04448
G1 X92.591 Y139.231 E35.08074
G1 X92.373 Y138.538 E35.11698
G1 X92.232 Y137.825 E35.15324
G1 X92.168 Y136.906 E35.1992
G1 X92.168 Y85.317 E37.77299
G1 X91.917 Y85.066 E37.7907
G1 X91.432 Y84.525 E37.82695
G1 X91.01 Y83.934 E37.86318
G1 X90.655 Y83.301 E37.89938
G1 X90.372 Y82.632 E37.93562
G1 X90.164 Y81.936 E37.97186
G1 X90.034 Y81.221 E38.00812
G1 X89.985 Y80.588 E38.0398
G1 X89.921 Y78.376 E38.1502
G1 X89.92 Y78.003 E38.16881
G1 X89.987 Y75.568 E38.29034
G1 X90.014 Y75.136 E38.31193
G1 X90.24 Y72.717 E38.43314
G1 X90.289 Y72.319 E38.45315
G1 X90.659 Y69.935 E38.57351
G1 X90.742 Y69.497 E38.59575
G1 X91.484 Y66.201 E38.7643
G1 X91.62 Y65.281 E38.8107
G1 X91.765 Y64.569 E38.84695
G1 X91.988 Y63.878 E38.88318
G1 X92.285 Y63.215 E38.91942
G1 X92.653 Y62.589 E38.95565
G0 F3600 X93.035 Y62.739
G1 F1800 X93.465 Y62.182 E38.99076
G1 X93.836 Y61.79 E39.01768
G1 X94.465 Y61.181 E39.06136
G1 X94.998 Y60.721 E39.09649
G1 X95.336 Y60.478 E39.11726
G1 X96.262 Y59.86 E39.1728
G1 X96.869 Y59.503 E39.20793
G1 X97.512 Y59.217 E39.24304
G1 X98.184 Y59.006 E39.27818
G1 X98.875 Y58.873 E39.31329
G1 X99.28 Y58.831 E39.3336
G1 X99.835 Y58.793 E39.36136
G1 X100.539 Y58.785 E39.39648
G1 X101.24 Y58.857 E39.43164
G1 X101.927 Y59.008 E39.46673
G1 X102.594 Y59.235 E39.50188
G1 X103.036 Y59.436 E39.52611
G1 X103.565 Y59.701 E39.55562
G1 X104.175 Y60.051 E39.59071
G1 X104.825 Y60.538 E39.63123
G1 X105.958 Y61.51 E39.70571
G1 X106.465 Y61.998 E39.74082
G1 X106.914 Y62.541 E39.77597
G1 X107.299 Y63.13 E39.81107
G1 X107.614 Y63.76 E39.84621
G1 X107.856 Y64.421 E39.88133
G1 X108.021 Y65.105 E39.91644
G1 X108.085 Y65.552 E39.93896
G1 X108.116 Y65.842 E39.95352
G1 X108.948 Y69.609 E40.14598
G1 X109.021 Y69.996 E40.16563
G1 X109.391 Y72.381 E40.28604
G1 X109.446 Y72.857 E40.30995
G1 X109.724 Y76.481 E40.49128
G1 X109.741 Y77.043 E40.51933
G1 X109.692 Y80.484 E40.69102
G1 X109.642 Y81.186 E40.72613
G1 X109.513 Y81.879 E40.7613
G1 X109.306 Y82.551 E40.79638
G1 X109.024 Y83.197 E40.83155
G1 X108.671 Y83.806 E40.86666
G1 X108.251 Y84.371 E40.90179
G1 X107.876 Y84.781 E40.92951
G1 X107.507 Y85.15 E40.95554
G1 X107.507 Y136.905 E43.53761
G1 X107.467 Y137.608 E43.57274
G1 X107.348 Y138.302 E43.60787
G1 X107.15 Y138.977 E43.64296
G1 X106.878 Y139.626 E43.67807
G1 X106.533 Y140.24 E43.71321
G1 X106.122 Y140.811 E43.74831
G1 X105.648 Y141.332 E43.78345
G1 X105.118 Y141.796 E43.81859
G1 X104.539 Y142.196 E43.8537
G1 X103.918 Y142.528 E43.88883
G1 X103.264 Y142.788 E43.92394
G1 X102.584 Y142.972 E43.95909
G1 X101.888 Y143.078 E43.99421
G1 X101.309 Y143.105 E44.02313
G1 X98.77 Y143.106 E44.1498
G1 X98.068 Y143.066 E44.18488
G1 X97.374 Y142.947 E44.22001
G1 X96.698 Y142.75 E44.25514
G1 X96.049 Y142.478 E44.29025
G1 X95.435 Y142.134 E44.32536
G1 X94.863 Y141.722 E44.36053
G1 X94.343 Y141.248 E44.39563
G1 X93.879 Y140.719 E44.43074
G1 X93.478 Y140.14 E44.46588
G1 X93.146 Y139.519 E44.50101
G1 X92.886 Y138.865 E44.53612
G1 X92.702 Y138.186 E44.57122
G1 X92.596 Y137.49 E44.60634
G1 X92.568 Y136.906 E44.63551
G1 X92.568 Y85.151 E47.21758
G1 X92.2 Y84.783 E47.24354
G1 X91.731 Y84.258 E47.27866
G1 X91.325 Y83.683 E47.31378
G1 X90.986 Y83.066 E47.3489
G1 X90.719 Y82.414 E47.38405
G1 X90.528 Y81.737 E47.41915
G1 X90.416 Y81.042 E47.45427
G1 X90.385 Y80.576 E47.47757
G1 X90.321 Y78.364 E47.58797
G1 X90.32 Y78.014 E47.60544
G1 X90.387 Y75.579 E47.72696
G1 X90.412 Y75.173 E47.74726
G1 X90.638 Y72.754 E47.86847
G1 X90.684 Y72.38 E47.88727
G1 X91.054 Y69.996 E48.00763
G1 X91.132 Y69.585 E48.0285
G1 X91.876 Y66.281 E48.19746
G1 X92.015 Y65.339 E48.24497
G1 X92.157 Y64.65 E48.28007
G1 X92.377 Y63.981 E48.3152
G1 X92.671 Y63.341 E48.35034
G1 X93.035 Y62.739 E48.38544
G0 F3600 X93.416 Y62.892
G1 F1800 X93.841 Y62.36 E48.41941
G1 X94.115 Y62.077 E48.43906
G1 X94.744 Y61.468 E48.48274
G1 X95.26 Y61.024 E48.5167
G1 X95.558 Y60.811 E48.53498
G1 X96.484 Y60.193 E48.59052
G1 X97.072 Y59.849 E48.6245
G1 X97.696 Y59.576 E48.65849
G1 X98.347 Y59.378 E48.69243
G1 X99.308 Y59.231 E48.74094
G1 X99.863 Y59.193 E48.76869
G1 X100.544 Y59.186 E48.80267
G1 X101.221 Y59.259 E48.83664
G1 X101.884 Y59.411 E48.87057
G1 X102.526 Y59.64 E48.90458
G1 X102.857 Y59.793 E48.92277
G1 X103.386 Y60.058 E48.95229
G1 X103.976 Y60.398 E48.98626
G1 X104.565 Y60.842 E49.02306
G1 X105.698 Y61.814 E49.09754
G1 X106.187 Y62.287 E49.13148
G1 X106.618 Y62.814 E49.16545
G1 X106.985 Y63.388 E49.19944
G1 X107.281 Y64.001 E49.2334
G1 X107.504 Y64.644 E49.26735
G1 X107.688 Y65.595 E49.31568
G1 X107.722 Y65.909 E49.33143
G1 X108.558 Y69.696 E49.52492
