;FLAVOR:RepRap
;TIME:2153
;Filament used: 1.18026m
;Layer height: 0.1
;Generated with Cura_SteamEngine 2.5.0
M190 S50
M104 S210
M109 S210
G21 ;metric values
G90 ;absolute positioning
M82 ;set extruder to absolute mode
M107 ;start with the fan off
G28 X0 Y0 ;move X/Y to min endstops
G28 Z0 ;move Z to min endstops
G1 Z15.0 F9000 ;move the platform down 15mm
G92 E0 ;zero the extruded length
G1 F200 E3 ;extrude 3mm of feed stock
G92 E0 ;zero the extruded length again
G1 F9000
;Put printing message on LCD screen
M117 Printing...
;LAYER_COUNT:143
;LAYER:0
M107
G0 F3600 X87.792 Y89.529 Z0.3
;TYPE:SKIRT
G1 F1800 X88.503 Y88.934 E0.04625
G1 X89.738 Y88.019 E0.12294
G1 X90.395 Y87.581 E0.16233
G1 X91.093 Y87.213 E0.2017
G1 X91.826 Y86.917 E0.24114
G1 X92.584 Y86.696 E0.28053
G1 X93.36 Y86.553 E0.31989
G1 X94.41 Y86.486 E0.37239
G1 X94.949 Y86.488 E0.39928
G1 X95.737 Y86.531 E0.43865
G1 X96.518 Y86.653 E0.47809
G1 X97.281 Y86.854 E0.51745
G1 X97.994 Y87.121 E0.55543
G1 X102.026 Y87.121 E0.75659
G1 X102.365 Y86.975 E0.77501
G1 X103.118 Y86.738 E0.81439
G1 X103.892 Y86.579 E0.85381
G1 X105.05 Y86.488 E0.91176
G1 X105.59 Y86.486 E0.9387
G1 X106.379 Y86.523 E0.97811
G1 X107.16 Y86.64 E1.01751
G1 X107.925 Y86.835 E1.0569
G1 X108.667 Y87.106 E1.09631
G1 X109.377 Y87.451 E1.13569
G1 X110.262 Y88.019 E1.18815
G1 X111.497 Y88.934 E1.26483
G1 X112.107 Y89.435 E1.30422
G1 X112.663 Y89.996 E1.34362
G1 X113.16 Y90.61 E1.38303
G1 X113.592 Y91.271 E1.42243
G1 X113.955 Y91.973 E1.46186
G1 X114.245 Y92.707 E1.50123
G1 X114.459 Y93.467 E1.54062
G1 X114.595 Y94.245 E1.58002
G1 X114.654 Y95.17 E1.62627
G1 X114.659 Y96.414 E1.68833
G1 X114.622 Y97.202 E1.72769
G1 X114.506 Y97.984 E1.76713
G1 X114.311 Y98.749 E1.80651
G1 X114.04 Y99.491 E1.84593
G1 X113.794 Y99.997 E1.87399
G1 X113.86 Y100.116 E1.88078
G1 X114.172 Y100.841 E1.92016
G1 X114.409 Y101.594 E1.95955
G1 X114.568 Y102.368 E1.99897
G1 X114.649 Y103.153 E2.03834
G1 X114.659 Y103.586 E2.05995
G1 X114.654 Y104.83 E2.12201
G1 X114.611 Y105.619 E2.16143
G1 X114.488 Y106.399 E2.20083
G1 X114.287 Y107.163 E2.24024
G1 X114.01 Y107.902 E2.27961
G1 X113.66 Y108.61 E2.31902
G1 X113.24 Y109.278 E2.35838
G1 X112.754 Y109.901 E2.3978
G1 X112.208 Y110.471 E2.43718
G1 X111.498 Y111.066 E2.4834
G1 X110.262 Y111.982 E2.56015
G1 X109.605 Y112.419 E2.59952
G1 X108.906 Y112.788 E2.63895
G1 X108.174 Y113.084 E2.67834
G1 X107.416 Y113.305 E2.71774
G1 X106.64 Y113.448 E2.7571
G1 X105.589 Y113.515 E2.80964
G1 X105.05 Y113.513 E2.83653
G1 X104.262 Y113.47 E2.87591
G1 X103.481 Y113.348 E2.91534
G1 X102.718 Y113.147 E2.95471
G1 X102.005 Y112.88 E2.99269
G1 X97.978 Y112.88 E3.1936
G1 X97.634 Y113.028 E3.21228
G1 X96.881 Y113.265 E3.25167
G1 X96.107 Y113.424 E3.29109
G1 X95.322 Y113.505 E3.33046
G1 X94.92 Y113.515 E3.35052
G1 X94.383 Y113.515 E3.37731
G1 X93.594 Y113.475 E3.41673
G1 X92.814 Y113.356 E3.45609
G1 X92.049 Y113.158 E3.49552
G1 X91.309 Y112.884 E3.53488
G1 X90.6 Y112.536 E3.57429
G1 X89.901 Y112.099 E3.61541
G1 X88.726 Y111.274 E3.68704
G1 X88.103 Y110.788 E3.72646
G1 X87.533 Y110.241 E3.76588
G1 X87.021 Y109.64 E3.80527
G1 X86.573 Y108.99 E3.84465
G1 X86.221 Y108.357 E3.88079
G1 X86.157 Y108.228 E3.88797
G1 X85.842 Y107.503 E3.92741
G1 X85.602 Y106.751 E3.96679
G1 X85.44 Y105.978 E4.00619
G1 X85.356 Y105.193 E4.04558
G1 X85.344 Y104.774 E4.06649
G1 X85.342 Y103.568 E4.12666
G1 X85.381 Y102.779 E4.16607
G1 X85.499 Y101.998 E4.20548
G1 X85.695 Y101.234 E4.24483
G1 X85.968 Y100.493 E4.28423
G1 X86.207 Y100.004 E4.31138
G1 X86.14 Y99.884 E4.31824
G1 X85.828 Y99.159 E4.35761
G1 X85.591 Y98.406 E4.397
G1 X85.432 Y97.632 E4.43642
G1 X85.351 Y96.847 E4.47579
G1 X85.341 Y96.414 E4.4974
G1 X85.346 Y95.17 E4.55946
G1 X85.389 Y94.381 E4.59889
G1 X85.512 Y93.601 E4.63828
G1 X85.713 Y92.837 E4.67769
G1 X85.99 Y92.098 E4.71707
G1 X86.34 Y91.39 E4.75647
G1 X86.76 Y90.722 E4.79584
G1 X87.246 Y90.099 E4.83526
G1 X87.792 Y89.529 E4.87464
G0 F3600 X88.184 Y89.711
G1 F1800 X88.741 Y89.255 E4.91055
G1 X89.976 Y88.34 E4.98723
G1 X90.617 Y87.915 E5.0256
G1 X91.298 Y87.559 E5.06394
G1 X92.013 Y87.275 E5.10232
G1 X92.754 Y87.067 E5.14072
G1 X93.512 Y86.937 E5.17909
G1 X94.408 Y86.886 E5.22386
G1 X94.947 Y86.888 E5.25075
G1 X95.715 Y86.931 E5.28913
G1 X96.475 Y87.053 E5.32753
G1 X97.217 Y87.254 E5.36588
G1 X97.912 Y87.521 E5.40303
G1 X102.094 Y87.521 E5.61167
G1 X102.73 Y87.271 E5.64576
G1 X103.472 Y87.065 E5.68418
G1 X104.23 Y86.937 E5.72253
G1 X105.052 Y86.888 E5.76362
G1 X105.592 Y86.886 E5.79056
G1 X106.36 Y86.923 E5.82892
G1 X107.12 Y87.04 E5.86728
G1 X107.864 Y87.235 E5.90565
G1 X108.584 Y87.506 E5.94403
G1 X109.272 Y87.85 E5.98241
G1 X110.024 Y88.34 E6.02719
G1 X111.259 Y89.255 E6.10387
G1 X111.853 Y89.744 E6.14226
G1 X112.392 Y90.293 E6.18064
G1 X112.872 Y90.894 E6.21901
G1 X113.286 Y91.542 E6.25738
G1 X113.631 Y92.229 E6.29573
G1 X113.903 Y92.949 E6.33413
G1 X114.099 Y93.693 E6.37251
G1 X114.216 Y94.453 E6.41088
G1 X114.254 Y95.171 E6.44675
G1 X114.259 Y96.415 E6.50881
G1 X114.222 Y97.184 E6.54722
G1 X114.106 Y97.944 E6.58558
G1 X113.911 Y98.688 E6.62395
G1 X113.64 Y99.408 E6.66233
G1 X113.342 Y100.004 E6.69558
G1 X113.595 Y100.491 E6.72296
G1 X113.876 Y101.206 E6.76128
G1 X114.082 Y101.948 E6.7997
G1 X114.21 Y102.706 E6.83805
G1 X114.259 Y103.585 E6.88197
G1 X114.254 Y104.829 E6.94404
G1 X114.211 Y105.597 E6.98241
G1 X114.088 Y106.356 E7.02078
G1 X113.888 Y107.099 E7.05916
G1 X113.611 Y107.816 E7.09751
G1 X113.261 Y108.501 E7.13589
G1 X112.842 Y109.146 E7.17426
G1 X112.359 Y109.744 E7.21261
G1 X111.816 Y110.289 E7.25099
G1 X111.26 Y110.744 E7.28684
G1 X110.024 Y111.66 E7.36359
G1 X109.383 Y112.086 E7.40199
G1 X108.702 Y112.442 E7.44032
G1 X107.987 Y112.726 E7.47871
G1 X107.246 Y112.934 E7.5171
G1 X106.488 Y113.064 E7.55547
G1 X105.591 Y113.115 E7.6003
G1 X105.052 Y113.113 E7.62719
G1 X104.284 Y113.07 E7.66556
G1 X103.524 Y112.948 E7.70397
G1 X102.782 Y112.747 E7.74232
G1 X102.087 Y112.48 E7.77946
G1 X97.91 Y112.48 E7.98785
G1 X97.269 Y112.732 E8.02222
G1 X96.527 Y112.938 E8.06064
G1 X95.769 Y113.066 E8.09899
G1 X94.92 Y113.115 E8.14141
G1 X94.383 Y113.115 E8.16821
G1 X93.615 Y113.075 E8.20657
G1 X92.855 Y112.956 E8.24495
G1 X92.112 Y112.758 E8.28331
G1 X91.393 Y112.484 E8.3217
G1 X90.707 Y112.137 E8.36006
G1 X90.131 Y111.771 E8.3941
G1 X88.956 Y110.946 E8.46573
G1 X88.35 Y110.472 E8.50411
G1 X87.797 Y109.938 E8.54247
G1 X87.302 Y109.349 E8.58085
G1 X86.871 Y108.712 E8.61922
G1 X86.579 Y108.179 E8.64954
G1 X86.515 Y108.05 E8.65673
G1 X86.209 Y107.344 E8.69512
G1 X85.979 Y106.61 E8.73349
G1 X85.826 Y105.856 E8.77187
G1 X85.744 Y104.773 E8.82606
G1 X85.742 Y103.567 E8.88623
G1 X85.781 Y102.799 E8.92459
G1 X85.899 Y102.039 E8.96296
G1 X86.095 Y101.295 E9.00135
G1 X86.368 Y100.576 E9.03972
G1 X86.659 Y99.998 E9.072
G1 X86.405 Y99.509 E9.09949
G1 X86.124 Y98.794 E9.13782
G1 X85.918 Y98.052 E9.17624
G1 X85.79 Y97.294 E9.21459
G1 X85.741 Y96.415 E9.25851
G1 X85.746 Y95.171 E9.32058
G1 X85.789 Y94.403 E9.35895
G1 X85.912 Y93.644 E9.39731
G1 X86.112 Y92.901 E9.4357
G1 X86.389 Y92.184 E9.47405
G1 X86.739 Y91.499 E9.51243
G1 X87.158 Y90.854 E9.5508
G1 X87.641 Y90.256 E9.58915
G1 X88.184 Y89.711 E9.62753
G0 F3600 X88.576 Y89.899
G1 F1800 X88.979 Y89.577 E9.65327
G1 X90.214 Y88.662 E9.72995
G1 X90.838 Y88.249 E9.76728
G1 X91.502 Y87.905 E9.80459
G1 X92.2 Y87.635 E9.84193
G1 X92.922 Y87.44 E9.87924
G1 X93.661 Y87.323 E9.91657
G1 X94.407 Y87.286 E9.95383
G1 X94.946 Y87.288 E9.98073
G1 X95.693 Y87.331 E10.01805
G1 X96.431 Y87.453 E10.05537
G1 X97.152 Y87.653 E10.0927
G1 X97.827 Y87.921 E10.12894
G1 X102.189 Y87.921 E10.34656
G1 X102.387 Y87.826 E10.35751
G1 X103.092 Y87.576 E10.39483
G1 X103.82 Y87.402 E10.43217
G1 X104.562 Y87.307 E10.4695
G1 X105.053 Y87.288 E10.49401
G1 X105.593 Y87.286 E10.52095
G1 X106.34 Y87.323 E10.55826
G1 X107.079 Y87.44 E10.59559
G1 X107.801 Y87.635 E10.6329
G1 X108.499 Y87.906 E10.67026
G1 X109.163 Y88.249 E10.70755
G1 X109.786 Y88.662 E10.74484
G1 X111.021 Y89.577 E10.82152
G1 X111.598 Y90.053 E10.85884
G1 X112.12 Y90.589 E10.89616
G1 X112.582 Y91.177 E10.93347
G1 X112.979 Y91.811 E10.97079
G1 X113.305 Y92.484 E11.0081
G1 X113.558 Y93.188 E11.04542
G1 X113.735 Y93.915 E11.08275
G1 X113.833 Y94.657 E11.12009
G1 X113.854 Y95.173 E11.14586
G1 X113.859 Y96.417 E11.20792
G1 X113.822 Y97.164 E11.24523
G1 X113.705 Y97.903 E11.28256
G1 X113.511 Y98.625 E11.31986
G1 X113.24 Y99.323 E11.35722
G1 X112.897 Y99.987 E11.3945
G1 X112.884 Y100.007 E11.39569
G1 X112.997 Y100.189 E11.40638
G1 X113.321 Y100.863 E11.44369
G1 X113.571 Y101.568 E11.48101
G1 X113.745 Y102.296 E11.51835
G1 X113.84 Y103.038 E11.55567
G1 X113.859 Y103.583 E11.58288
G1 X113.854 Y104.827 E11.64494
G1 X113.811 Y105.574 E11.68227
G1 X113.689 Y106.312 E11.71959
G1 X113.488 Y107.033 E11.75693
G1 X113.212 Y107.728 E11.79424
G1 X112.863 Y108.39 E11.83158
G1 X112.445 Y109.01 E11.86888
G1 X111.964 Y109.583 E11.90621
G1 X111.424 Y110.101 E11.94354
G1 X111.022 Y110.423 E11.96923
G1 X109.786 Y111.339 E12.04599
G1 X109.162 Y111.752 E12.08332
G1 X108.498 Y112.095 E12.1206
G1 X107.8 Y112.366 E12.15796
G1 X107.078 Y112.561 E12.19527
G1 X106.339 Y112.678 E12.2326
G1 X105.592 Y112.715 E12.26991
G1 X105.053 Y112.713 E12.2968
G1 X104.306 Y112.67 E12.33413
G1 X103.568 Y112.548 E12.37145
G1 X102.847 Y112.348 E12.40878
G1 X102.172 Y112.08 E12.44502
G1 X97.814 Y112.08 E12.66244
G1 X97.612 Y112.177 E12.67362
G1 X96.907 Y112.427 E12.71093
G1 X96.179 Y112.601 E12.74828
G1 X95.437 Y112.696 E12.7856
G1 X94.92 Y112.715 E12.81141
G1 X94.383 Y112.715 E12.8382
G1 X93.636 Y112.675 E12.87552
G1 X92.898 Y112.556 E12.91282
G1 X92.176 Y112.358 E12.95017
G1 X91.48 Y112.085 E12.98747
G1 X90.817 Y111.738 E13.0248
G1 X90.361 Y111.444 E13.05187
G1 X89.186 Y110.619 E13.1235
G1 X88.597 Y110.157 E13.16084
G1 X88.061 Y109.635 E13.19817
G1 X87.585 Y109.059 E13.23545
G1 X87.172 Y108.435 E13.27278
G1 X86.937 Y108.001 E13.2974
G1 X86.873 Y107.872 E13.30459
G1 X86.577 Y107.185 E13.34191
G1 X86.356 Y106.47 E13.37925
G1 X86.212 Y105.736 E13.41656
G1 X86.144 Y104.773 E13.46473
G1 X86.142 Y103.567 E13.52489
G1 X86.181 Y102.82 E13.56221
G1 X86.299 Y102.081 E13.59955
G1 X86.495 Y101.359 E13.63687
G1 X86.768 Y100.662 E13.67422
G1 X87.113 Y99.999 E13.71151
G1 X87.116 Y99.994 E13.7118
G1 X87.003 Y99.811 E13.72253
G1 X86.679 Y99.137 E13.75984
G1 X86.429 Y98.432 E13.79716
G1 X86.255 Y97.704 E13.8345
G1 X86.16 Y96.962 E13.87182
G1 X86.141 Y96.417 E13.89903
G1 X86.146 Y95.173 E13.96109
G1 X86.189 Y94.426 E13.99842
G1 X86.311 Y93.688 E14.03574
G1 X86.512 Y92.967 E14.07308
G1 X86.788 Y92.272 E14.11039
G1 X87.137 Y91.61 E14.14773
G1 X87.555 Y90.99 E14.18503
G1 X88.036 Y90.417 E14.22235
G1 X88.576 Y89.899 E14.25969
G0 F3600 X89.217 Y89.898
G1 F1800 X90.452 Y88.983 E14.33637
G1 X91.059 Y88.583 E14.37264
G1 X91.705 Y88.253 E14.40883
G1 X92.384 Y87.995 E14.44507
G1 X93.088 Y87.814 E14.48133
G1 X93.807 Y87.711 E14.51757
G1 X94.405 Y87.686 E14.54743
G1 X94.944 Y87.688 E14.57432
G1 X95.67 Y87.731 E14.6106
G1 X96.386 Y87.853 E14.64684
G1 X97.084 Y88.053 E14.68306
G1 X97.739 Y88.321 E14.71837
G1 X102.278 Y88.321 E14.94482
G1 X102.757 Y88.11 E14.97094
G1 X103.45 Y87.892 E15.00718
G1 X104.162 Y87.752 E15.04338
G1 X105.055 Y87.688 E15.08805
G1 X105.595 Y87.686 E15.11499
G1 X106.32 Y87.723 E15.15121
G1 X107.037 Y87.84 E15.18745
G1 X107.737 Y88.035 E15.2237
G1 X108.411 Y88.305 E15.25993
G1 X109.051 Y88.648 E15.29615
G1 X109.548 Y88.983 E15.32606
G1 X110.783 Y89.898 E15.40274
G1 X111.342 Y90.362 E15.43898
G1 X111.847 Y90.884 E15.47522
G1 X112.291 Y91.459 E15.51146
G1 X112.669 Y92.079 E15.54769
G1 X112.977 Y92.737 E15.58394
G1 X113.21 Y93.425 E15.62018
G1 X113.367 Y94.134 E15.6564
G1 X113.454 Y95.174 E15.70847
G1 X113.459 Y96.418 E15.77054
G1 X113.422 Y97.144 E15.8068
G1 X113.305 Y97.861 E15.84305
G1 X113.111 Y98.561 E15.87929
G1 X112.84 Y99.235 E15.91553
G1 X112.498 Y99.875 E15.95173
G1 X112.414 Y99.998 E15.95916
G1 X112.744 Y100.568 E15.99202
G1 X113.037 Y101.233 E16.02828
G1 X113.255 Y101.926 E16.06452
G1 X113.395 Y102.638 E16.10072
G1 X113.459 Y103.582 E16.14793
G1 X113.454 Y104.826 E16.20999
G1 X113.411 Y105.551 E16.24623
G1 X113.289 Y106.267 E16.28246
G1 X113.089 Y106.965 E16.31869
G1 X112.813 Y107.637 E16.35493
G1 X112.465 Y108.274 E16.39114
G1 X112.049 Y108.87 E16.4274
G1 X111.57 Y109.416 E16.46364
G1 X110.784 Y110.102 E16.51569
G1 X109.548 Y111.018 E16.59244
G1 X108.941 Y111.417 E16.62868
G1 X108.295 Y111.748 E16.6649
G1 X107.615 Y112.006 E16.70118
G1 X106.912 Y112.187 E16.7374
G1 X106.193 Y112.29 E16.77363
G1 X105.594 Y112.315 E16.80354
G1 X105.055 Y112.313 E16.83044
G1 X104.329 Y112.27 E16.86672
G1 X103.613 Y112.148 E16.90296
G1 X102.915 Y111.948 E16.93918
G1 X102.26 Y111.68 E16.97449
G1 X97.725 Y111.68 E17.20074
G1 X97.242 Y111.893 E17.22708
G1 X96.549 Y112.111 E17.26332
G1 X95.837 Y112.251 E17.29952
G1 X94.92 Y112.315 E17.34538
G1 X94.383 Y112.315 E17.37217
G1 X93.658 Y112.275 E17.4084
G1 X92.941 Y112.156 E17.44466
G1 X92.242 Y111.958 E17.48091
G1 X91.569 Y111.685 E17.51714
G1 X90.93 Y111.34 E17.55337
G1 X90.59 Y111.117 E17.57365
G1 X89.415 Y110.292 E17.64528
G1 X88.845 Y109.842 E17.68151
G1 X88.327 Y109.333 E17.71774
G1 X87.868 Y108.769 E17.75402
G1 X87.475 Y108.159 E17.79023
G1 X87.296 Y107.823 E17.80922
G1 X87.232 Y107.694 E17.8164
G1 X86.945 Y107.027 E17.85263
G1 X86.734 Y106.332 E17.88887
G1 X86.6 Y105.618 E17.92511
G1 X86.544 Y104.772 E17.96741
G1 X86.542 Y103.566 E18.02758
G1 X86.581 Y102.841 E18.0638
G1 X86.699 Y102.124 E18.10005
G1 X86.895 Y101.425 E18.13627
G1 X87.167 Y100.751 E18.17253
G1 X87.512 Y100.111 E18.2088
G1 X87.586 Y100.003 E18.21534
G1 X87.256 Y99.432 E18.24824
G1 X86.963 Y98.767 E18.28449
G1 X86.745 Y98.074 E18.32074
G1 X86.605 Y97.362 E18.35694
G1 X86.541 Y96.418 E18.40414
G1 X86.546 Y95.174 E18.46621
G1 X86.589 Y94.449 E18.50244
G1 X86.711 Y93.733 E18.53868
G1 X86.911 Y93.035 E18.5749
G1 X87.187 Y92.363 E18.61115
G1 X87.535 Y91.726 E18.64736
G1 X87.951 Y91.13 E18.68362
G1 X88.43 Y90.584 E18.71986
G1 X89.217 Y89.898 E18.77194
G0 F3600 X89.455 Y90.219
G1 F1800 X90.69 Y89.304 E18.84863
G1 X91.279 Y88.918 E18.88376
G1 X91.907 Y88.601 E18.91886
G1 X92.568 Y88.357 E18.95401
G1 X93.251 Y88.19 E18.98909
G1 X93.95 Y88.101 E19.02424
G1 X94.404 Y88.086 E19.04691
G1 X94.943 Y88.088 E19.0738
G1 X95.646 Y88.131 E19.10893
G1 X96.339 Y88.253 E19.14404
G1 X97.014 Y88.452 E19.17915
G1 X97.648 Y88.721 E19.21351
G1 X102.363 Y88.721 E19.44874
G1 X102.468 Y88.665 E19.45468
G1 X103.122 Y88.405 E19.48979
G1 X103.802 Y88.221 E19.52494
G1 X104.498 Y88.115 E19.56006
G1 X105.056 Y88.088 E19.58793
G1 X105.596 Y88.086 E19.61487
G1 X106.299 Y88.123 E19.64999
G1 X106.993 Y88.24 E19.68511
G1 X107.67 Y88.435 E19.72025
G1 X108.32 Y88.705 E19.75537
G1 X108.935 Y89.047 E19.79048
G1 X109.31 Y89.304 E19.81316
G1 X110.545 Y90.219 E19.88984
G1 X111.086 Y90.67 E19.92498
G1 X111.572 Y91.179 E19.96009
G1 X111.998 Y91.74 E19.99523
G1 X112.357 Y92.345 E20.03033
G1 X112.645 Y92.987 E20.06544
G1 X112.859 Y93.658 E20.10057
G1 X112.995 Y94.349 E20.13571
G1 X113.054 Y95.176 E20.17707
G1 X113.059 Y96.42 E20.23914
G1 X113.022 Y97.123 E20.27426
G1 X112.905 Y97.817 E20.30937
G1 X112.711 Y98.494 E20.34451
G1 X112.441 Y99.144 E20.37962
G1 X112.099 Y99.759 E20.41473
G1 X111.927 Y100 E20.4295
G1 X112.15 Y100.323 E20.44908
G1 X112.482 Y100.944 E20.48421
G1 X112.742 Y101.598 E20.51933
G1 X112.926 Y102.278 E20.55447
G1 X113.032 Y102.974 E20.58959
G1 X113.059 Y103.58 E20.61986
G1 X113.054 Y104.824 E20.68192
G1 X113.011 Y105.527 E20.71706
G1 X112.889 Y106.22 E20.75217
G1 X112.689 Y106.895 E20.78729
G1 X112.414 Y107.543 E20.82241
G1 X112.067 Y108.155 E20.85751
G1 X111.653 Y108.725 E20.89265
G1 X111.177 Y109.243 E20.92775
G1 X110.546 Y109.78 E20.96909
G1 X109.31 Y110.696 E21.04584
G1 X108.721 Y111.083 E21.081
G1 X108.093 Y111.4 E21.1161
G1 X107.432 Y111.644 E21.15125
G1 X106.748 Y111.811 E21.18638
G1 X106.05 Y111.9 E21.22148
G1 X105.595 Y111.915 E21.2442
G1 X105.056 Y111.913 E21.27109
G1 X104.353 Y111.87 E21.30623
G1 X103.66 Y111.748 E21.34133
G1 X102.985 Y111.549 E21.37644
G1 X102.351 Y111.28 E21.4108
G1 X97.639 Y111.28 E21.64588
