;FLAVOR:Marlin
;TIME:4150
;Filament used: 2.46162m
;Layer height: 0.1
;Generated with Cura_SteamEngine 3.0.4
M190 S60
M104 S200
M109 S200
M82 ; absolute extrusion mode
G21 ;metric values
G90 ;absolute positioning
M82 ;set extruder to absolute mode
M107 ;start with the fan off
G28 X0 Y0 ;move X/Y to min endstops
G28 Z0 ;move Z to min endstops
G1 Z15.0 F9000 ;move the platform down 15mm
G92 E0 ;zero the extruded length
G1 F200 E3 ;extrude 3mm of feed stock
G92 E0 ;zero the extruded length again
G1 F9000
;Put printing message on LCD screen
M117 Printing...
;LAYER_COUNT:68
;LAYER:0
M107
G0 F3600 X64.952 Y62.65 Z0.3
;TYPE:SKIRT
G1 F1800 X65.811 Y61.789 E0.06068
G1 X66.44 Y61.224 E0.10286
G1 X67.494 Y60.375 E0.17038
G1 X68.161 Y59.893 E0.21144
G1 X69.185 Y59.233 E0.27222
G1 X69.869 Y58.84 E0.31157
G1 X70.954 Y58.287 E0.37233
G1 X71.717 Y57.948 E0.41398
G1 X72.921 Y57.489 E0.47827
G1 X73.685 Y57.242 E0.51833
G1 X74.859 Y56.928 E0.57896
G1 X75.676 Y56.756 E0.62061
G1 X76.95 Y56.558 E0.68493
G1 X77.744 Y56.475 E0.72476
G1 X78.958 Y56.412 E0.78541
G1 X79.767 Y56.413 E0.82577
G1 X81.017 Y56.478 E0.88822
G1 X81.824 Y56.562 E0.9287
G1 X83.064 Y56.757 E0.99132
G1 X83.874 Y56.929 E1.03263
G1 X85.081 Y57.253 E1.09498
G1 X85.859 Y57.506 E1.1358
G1 X87.029 Y57.956 E1.19834
G1 X87.767 Y58.285 E1.23865
G1 X88.881 Y58.852 E1.30101
G1 X89.599 Y59.266 E1.34236
G1 X90.648 Y59.949 E1.40481
G1 X91.302 Y60.425 E1.44517
G1 X92.276 Y61.214 E1.5077
G1 X92.868 Y61.746 E1.54741
G1 X93.708 Y62.582 E1.60654
G1 X94.242 Y63.17 E1.64617
G1 X95.054 Y64.162 E1.71012
G1 X95.622 Y64.952 E1.75867
G1 X104.869 Y79.664 E2.62559
G1 X122.227 Y80.316 E3.4922
G1 X123.173 Y80.409 E3.53962
G1 X124.41 Y80.608 E3.60213
G1 X125.192 Y80.775 E3.64202
G1 X126.366 Y81.09 E3.70267
G1 X127.135 Y81.34 E3.74301
G1 X128.307 Y81.789 E3.80562
G1 X129.063 Y82.125 E3.8469
G1 X130.176 Y82.693 E3.90924
G1 X130.879 Y83.1 E3.94977
G1 X131.929 Y83.782 E4.01223
G1 X132.59 Y84.262 E4.05299
G1 X133.564 Y85.051 E4.11552
G1 X134.166 Y85.593 E4.15594
G1 X135.051 Y86.477 E4.21834
G1 X135.603 Y87.09 E4.2595
G1 X136.391 Y88.064 E4.322
G1 X136.867 Y88.72 E4.36244
G1 X137.548 Y89.768 E4.42479
G1 X137.953 Y90.468 E4.46514
G1 X138.523 Y91.583 E4.52761
G1 X138.864 Y92.348 E4.5694
G1 X139.312 Y93.52 E4.632
G1 X139.559 Y94.283 E4.67201
G1 X139.883 Y95.49 E4.73436
G1 X140.054 Y96.291 E4.77522
G1 X140.25 Y97.528 E4.8377
G1 X140.335 Y98.344 E4.87863
G1 X140.4 Y99.594 E4.94108
G1 X140.401 Y100.398 E4.98119
G1 X140.337 Y101.649 E5.04369
G1 X140.251 Y102.469 E5.08482
G1 X140.055 Y103.708 E5.1474
G1 X139.882 Y104.519 E5.18878
G1 X139.557 Y105.725 E5.25109
G1 X139.312 Y106.479 E5.29064
G1 X138.865 Y107.649 E5.35313
G1 X138.524 Y108.415 E5.39496
G1 X137.954 Y109.53 E5.45744
G1 X137.55 Y110.229 E5.49771
G1 X136.868 Y111.279 E5.56018
G1 X136.388 Y111.94 E5.60094
G1 X135.599 Y112.914 E5.66347
G1 X135.063 Y113.51 E5.70346
G1 X134.18 Y114.396 E5.76587
G1 X133.554 Y114.959 E5.80787
G1 X132.579 Y115.746 E5.87038
G1 X131.93 Y116.217 E5.91039
G1 X130.882 Y116.898 E5.97274
G1 X130.177 Y117.306 E6.01338
G1 X129.062 Y117.875 E6.07584
G1 X128.307 Y118.211 E6.11706
G1 X127.135 Y118.66 E6.17968
G1 X126.367 Y118.909 E6.21996
G1 X125.16 Y119.233 E6.28231
G1 X124.357 Y119.404 E6.32327
G1 X123.118 Y119.6 E6.38585
G1 X122.191 Y119.691 E6.43232
G1 X104.867 Y120.339 E7.29722
G1 X95.622 Y135.045 E8.16384
G1 X95.088 Y135.792 E8.20966
G1 X94.323 Y136.74 E8.27043
G1 X93.759 Y137.367 E8.3125
G1 X92.872 Y138.251 E8.37498
G1 X92.279 Y138.784 E8.41476
G1 X91.306 Y139.573 E8.47726
G1 X90.636 Y140.06 E8.51858
G1 X89.587 Y140.74 E8.58095
G1 X88.866 Y141.154 E8.62243
G1 X87.718 Y141.735 E8.68662
G1 X87 Y142.055 E8.72584
G1 X85.863 Y142.493 E8.78663
G1 X85.074 Y142.749 E8.82801
G1 X83.866 Y143.072 E8.89039
G1 X83.049 Y143.244 E8.93205
G1 X81.775 Y143.442 E8.99637
G1 X80.987 Y143.524 E9.0359
G1 X79.772 Y143.588 E9.0966
G1 X78.95 Y143.588 E9.13761
G1 X77.701 Y143.522 E9.20001
G1 X76.901 Y143.438 E9.24014
G1 X75.661 Y143.243 E9.30276
G1 X74.854 Y143.072 E9.34392
G1 X73.682 Y142.758 E9.40445
G1 X72.919 Y142.511 E9.44446
G1 X71.714 Y142.051 E9.50881
G1 X70.933 Y141.703 E9.55147
G1 X69.788 Y141.115 E9.61569
G1 X69.106 Y140.72 E9.65501
G1 X68.087 Y140.059 E9.7156
G1 X67.422 Y139.576 E9.75661
G1 X66.448 Y138.787 E9.81914
G1 X65.843 Y138.241 E9.8598
G1 X64.958 Y137.356 E9.92224
G1 X64.414 Y136.753 E9.96276
G1 X63.647 Y135.807 E10.02352
G1 X63.173 Y135.156 E10.0637
G1 X62.47 Y134.078 E10.1279
G1 X62.053 Y133.358 E10.16941
G1 X61.485 Y132.243 E10.23184
G1 X61.154 Y131.501 E10.27238
G1 X60.705 Y130.333 E10.33481
G1 X60.452 Y129.555 E10.37562
G1 X60.128 Y128.347 E10.43802
G1 X59.955 Y127.524 E10.47998
G1 X59.757 Y126.25 E10.5443
G1 X59.674 Y125.456 E10.58413
G1 X59.611 Y124.242 E10.64478
G1 X59.614 Y123.394 E10.68708
G1 X59.689 Y122.079 E10.7528
G1 X59.772 Y121.303 E10.79173
G1 X59.958 Y120.128 E10.85108
G1 X60.129 Y119.325 E10.89204
G1 X60.444 Y118.152 E10.95264
G1 X60.688 Y117.398 E10.99218
G1 X61.146 Y116.196 E11.05635
G1 X61.539 Y115.328 E11.10389
G1 X69.642 Y99.999 E11.96893
G1 X61.526 Y84.638 E12.83568
G1 X61.141 Y83.789 E12.88219
G1 X60.705 Y82.653 E12.9429
G1 X60.457 Y81.893 E12.98278
G1 X60.131 Y80.687 E13.04511
G1 X59.957 Y79.871 E13.08673
G1 X59.761 Y78.632 E13.14932
G1 X59.675 Y77.812 E13.19045
G1 X59.611 Y76.563 E13.25284
G1 X59.612 Y75.759 E13.29296
G1 X59.677 Y74.508 E13.35545
G1 X59.761 Y73.701 E13.39593
G1 X59.956 Y72.461 E13.45856
G1 X60.129 Y71.645 E13.50017
G1 X60.454 Y70.438 E13.56253
G1 X60.705 Y69.667 E13.60299
G1 X61.154 Y68.499 E13.66541
G1 X61.485 Y67.757 E13.70595
G1 X62.053 Y66.642 E13.76838
G1 X62.462 Y65.934 E13.80917
G1 X63.144 Y64.884 E13.87164
G1 X63.624 Y64.223 E13.91239
G1 X64.413 Y63.249 E13.97493
G1 X64.952 Y62.65 E14.01513
G0 F3600 X65.235 Y62.932
G1 F1800 X66.094 Y62.071 E14.07581
G1 X66.691 Y61.535 E14.11583
G1 X67.745 Y60.686 E14.18336
G1 X68.378 Y60.229 E14.22231
G1 X69.402 Y59.569 E14.28309
G1 X70.051 Y59.196 E14.32043
G1 X71.136 Y58.643 E14.38119
G1 X71.86 Y58.321 E14.42072
G1 X73.064 Y57.862 E14.48501
G1 X73.788 Y57.628 E14.52297
G1 X74.962 Y57.314 E14.5836
G1 X75.738 Y57.151 E14.62316
G1 X77.012 Y56.953 E14.68748
G1 X77.764 Y56.875 E14.7252
G1 X78.978 Y56.812 E14.78585
G1 X79.746 Y56.812 E14.82416
G1 X80.996 Y56.877 E14.88661
G1 X81.762 Y56.957 E14.92503
G1 X83.002 Y57.152 E14.98766
G1 X83.77 Y57.315 E15.02683
G1 X84.977 Y57.639 E15.08917
G1 X85.715 Y57.879 E15.12789
G1 X86.885 Y58.329 E15.19043
G1 X87.586 Y58.641 E15.22871
G1 X88.7 Y59.208 E15.29107
G1 X89.381 Y59.602 E15.33033
G1 X90.43 Y60.285 E15.39278
G1 X91.05 Y60.736 E15.43103
G1 X92.024 Y61.525 E15.49356
G1 X92.586 Y62.03 E15.53126
G1 X93.426 Y62.866 E15.59038
G1 X93.932 Y63.424 E15.62796
G1 X94.744 Y64.416 E15.69192
G1 X95.283 Y65.165 E15.73796
G1 X104.641 Y80.055 E16.61535
G1 X122.212 Y80.715 E17.49259
G1 X123.109 Y80.804 E17.53756
G1 X124.346 Y81.003 E17.60007
G1 X125.089 Y81.162 E17.63798
G1 X126.263 Y81.477 E17.69862
G1 X126.992 Y81.714 E17.73686
G1 X128.164 Y82.163 E17.79948
G1 X128.881 Y82.482 E17.83863
G1 X129.994 Y83.05 E17.90097
G1 X130.661 Y83.435 E17.93939
G1 X131.711 Y84.117 E18.00186
G1 X132.338 Y84.573 E18.04054
G1 X133.312 Y85.362 E18.10307
G1 X133.884 Y85.876 E18.14144
G1 X134.769 Y86.76 E18.20385
G1 X135.292 Y87.342 E18.24288
G1 X136.08 Y88.316 E18.30539
G1 X136.532 Y88.938 E18.34375
G1 X137.213 Y89.986 E18.4061
G1 X137.597 Y90.65 E18.44437
G1 X138.167 Y91.765 E18.50684
G1 X138.49 Y92.491 E18.54649
G1 X138.938 Y93.663 E18.60909
G1 X139.173 Y94.387 E18.64706
G1 X139.497 Y95.594 E18.70941
G1 X139.659 Y96.354 E18.74818
G1 X139.855 Y97.591 E18.81066
G1 X139.936 Y98.365 E18.84949
G1 X140.001 Y99.615 E18.91194
G1 X140.001 Y100.377 E18.94995
G1 X139.937 Y101.628 E19.01245
G1 X139.856 Y102.406 E19.05147
G1 X139.66 Y103.645 E19.11405
G1 X139.496 Y104.415 E19.15333
G1 X139.171 Y105.621 E19.21564
G1 X138.939 Y106.336 E19.25315
G1 X138.492 Y107.506 E19.31563
G1 X138.168 Y108.233 E19.35534
G1 X137.598 Y109.348 E19.41782
G1 X137.215 Y110.011 E19.45602
G1 X136.533 Y111.061 E19.51848
G1 X136.077 Y111.688 E19.55716
G1 X135.288 Y112.662 E19.6197
G1 X134.779 Y113.228 E19.65767
G1 X133.896 Y114.114 E19.72008
G1 X133.303 Y114.648 E19.75989
G1 X132.328 Y115.435 E19.8224
G1 X131.712 Y115.882 E19.86038
G1 X130.664 Y116.563 E19.92273
G1 X129.996 Y116.949 E19.96122
G1 X128.881 Y117.518 E20.02367
G1 X128.164 Y117.837 E20.06282
G1 X126.992 Y118.286 E20.12544
G1 X126.263 Y118.523 E20.16368
G1 X125.056 Y118.847 E20.22603
G1 X124.294 Y119.009 E20.2649
G1 X123.055 Y119.205 E20.32748
G1 X122.176 Y119.291 E20.37154
G1 X104.641 Y119.947 E21.24698
G1 X95.283 Y134.832 E22.12416
G1 X94.777 Y135.541 E22.16762
G1 X94.012 Y136.489 E22.22839
G1 X93.477 Y137.083 E22.26828
G1 X92.59 Y137.967 E22.33075
G1 X92.027 Y138.474 E22.36855
G1 X91.054 Y139.263 E22.43105
G1 X90.418 Y139.724 E22.47024
G1 X89.369 Y140.404 E22.53261
G1 X88.686 Y140.798 E22.57195
G1 X87.538 Y141.379 E22.63614
G1 X86.856 Y141.681 E22.67335
G1 X85.719 Y142.119 E22.73414
G1 X84.97 Y142.363 E22.77344
G1 X83.762 Y142.686 E22.83582
G1 X82.987 Y142.849 E22.87533
G1 X81.713 Y143.047 E22.93966
G1 X80.966 Y143.125 E22.97713
G1 X79.751 Y143.189 E23.03783
G1 X78.972 Y143.189 E23.07669
G1 X77.723 Y143.123 E23.13909
G1 X76.963 Y143.043 E23.17722
G1 X75.723 Y142.848 E23.23984
G1 X74.958 Y142.686 E23.27885
G1 X73.786 Y142.372 E23.33939
G1 X73.062 Y142.137 E23.37736
G1 X71.857 Y141.677 E23.44171
G1 X71.116 Y141.347 E23.48218
G1 X69.971 Y140.759 E23.5464
G1 X69.324 Y140.384 E23.58371
G1 X68.305 Y139.723 E23.6443
G1 X67.674 Y139.265 E23.6832
G1 X66.7 Y138.476 E23.74574
G1 X66.125 Y137.959 E23.78432
G1 X65.24 Y137.074 E23.84676
G1 X64.725 Y136.501 E23.8852
G1 X63.958 Y135.555 E23.94596
G1 X63.508 Y134.937 E23.9841
G1 X62.805 Y133.859 E24.0483
G1 X62.409 Y133.176 E24.08769
G1 X61.841 Y132.061 E24.15012
G1 X61.528 Y131.357 E24.18856
G1 X61.079 Y130.189 E24.25099
G1 X60.839 Y129.451 E24.2897
G1 X60.515 Y128.243 E24.3521
G1 X60.35 Y127.462 E24.39193
G1 X60.152 Y126.188 E24.45625
G1 X60.074 Y125.436 E24.49397
G1 X60.011 Y124.222 E24.55462
G1 X60.013 Y123.417 E24.59478
G1 X60.088 Y122.102 E24.66049
G1 X60.167 Y121.366 E24.69742
G1 X60.353 Y120.191 E24.75677
G1 X60.515 Y119.429 E24.79564
G1 X60.83 Y118.256 E24.85623
G1 X61.062 Y117.54 E24.89378
G1 X61.52 Y116.338 E24.95795
G1 X61.893 Y115.515 E25.00303
G1 X70.094 Y100 E25.87856
G1 X61.88 Y84.451 E26.7559
G1 X61.514 Y83.646 E26.80001
G1 X61.078 Y82.51 E26.86072
G1 X60.843 Y81.789 E26.89855
G1 X60.517 Y80.583 E26.96088
G1 X60.352 Y79.808 E27.00041
G1 X60.156 Y78.569 E27.06299
G1 X60.075 Y77.792 E27.10197
G1 X60.011 Y76.543 E27.16436
G1 X60.011 Y75.78 E27.20243
G1 X60.076 Y74.529 E27.26493
G1 X60.156 Y73.763 E27.30335
G1 X60.351 Y72.523 E27.36597
G1 X60.516 Y71.749 E27.40546
G1 X60.841 Y70.542 E27.46782
G1 X61.079 Y69.811 E27.50617
G1 X61.528 Y68.643 E27.5686
G1 X61.841 Y67.939 E27.60704
G1 X62.409 Y66.824 E27.66947
G1 X62.797 Y66.152 E27.70818
G1 X63.479 Y65.102 E27.77065
G1 X63.935 Y64.475 E27.80933
G1 X64.724 Y63.501 E27.87186
G1 X65.235 Y62.932 E27.91002
G0 F3600 X65.519 Y63.215
G1 F1800 X66.378 Y62.354 E27.9707
G1 X66.942 Y61.847 E28.00853
G1 X67.996 Y60.998 E28.07605
G1 X68.595 Y60.565 E28.11293
G1 X69.619 Y59.905 E28.17371
G1 X70.232 Y59.552 E28.209
G1 X71.317 Y58.999 E28.26975
G1 X72.002 Y58.695 E28.30714
G1 X73.206 Y58.236 E28.37143
G1 X73.891 Y58.015 E28.40734
G1 X75.065 Y57.701 E28.46797
G1 X75.799 Y57.546 E28.50539
G1 X77.073 Y57.348 E28.56972
G1 X77.785 Y57.274 E28.60543
G1 X78.999 Y57.211 E28.66608
G1 X79.726 Y57.211 E28.70235
G1 X80.976 Y57.276 E28.7648
G1 X81.699 Y57.352 E28.80107
G1 X82.939 Y57.547 E28.86369
G1 X83.667 Y57.701 E28.90081
G1 X84.874 Y58.025 E28.96316
G1 X85.572 Y58.253 E28.9998
G1 X86.742 Y58.703 E29.06234
G1 X87.404 Y58.998 E29.0985
G1 X88.518 Y59.565 E29.16086
G1 X89.162 Y59.937 E29.19796
G1 X90.211 Y60.62 E29.26041
G1 X90.798 Y61.047 E29.29663
G1 X91.772 Y61.836 E29.35916
G1 X92.304 Y62.313 E29.39481
G1 X93.144 Y63.149 E29.45394
G1 X93.623 Y63.677 E29.4895
G1 X94.435 Y64.669 E29.55346
G1 X94.945 Y65.378 E29.59703
G1 X104.416 Y80.447 E30.48499
G1 X122.197 Y81.115 E31.37271
G1 X123.046 Y81.199 E31.41527
G1 X124.283 Y81.398 E31.47778
G1 X124.985 Y81.548 E31.51359
G1 X126.159 Y81.863 E31.57424
G1 X126.849 Y82.087 E31.61043
G1 X128.021 Y82.536 E31.67305
G1 X128.699 Y82.838 E31.71008
G1 X129.812 Y83.406 E31.77242
G1 X130.443 Y83.771 E31.80878
G1 X131.493 Y84.453 E31.87125
G1 X132.086 Y84.884 E31.90782
G1 X133.06 Y85.673 E31.97036
G1 X133.601 Y86.159 E32.00664
G1 X134.486 Y87.043 E32.06905
G1 X134.981 Y87.593 E32.10596
G1 X135.769 Y88.567 E32.16847
G1 X136.197 Y89.156 E32.20479
G1 X136.878 Y90.204 E32.26715
G1 X137.241 Y90.832 E32.30333
G1 X137.811 Y91.947 E32.36581
G1 X138.117 Y92.634 E32.40333
G1 X138.565 Y93.806 E32.46593
G1 X138.787 Y94.49 E32.50181
G1 X139.111 Y95.697 E32.56415
G1 X139.264 Y96.417 E32.60088
G1 X139.46 Y97.654 E32.66336
G1 X139.537 Y98.385 E32.70003
G1 X139.602 Y99.635 E32.76248
G1 X139.602 Y100.357 E32.7985
G1 X139.538 Y101.608 E32.861
G1 X139.461 Y102.344 E32.89791
G1 X139.265 Y103.583 E32.9605
G1 X139.11 Y104.31 E32.99758
G1 X138.785 Y105.516 E33.0599
G1 X138.565 Y106.193 E33.09541
G1 X138.118 Y107.363 E33.1579
G1 X137.812 Y108.051 E33.19546
G1 X137.242 Y109.166 E33.25794
G1 X136.879 Y109.793 E33.29408
G1 X136.197 Y110.843 E33.35655
G1 X135.766 Y111.436 E33.39312
G1 X134.977 Y112.41 E33.45566
G1 X134.496 Y112.945 E33.49155
G1 X133.613 Y113.831 E33.55396
G1 X133.052 Y114.337 E33.59165
G1 X132.077 Y115.124 E33.65416
G1 X131.494 Y115.547 E33.6901
G1 X130.446 Y116.228 E33.75245
G1 X129.814 Y116.593 E33.78886
G1 X128.699 Y117.162 E33.85131
G1 X128.021 Y117.464 E33.88834
G1 X126.849 Y117.913 E33.95096
G1 X126.16 Y118.137 E33.9871
G1 X124.953 Y118.461 E34.04945
G1 X124.232 Y118.614 E34.08623
G1 X122.993 Y118.81 E34.14881
G1 X122.161 Y118.891 E34.19051
G1 X104.415 Y119.555 E35.07648
G1 X94.944 Y134.62 E35.96427
G1 X94.466 Y135.29 E36.00533
G1 X93.701 Y136.238 E36.06611
G1 X93.194 Y136.8 E36.10387
G1 X92.307 Y137.684 E36.16634
G1 X91.775 Y138.163 E36.20206
G1 X90.802 Y138.952 E36.26456
G1 X90.201 Y139.389 E36.30163
G1 X89.152 Y140.069 E36.364
G1 X88.505 Y140.441 E36.40123
G1 X87.357 Y141.022 E36.46542
G1 X86.712 Y141.308 E36.50062
G1 X85.575 Y141.746 E36.56141
G1 X84.867 Y141.976 E36.59855
G1 X83.659 Y142.299 E36.66094
G1 X82.926 Y142.454 E36.69831
G1 X81.652 Y142.652 E36.76264
G1 X80.945 Y142.725 E36.7981
G1 X79.73 Y142.789 E36.8588
G1 X78.993 Y142.789 E36.89557
G1 X77.744 Y142.723 E36.95797
G1 X77.026 Y142.648 E36.99398
G1 X75.786 Y142.453 E37.05661
G1 X75.061 Y142.3 E37.09357
G1 X73.889 Y141.986 E37.15411
G1 X73.205 Y141.764 E37.18998
G1 X72 Y141.304 E37.25433
G1 X71.298 Y140.991 E37.29268
G1 X70.153 Y140.403 E37.3569
G1 X69.542 Y140.049 E37.39213
G1 X68.523 Y139.388 E37.45272
G1 X67.926 Y138.954 E37.48955
G1 X66.952 Y138.165 E37.55208
G1 X66.408 Y137.676 E37.58858
G1 X65.523 Y136.791 E37.65102
G1 X65.036 Y136.25 E37.68733
G1 X64.269 Y135.304 E37.74809
G1 X63.843 Y134.719 E37.7842
G1 X63.14 Y133.641 E37.8484
G1 X62.766 Y132.994 E37.88569
G1 X62.198 Y131.879 E37.94812
G1 X61.901 Y131.214 E37.98445
G1 X61.452 Y130.046 E38.04688
G1 X61.225 Y129.347 E38.08355
G1 X60.901 Y128.139 E38.14595
G1 X60.745 Y127.401 E38.18358
G1 X60.547 Y126.127 E38.2479
G1 X60.473 Y125.415 E38.28361
G1 X60.41 Y124.201 E38.34426
G1 X60.412 Y123.439 E38.38228
G1 X60.487 Y122.124 E38.44799
G1 X60.562 Y121.429 E38.48287
G1 X60.748 Y120.254 E38.54222
G1 X60.902 Y119.533 E38.579
G1 X61.217 Y118.36 E38.63959
G1 X61.436 Y117.683 E38.67509
G1 X61.894 Y116.481 E38.73927
G1 X62.246 Y115.702 E38.78191
G1 X70.547 Y99.999 E39.66807
G1 X62.234 Y84.264 E40.55591
G1 X61.888 Y83.502 E40.59766
G1 X61.452 Y82.366 E40.65837
G1 X61.23 Y81.685 E40.6941
G1 X60.904 Y80.479 E40.75643
G1 X60.747 Y79.746 E40.79383
G1 X60.551 Y78.507 E40.85641
G1 X60.474 Y77.771 E40.89333
G1 X60.41 Y76.522 E40.95573
G1 X60.41 Y75.801 E40.9917
G1 X60.475 Y74.55 E41.05419
G1 X60.551 Y73.826 E41.09051
G1 X60.746 Y72.586 E41.15314
G1 X60.902 Y71.853 E41.19053
G1 X61.227 Y70.646 E41.25289
