;FLAVOR:Marlin
;TIME:3768
;Filament used: 2.25109m
;Layer height: 0.1
;Generated with Cura_SteamEngine 3.0.4
M190 S60
M104 S200
M109 S200
M82 ; absolute extrusion mode
G21 ;metric values
G90 ;absolute positioning
M82 ;set extruder to absolute mode
M107 ;start with the fan off
G28 X0 Y0 ;move X/Y to min endstops
G28 Z0 ;move Z to min endstops
G1 Z15.0 F9000 ;move the platform down 15mm
G92 E0 ;zero the extruded length
G1 F200 E3 ;extrude 3mm of feed stock
G92 E0 ;zero the extruded length again
G1 F9000
;Put printing message on LCD screen
M117 Printing...
;LAYER_COUNT:68
;LAYER:0
M107
G0 F3600 X66.043 Y63.64 Z0.3
;TYPE:SKIRT
G1 F1800 X66.818 Y62.862 E0.05479
G1 X67.45 Y62.294 E0.09718
G1 X68.305 Y61.605 E0.15196
G1 X68.942 Y61.142 E0.19125
G1 X69.86 Y60.544 E0.24591
G1 X70.569 Y60.134 E0.28677
G1 X71.546 Y59.635 E0.3415
G1 X72.303 Y59.298 E0.38284
G1 X73.331 Y58.904 E0.43777
G1 X74.108 Y58.651 E0.47854
G1 X75.167 Y58.368 E0.53322
G1 X75.985 Y58.196 E0.57493
G1 X77.106 Y58.022 E0.63152
G1 X77.898 Y57.94 E0.67125
G1 X78.958 Y57.885 E0.7242
G1 X79.767 Y57.886 E0.76456
G1 X80.863 Y57.943 E0.81932
G1 X81.67 Y58.027 E0.8598
G1 X82.757 Y58.198 E0.91469
G1 X83.574 Y58.371 E0.95636
G1 X84.632 Y58.656 E1.01102
G1 X85.397 Y58.906 E1.05117
G1 X86.39 Y59.287 E1.10424
G1 X87.112 Y59.606 E1.14362
G1 X88.122 Y60.116 E1.20007
G1 X88.862 Y60.542 E1.24267
G1 X89.782 Y61.141 E1.29744
G1 X90.429 Y61.612 E1.33736
G1 X91.284 Y62.303 E1.39221
G1 X91.896 Y62.854 E1.43329
G1 X92.672 Y63.63 E1.48804
G1 X93.215 Y64.231 E1.52845
G1 X93.885 Y65.057 E1.58151
G1 X94.204 Y65.479 E1.60791
G1 X104.565 Y80.186 E2.50544
G1 X122.447 Y81.801 E3.40121
G1 X122.956 Y81.864 E3.42679
G1 X124.044 Y82.035 E3.48174
G1 X124.864 Y82.209 E3.52356
G1 X125.921 Y82.494 E3.57818
G1 X126.675 Y82.739 E3.61773
G1 X127.703 Y83.132 E3.67264
G1 X128.472 Y83.475 E3.71465
G1 X129.447 Y83.974 E3.76929
G1 X130.141 Y84.375 E3.80928
G1 X131.062 Y84.973 E3.86407
G1 X131.725 Y85.455 E3.90496
G1 X132.579 Y86.147 E3.9598
G1 X133.18 Y86.688 E4.00014
G1 X133.956 Y87.463 E4.05486
G1 X134.508 Y88.076 E4.09601
G1 X135.199 Y88.93 E4.15082
G1 X135.676 Y89.587 E4.19132
G1 X136.273 Y90.506 E4.246
G1 X136.676 Y91.202 E4.28612
G1 X137.176 Y92.179 E4.34088
G1 X137.518 Y92.947 E4.38282
G1 X137.911 Y93.975 E4.43773
G1 X138.158 Y94.738 E4.47774
G1 X138.442 Y95.796 E4.53239
G1 X138.612 Y96.592 E4.573
G1 X138.779 Y97.641 E4.62599
G1 X138.864 Y98.434 E4.66578
G1 X138.925 Y99.53 E4.72055
G1 X138.926 Y100.377 E4.7628
G1 X138.864 Y101.544 E4.82111
G1 X138.775 Y102.372 E4.86265
G1 X138.6 Y103.457 E4.91748
G1 X138.434 Y104.236 E4.95722
G1 X138.159 Y105.261 E5.01017
G1 X137.911 Y106.024 E5.05019
G1 X137.519 Y107.05 E5.10499
G1 X137.177 Y107.819 E5.14698
G1 X136.677 Y108.796 E5.20173
G1 X136.275 Y109.491 E5.24179
G1 X135.677 Y110.412 E5.29658
G1 X135.195 Y111.075 E5.33747
G1 X134.503 Y111.929 E5.39231
G1 X133.969 Y112.523 E5.43216
G1 X133.195 Y113.3 E5.48687
G1 X132.568 Y113.865 E5.52898
G1 X131.713 Y114.555 E5.58379
G1 X131.063 Y115.026 E5.62384
G1 X130.144 Y115.623 E5.67852
G1 X129.448 Y116.026 E5.71864
G1 X128.471 Y116.526 E5.7734
G1 X127.703 Y116.868 E5.81534
G1 X126.675 Y117.261 E5.87025
G1 X125.912 Y117.508 E5.91026
G1 X124.854 Y117.792 E5.96491
G1 X124.051 Y117.963 E6.00587
G1 X122.964 Y118.135 E6.06077
G1 X122.447 Y118.199 E6.08677
G1 X104.565 Y119.814 E6.98253
G1 X94.225 Y134.493 E7.87832
G1 X93.908 Y134.912 E7.90453
G1 X93.216 Y135.766 E7.95937
G1 X92.686 Y136.356 E7.99894
G1 X91.912 Y137.134 E8.05369
G1 X91.281 Y137.703 E8.09608
G1 X90.426 Y138.393 E8.15089
G1 X89.776 Y138.864 E8.19094
G1 X88.857 Y139.461 E8.24561
G1 X88.156 Y139.866 E8.28601
G1 X87.179 Y140.365 E8.34074
G1 X86.416 Y140.705 E8.38241
G1 X85.388 Y141.098 E8.43732
G1 X84.632 Y141.344 E8.47698
G1 X83.574 Y141.629 E8.53165
G1 X82.734 Y141.806 E8.57448
G1 X81.612 Y141.979 E8.63111
G1 X80.827 Y142.06 E8.67049
G1 X79.766 Y142.115 E8.72349
G1 X78.934 Y142.113 E8.765
G1 X77.805 Y142.051 E8.82141
G1 X77.018 Y141.968 E8.86089
G1 X75.965 Y141.802 E8.91407
G1 X75.158 Y141.63 E8.95524
G1 X74.1 Y141.346 E9.00989
G1 X73.322 Y141.093 E9.05071
G1 X72.295 Y140.698 E9.1056
G1 X71.556 Y140.369 E9.14596
G1 X70.578 Y139.871 E9.20072
G1 X69.868 Y139.461 E9.24162
G1 X68.949 Y138.864 E9.29629
G1 X68.292 Y138.387 E9.3368
G1 X67.438 Y137.696 E9.39161
G1 X66.825 Y137.144 E9.43276
G1 X66.049 Y136.367 E9.48755
G1 X65.504 Y135.761 E9.52821
G1 X64.813 Y134.907 E9.58302
G1 X64.337 Y134.252 E9.62341
G1 X63.739 Y133.332 E9.67815
G1 X63.333 Y132.629 E9.71866
G1 X62.834 Y131.652 E9.77339
G1 X62.493 Y130.885 E9.81527
G1 X62.101 Y129.858 E9.87011
G1 X61.859 Y129.114 E9.90914
G1 X61.573 Y128.057 E9.96377
G1 X61.396 Y127.227 E10.00611
G1 X61.231 Y126.174 E10.05929
G1 X61.149 Y125.402 E10.09802
G1 X61.086 Y124.273 E10.15443
G1 X61.087 Y123.389 E10.19854
G1 X61.154 Y122.228 E10.25655
G1 X61.237 Y121.456 E10.29529
G1 X61.399 Y120.434 E10.34692
G1 X61.571 Y119.626 E10.38813
G1 X61.856 Y118.568 E10.4428
G1 X62.105 Y117.805 E10.48284
G1 X62.486 Y116.811 E10.53595
G1 X62.69 Y116.327 E10.56215
G1 X70.245 Y100 E11.45969
G1 X62.703 Y83.706 E12.35546
G1 X62.503 Y83.232 E12.38112
G1 X62.108 Y82.206 E12.43597
G1 X61.855 Y81.431 E12.47665
G1 X61.57 Y80.372 E12.53136
G1 X61.397 Y79.558 E12.57288
G1 X61.226 Y78.472 E12.62773
G1 X61.141 Y77.657 E12.66861
G1 X61.085 Y76.562 E12.72331
G1 X61.086 Y75.759 E12.76337
G1 X61.143 Y74.662 E12.81817
G1 X61.226 Y73.862 E12.8583
G1 X61.396 Y72.775 E12.91319
G1 X61.573 Y71.943 E12.95563
G1 X61.859 Y70.886 E13.01026
G1 X62.104 Y70.133 E13.04976
G1 X62.497 Y69.107 E13.10458
G1 X62.83 Y68.358 E13.14547
G1 X63.328 Y67.38 E13.20023
G1 X63.753 Y66.647 E13.2425
G1 X64.373 Y65.7 E13.29897
G1 X64.838 Y65.062 E13.33836
G1 X65.508 Y64.235 E13.39146
G1 X66.043 Y63.64 E13.43138
G0 F3600 X66.326 Y63.923
G1 F1800 X67.101 Y63.145 E13.48616
G1 X67.701 Y62.605 E13.52644
G1 X68.556 Y61.916 E13.58122
G1 X69.16 Y61.478 E13.61844
G1 X70.078 Y60.88 E13.6731
G1 X70.751 Y60.49 E13.71191
G1 X71.728 Y59.991 E13.76664
G1 X72.446 Y59.671 E13.80586
G1 X73.474 Y59.277 E13.86078
G1 X74.212 Y59.038 E13.89948
G1 X75.271 Y58.755 E13.95417
G1 X76.046 Y58.592 E13.99368
G1 X77.167 Y58.418 E14.05028
G1 X77.919 Y58.34 E14.088
G1 X78.979 Y58.285 E14.14095
G1 X79.746 Y58.285 E14.17922
G1 X80.842 Y58.342 E14.23397
G1 X81.608 Y58.422 E14.2724
G1 X82.695 Y58.593 E14.32729
G1 X83.47 Y58.758 E14.36682
G1 X84.528 Y59.043 E14.42149
G1 X85.254 Y59.279 E14.45958
G1 X86.247 Y59.66 E14.51264
G1 X86.932 Y59.963 E14.55001
G1 X87.942 Y60.473 E14.60646
G1 X88.644 Y60.878 E14.64689
G1 X89.564 Y61.477 E14.70166
G1 X90.177 Y61.923 E14.73948
G1 X91.032 Y62.614 E14.79433
G1 X91.614 Y63.136 E14.83333
G1 X92.39 Y63.912 E14.88808
G1 X92.904 Y64.483 E14.92641
G1 X93.574 Y65.309 E14.97947
G1 X93.877 Y65.709 E15.00451
G1 X104.345 Y80.567 E15.91127
G1 X122.411 Y82.199 E16.81626
G1 X122.894 Y82.259 E16.84054
G1 X123.982 Y82.43 E16.89549
G1 X124.759 Y82.595 E16.93512
G1 X125.816 Y82.88 E16.98973
G1 X126.532 Y83.113 E17.0273
G1 X127.56 Y83.506 E17.08221
G1 X128.289 Y83.831 E17.12203
G1 X129.264 Y84.33 E17.17667
G1 X129.923 Y84.711 E17.21465
G1 X130.844 Y85.309 E17.26943
G1 X131.473 Y85.766 E17.30822
G1 X132.327 Y86.458 E17.36306
G1 X132.897 Y86.971 E17.40132
G1 X133.673 Y87.746 E17.45603
G1 X134.197 Y88.327 E17.49507
G1 X134.888 Y89.181 E17.54987
G1 X135.341 Y89.805 E17.58834
G1 X135.938 Y90.724 E17.64302
G1 X136.319 Y91.384 E17.68104
G1 X136.819 Y92.361 E17.73579
G1 X137.144 Y93.09 E17.77561
G1 X137.537 Y94.118 E17.83052
G1 X137.772 Y94.842 E17.8685
G1 X138.056 Y95.9 E17.92315
G1 X138.217 Y96.655 E17.96166
G1 X138.384 Y97.704 E18.01466
G1 X138.465 Y98.456 E18.05239
G1 X138.526 Y99.552 E18.10716
G1 X138.527 Y100.356 E18.14727
G1 X138.465 Y101.523 E18.20557
G1 X138.381 Y102.308 E18.24496
G1 X138.206 Y103.393 E18.29979
G1 X138.047 Y104.133 E18.33755
G1 X137.772 Y105.158 E18.3905
G1 X137.538 Y105.881 E18.42841
G1 X137.146 Y106.907 E18.48321
G1 X136.82 Y107.637 E18.52309
G1 X136.32 Y108.614 E18.57785
G1 X135.939 Y109.273 E18.61582
G1 X135.341 Y110.194 E18.67061
G1 X134.884 Y110.823 E18.7094
G1 X134.192 Y111.677 E18.76424
G1 X133.686 Y112.24 E18.802
G1 X132.912 Y113.017 E18.85672
G1 X132.316 Y113.554 E18.89674
G1 X131.461 Y114.244 E18.95156
G1 X130.845 Y114.691 E18.98953
G1 X129.926 Y115.288 E19.0442
G1 X129.266 Y115.669 E19.08222
G1 X128.289 Y116.169 E19.13698
G1 X127.56 Y116.494 E19.1768
G1 X126.532 Y116.887 E19.2317
G1 X125.808 Y117.122 E19.26968
G1 X124.75 Y117.406 E19.32433
G1 X123.989 Y117.568 E19.36315
G1 X122.902 Y117.74 E19.41805
G1 X122.411 Y117.801 E19.44274
G1 X104.345 Y119.433 E20.34773
G1 X93.898 Y134.263 E21.25275
G1 X93.597 Y134.66 E21.2776
G1 X92.905 Y135.514 E21.33244
G1 X92.402 Y136.074 E21.36999
G1 X91.628 Y136.852 E21.42475
G1 X91.029 Y137.392 E21.46498
G1 X90.174 Y138.082 E21.51979
G1 X89.558 Y138.529 E21.55777
G1 X88.639 Y139.126 E21.61244
G1 X87.974 Y139.51 E21.65075
G1 X86.997 Y140.009 E21.70548
G1 X86.273 Y140.331 E21.74501
G1 X85.245 Y140.724 E21.79992
G1 X84.528 Y140.957 E21.83753
G1 X83.47 Y141.242 E21.8922
G1 X82.673 Y141.411 E21.93285
G1 X81.551 Y141.584 E21.98948
G1 X80.806 Y141.66 E22.02685
G1 X79.745 Y141.715 E22.07985
G1 X78.956 Y141.714 E22.11921
G1 X77.827 Y141.652 E22.17562
G1 X77.081 Y141.573 E22.21305
G1 X76.028 Y141.407 E22.26623
G1 X75.262 Y141.244 E22.30531
G1 X74.204 Y140.96 E22.35996
G1 X73.466 Y140.72 E22.39868
G1 X72.439 Y140.325 E22.45357
G1 X71.737 Y140.012 E22.49192
G1 X70.759 Y139.514 E22.54667
G1 X70.086 Y139.126 E22.58543
G1 X69.167 Y138.529 E22.6401
G1 X68.543 Y138.076 E22.67857
G1 X67.689 Y137.385 E22.73338
G1 X67.108 Y136.861 E22.77241
G1 X66.332 Y136.084 E22.8272
G1 X65.815 Y135.51 E22.86574
G1 X65.124 Y134.656 E22.92055
G1 X64.673 Y134.034 E22.95888
G1 X64.075 Y133.114 E23.01362
G1 X63.689 Y132.447 E23.05207
G1 X63.19 Y131.47 E23.1068
G1 X62.866 Y130.743 E23.14651
G1 X62.474 Y129.716 E23.20135
G1 X62.245 Y129.01 E23.23838
G1 X61.959 Y127.953 E23.29301
G1 X61.791 Y127.166 E23.33316
G1 X61.626 Y126.113 E23.38633
G1 X61.548 Y125.379 E23.42316
G1 X61.485 Y124.25 E23.47957
G1 X61.486 Y123.412 E23.52138
G1 X61.553 Y122.251 E23.5794
G1 X61.632 Y121.518 E23.61618
G1 X61.794 Y120.496 E23.66781
G1 X61.958 Y119.73 E23.70689
G1 X62.243 Y118.672 E23.76155
G1 X62.478 Y117.948 E23.79953
G1 X62.859 Y116.954 E23.85264
G1 X63.053 Y116.495 E23.8775
G1 X70.686 Y100 E24.78428
G1 X63.066 Y83.538 E25.68929
G1 X62.876 Y83.089 E25.71361
G1 X62.481 Y82.063 E25.76846
G1 X62.241 Y81.327 E25.80708
G1 X61.956 Y80.268 E25.8618
G1 X61.792 Y79.496 E25.90117
G1 X61.621 Y78.41 E25.95602
G1 X61.541 Y77.637 E25.99479
G1 X61.485 Y76.542 E26.04949
G1 X61.485 Y75.78 E26.08751
G1 X61.542 Y74.683 E26.14231
G1 X61.621 Y73.924 E26.18038
G1 X61.791 Y72.837 E26.23527
G1 X61.959 Y72.047 E26.27557
G1 X62.245 Y70.99 E26.3302
G1 X62.478 Y70.276 E26.36767
G1 X62.871 Y69.25 E26.42248
G1 X63.187 Y68.539 E26.4613
G1 X63.685 Y67.561 E26.51605
G1 X64.088 Y66.866 E26.55614
G1 X64.708 Y65.919 E26.61261
G1 X65.149 Y65.314 E26.64996
G1 X65.819 Y64.487 E26.70306
G1 X66.326 Y63.923 E26.74089
G0 F3600 X66.61 Y64.205
G1 F1800 X67.385 Y63.427 E26.79568
G1 X67.952 Y62.917 E26.83373
G1 X68.807 Y62.228 E26.88851
G1 X69.378 Y61.813 E26.92373
G1 X70.296 Y61.215 E26.97839
G1 X70.933 Y60.846 E27.01511
G1 X71.91 Y60.347 E27.06985
G1 X72.589 Y60.045 E27.10692
G1 X73.617 Y59.651 E27.16185
G1 X74.315 Y59.424 E27.19846
G1 X75.374 Y59.141 E27.25315
G1 X76.107 Y58.987 E27.29052
G1 X77.228 Y58.813 E27.34712
G1 X77.939 Y58.739 E27.38278
G1 X78.999 Y58.684 E27.43573
G1 X79.726 Y58.684 E27.472
G1 X80.822 Y58.741 E27.52676
G1 X81.546 Y58.817 E27.56308
G1 X82.633 Y58.988 E27.61798
G1 X83.366 Y59.144 E27.65536
G1 X84.424 Y59.429 E27.71003
G1 X85.111 Y59.653 E27.74608
G1 X86.104 Y60.034 E27.79914
G1 X86.751 Y60.32 E27.83443
G1 X87.761 Y60.83 E27.89088
G1 X88.425 Y61.213 E27.92913
G1 X89.345 Y61.812 E27.9839
G1 X89.926 Y62.234 E28.01972
G1 X90.781 Y62.925 E28.07457
G1 X91.331 Y63.419 E28.11145
G1 X92.107 Y64.195 E28.1662
G1 X92.593 Y64.735 E28.20245
G1 X93.263 Y65.561 E28.25551
G1 X93.55 Y65.94 E28.27923
G1 X104.123 Y80.948 E29.19513
G1 X122.375 Y82.597 E30.10943
G1 X122.832 Y82.654 E30.13241
G1 X123.92 Y82.825 E30.18735
G1 X124.655 Y82.981 E30.22484
G1 X125.712 Y83.266 E30.27946
G1 X126.39 Y83.487 E30.31503
G1 X127.418 Y83.88 E30.36994
G1 X128.107 Y84.187 E30.40757
G1 X129.082 Y84.686 E30.46222
G1 X129.705 Y85.046 E30.49812
G1 X130.626 Y85.644 E30.5529
G1 X131.221 Y86.076 E30.58958
G1 X132.075 Y86.768 E30.64442
G1 X132.615 Y87.254 E30.68067
G1 X133.391 Y88.029 E30.73538
G1 X133.886 Y88.579 E30.7723
G1 X134.577 Y89.433 E30.82711
G1 X135.005 Y90.023 E30.86347
G1 X135.602 Y90.942 E30.91814
G1 X135.963 Y91.566 E30.95411
G1 X136.463 Y92.543 E31.00886
G1 X136.77 Y93.232 E31.0465
G1 X137.163 Y94.26 E31.1014
G1 X137.386 Y94.945 E31.13734
G1 X137.67 Y96.003 E31.192
G1 X137.822 Y96.717 E31.22842
G1 X137.989 Y97.766 E31.28141
G1 X138.065 Y98.478 E31.31713
G1 X138.126 Y99.574 E31.3719
G1 X138.127 Y100.334 E31.40981
G1 X138.065 Y101.501 E31.46812
G1 X137.986 Y102.245 E31.50545
G1 X137.811 Y103.33 E31.56028
G1 X137.661 Y104.029 E31.59594
G1 X137.386 Y105.054 E31.64889
G1 X137.164 Y105.738 E31.68477
G1 X136.772 Y106.764 E31.73956
G1 X136.464 Y107.455 E31.77731
G1 X135.964 Y108.432 E31.83206
G1 X135.604 Y109.055 E31.86796
G1 X135.006 Y109.976 E31.92274
G1 X134.574 Y110.571 E31.95943
G1 X133.882 Y111.425 E32.01427
G1 X133.402 Y111.958 E32.05005
G1 X132.628 Y112.735 E32.10477
G1 X132.065 Y113.242 E32.14257
G1 X131.21 Y113.932 E32.19738
G1 X130.627 Y114.355 E32.23331
G1 X129.708 Y114.952 E32.28799
G1 X129.084 Y115.313 E32.32395
G1 X128.107 Y115.813 E32.37871
G1 X127.418 Y116.12 E32.41634
G1 X126.39 Y116.513 E32.47125
G1 X125.705 Y116.736 E32.50719
G1 X124.647 Y117.02 E32.56184
G1 X123.926 Y117.173 E32.59861
G1 X122.839 Y117.345 E32.65352
G1 X122.375 Y117.403 E32.67685
G1 X104.124 Y119.052 E33.5911
G1 X93.571 Y134.032 E34.50529
G1 X93.287 Y134.408 E34.5288
G1 X92.595 Y135.262 E34.58363
G1 X92.118 Y135.792 E34.61921
G1 X91.344 Y136.57 E34.67396
G1 X90.778 Y137.08 E34.71197
G1 X89.923 Y137.77 E34.76678
G1 X89.34 Y138.193 E34.80272
G1 X88.421 Y138.79 E34.85739
G1 X87.792 Y139.154 E34.89365
G1 X86.815 Y139.653 E34.94838
G1 X86.131 Y139.957 E34.98573
G1 X85.103 Y140.35 E35.04063
G1 X84.424 Y140.571 E35.07626
G1 X83.366 Y140.856 E35.13092
G1 X82.612 Y141.015 E35.16937
G1 X81.49 Y141.188 E35.22601
G1 X80.785 Y141.261 E35.26137
G1 X79.724 Y141.316 E35.31437
G1 X78.978 Y141.314 E35.35159
G1 X77.849 Y141.252 E35.408
G1 X77.143 Y141.178 E35.44341
G1 X76.09 Y141.012 E35.4966
G1 X75.365 Y140.858 E35.53358
G1 X74.307 Y140.574 E35.58823
G1 X73.609 Y140.346 E35.62486
G1 X72.582 Y139.951 E35.67976
G1 X71.919 Y139.656 E35.71596
G1 X70.941 Y139.158 E35.77072
G1 X70.304 Y138.79 E35.80742
G1 X69.385 Y138.193 E35.86209
G1 X68.795 Y137.765 E35.89846
G1 X67.941 Y137.074 E35.95326
G1 X67.391 Y136.579 E35.99018
G1 X66.615 Y135.802 E36.04497
G1 X66.126 Y135.258 E36.08146
G1 X65.435 Y134.404 E36.13627
G1 X65.008 Y133.816 E36.17252
G1 X64.41 Y132.896 E36.22726
G1 X64.045 Y132.265 E36.26363
G1 X63.546 Y131.288 E36.31836
G1 X63.24 Y130.6 E36.35593
G1 X62.848 Y129.573 E36.41077
G1 X62.631 Y128.905 E36.44581
G1 X62.345 Y127.848 E36.50044
G1 X62.186 Y127.104 E36.5384
G1 X62.021 Y126.051 E36.59158
G1 X61.948 Y125.357 E36.62639
G1 X61.885 Y124.228 E36.6828
G1 X61.886 Y123.435 E36.72237
G1 X61.953 Y122.274 E36.78039
G1 X62.027 Y121.581 E36.81516
G1 X62.189 Y120.559 E36.86678
G1 X62.344 Y119.834 E36.90377
G1 X62.629 Y118.776 E36.95843
G1 X62.852 Y118.092 E36.99433
G1 X63.233 Y117.098 E37.04744
G1 X63.416 Y116.663 E37.07098
G1 X71.126 Y100 E37.98698
G1 X63.429 Y83.37 E38.90121
G1 X63.249 Y82.945 E38.92424
G1 X62.854 Y81.919 E38.97909
G1 X62.628 Y81.223 E39.01559
G1 X62.343 Y80.164 E39.07031
G1 X62.187 Y79.434 E39.10755
G1 X62.016 Y78.348 E39.1624
G1 X61.94 Y77.617 E39.19906
G1 X61.884 Y76.522 E39.25377
G1 X61.884 Y75.801 E39.28974
G1 X61.941 Y74.704 E39.34454
G1 X62.016 Y73.985 E39.38061
G1 X62.186 Y72.898 E39.4355
G1 X62.345 Y72.152 E39.47355
G1 X62.631 Y71.095 E39.52818
