;FLAVOR:Marlin
;TIME:5913
;Filament used: 3.47178m
;Layer height: 0.1
;Generated with Cura_SteamEngine 3.0.4
M190 S60
M104 S200
M109 S200
M82 ; absolute extrusion mode
G21 ;metric values
G90 ;absolute positioning
M82 ;set extruder to absolute mode
M107 ;start with the fan off
G28 X0 Y0 ;move X/Y to min endstops
G28 Z0 ;move Z to min endstops
G1 Z15.0 F9000 ;move the platform down 15mm
G92 E0 ;zero the extruded length
G1 F200 E3 ;extrude 3mm of feed stock
G92 E0 ;zero the extruded length again
G1 F9000
;Put printing message on LCD screen
M117 Printing...
;LAYER_COUNT:68
;LAYER:0
M107
G0 F3600 X52.117 Y47.88 Z0.3
;TYPE:SKIRT
G1 F1800 X53.001 Y46.995 E0.06241
G1 X53.621 Y46.438 E0.10399
G1 X54.596 Y45.651 E0.1665
G1 X55.238 Y45.184 E0.20611
G1 X56.285 Y44.502 E0.26845
G1 X57.027 Y44.075 E0.31116
G1 X58.176 Y43.495 E0.37537
G1 X58.889 Y43.179 E0.41428
G1 X60.027 Y42.741 E0.47511
G1 X60.814 Y42.485 E0.5164
G1 X62.022 Y42.162 E0.57879
G1 X62.811 Y41.994 E0.61903
G1 X64.049 Y41.797 E0.68157
G1 X64.876 Y41.71 E0.72306
G1 X66.126 Y41.646 E0.78551
G1 X66.93 Y41.647 E0.82562
G1 X68.179 Y41.712 E0.88801
G1 X68.986 Y41.796 E0.92849
G1 X70.226 Y41.991 E0.99112
G1 X71.044 Y42.165 E1.03284
G1 X72.25 Y42.49 E1.09515
G1 X73.013 Y42.738 E1.13518
G1 X74.184 Y43.187 E1.19775
G1 X74.934 Y43.521 E1.23871
G1 X76.048 Y44.089 E1.3011
G1 X76.754 Y44.497 E1.34178
G1 X77.804 Y45.179 E1.40424
G1 X78.458 Y45.654 E1.44457
G1 X79.433 Y46.442 E1.50711
G1 X80.042 Y46.989 E1.54795
G1 X80.927 Y47.873 E1.61036
G1 X81.503 Y48.516 E1.65343
G1 X82.327 Y49.545 E1.71919
G1 X82.901 Y50.364 E1.76909
G1 X100.648 Y79.504 E3.47129
G1 X134.855 Y80.312 E5.17836
G1 X135.909 Y80.409 E5.23116
G1 X137.147 Y80.608 E5.29372
G1 X137.93 Y80.775 E5.33366
G1 X139.104 Y81.09 E5.3943
G1 X139.873 Y81.34 E5.43465
G1 X141.045 Y81.789 E5.49726
G1 X141.803 Y82.127 E5.53867
G1 X142.915 Y82.695 E5.60096
G1 X143.616 Y83.1 E5.64135
G1 X144.666 Y83.782 E5.70382
G1 X145.327 Y84.262 E5.74458
G1 X146.301 Y85.051 E5.80711
G1 X146.9 Y85.59 E5.84731
G1 X147.786 Y86.474 E5.90975
G1 X148.341 Y87.09 E5.95112
G1 X149.129 Y88.064 E6.01363
G1 X149.605 Y88.72 E6.05406
G1 X150.286 Y89.768 E6.11642
G1 X150.694 Y90.473 E6.15705
G1 X151.263 Y91.588 E6.21951
G1 X151.601 Y92.348 E6.261
G1 X152.049 Y93.52 E6.3236
G1 X152.295 Y94.277 E6.36331
G1 X152.62 Y95.484 E6.42567
G1 X152.792 Y96.291 E6.46684
G1 X152.988 Y97.528 E6.52932
G1 X153.073 Y98.338 E6.56996
G1 X153.137 Y99.552 E6.63061
G1 X153.137 Y100.376 E6.67172
G1 X153.067 Y101.697 E6.73771
G1 X152.979 Y102.523 E6.77916
G1 X152.78 Y103.76 E6.84166
G1 X152.611 Y104.548 E6.88187
G1 X152.295 Y105.722 E6.94253
G1 X152.049 Y106.479 E6.98224
G1 X151.602 Y107.649 E7.04473
G1 X151.264 Y108.41 E7.08627
G1 X150.695 Y109.525 E7.14872
G1 X150.288 Y110.229 E7.18929
G1 X149.606 Y111.279 E7.25175
G1 X149.126 Y111.94 E7.29251
G1 X148.337 Y112.914 E7.35505
G1 X147.798 Y113.513 E7.39525
G1 X146.914 Y114.399 E7.45769
G1 X146.291 Y114.959 E7.49948
G1 X145.316 Y115.746 E7.56199
G1 X144.667 Y116.217 E7.602
G1 X143.619 Y116.898 E7.66436
G1 X142.917 Y117.304 E7.70481
G1 X141.803 Y117.873 E7.76722
G1 X141.045 Y118.211 E7.80863
G1 X139.873 Y118.66 E7.87124
G1 X139.105 Y118.909 E7.91152
G1 X137.898 Y119.233 E7.97387
G1 X137.095 Y119.404 E8.01483
G1 X135.856 Y119.6 E8.07741
G1 X134.82 Y119.694 E8.12931
G1 X100.646 Y120.498 E9.83473
G1 X82.902 Y149.636 E11.53677
G1 X82.323 Y150.462 E11.58709
G1 X81.497 Y151.491 E11.65292
G1 X80.926 Y152.127 E11.69556
G1 X80.041 Y153.011 E11.75797
G1 X79.416 Y153.572 E11.79987
G1 X78.412 Y154.379 E11.86413
G1 X77.777 Y154.838 E11.90322
G1 X76.759 Y155.5 E11.96381
G1 X76.05 Y155.91 E12.00467
G1 X74.934 Y156.479 E12.06716
G1 X74.184 Y156.813 E12.10812
G1 X73.013 Y157.262 E12.17069
G1 X72.25 Y157.51 E12.21072
G1 X71.044 Y157.835 E12.27303
G1 X70.233 Y158.008 E12.31441
G1 X68.994 Y158.204 E12.37699
G1 X68.174 Y158.29 E12.41812
G1 X66.924 Y158.354 E12.48057
G1 X66.126 Y158.354 E12.52038
G1 X64.876 Y158.29 E12.58282
G1 X64.056 Y158.204 E12.62396
G1 X62.817 Y158.008 E12.68654
G1 X62.014 Y157.837 E12.7275
G1 X60.807 Y157.513 E12.78985
G1 X60.029 Y157.26 E12.83067
G1 X58.859 Y156.81 E12.89321
G1 X58.124 Y156.483 E12.93334
G1 X57.007 Y155.915 E12.99586
G1 X56.263 Y155.484 E13.03876
G1 X55.19 Y154.78 E13.10278
G1 X54.57 Y154.328 E13.14106
G1 X53.621 Y153.562 E13.20191
G1 X53.001 Y153.004 E13.24352
G1 X52.117 Y152.119 E13.30593
G1 X51.556 Y151.494 E13.34783
G1 X50.749 Y150.49 E13.41209
G1 X50.289 Y149.854 E13.45125
G1 X49.626 Y148.834 E13.51194
G1 X49.218 Y148.128 E13.55263
G1 X48.649 Y147.013 E13.61508
G1 X48.313 Y146.257 E13.65635
G1 X47.865 Y145.087 E13.71886
G1 X47.618 Y144.328 E13.75868
G1 X47.293 Y143.122 E13.82099
G1 X47.12 Y142.312 E13.86231
G1 X46.924 Y141.074 E13.92485
G1 X46.838 Y140.253 E13.96603
G1 X46.774 Y139.003 E14.02848
G1 X46.774 Y138.205 E14.06829
G1 X46.838 Y136.954 E14.13078
G1 X46.924 Y136.134 E14.17192
G1 X47.12 Y134.895 E14.2345
G1 X47.291 Y134.092 E14.27546
G1 X47.615 Y132.885 E14.33781
G1 X47.868 Y132.107 E14.37862
G1 X48.305 Y130.971 E14.43935
G1 X48.74 Y130.032 E14.49098
G1 X65.146 Y100 E16.19827
G1 X48.74 Y69.967 E17.90561
G1 X48.306 Y69.031 E17.95708
G1 X47.869 Y67.896 E18.01776
G1 X47.613 Y67.108 E18.0591
G1 X47.29 Y65.9 E18.12148
G1 X47.122 Y65.111 E18.16173
G1 X46.925 Y63.873 E18.22427
G1 X46.838 Y63.046 E18.26575
G1 X46.774 Y61.797 E18.32815
G1 X46.775 Y60.993 E18.36826
G1 X46.84 Y59.742 E18.43076
G1 X46.924 Y58.934 E18.47129
G1 X47.119 Y57.695 E18.53386
G1 X47.293 Y56.878 E18.57553
G1 X47.618 Y55.672 E18.63785
G1 X47.865 Y54.913 E18.67767
G1 X48.313 Y53.743 E18.74017
G1 X48.649 Y52.987 E18.78145
G1 X49.218 Y51.872 E18.8439
G1 X49.625 Y51.168 E18.88447
G1 X50.307 Y50.118 E18.94694
G1 X50.782 Y49.464 E18.98726
G1 X51.57 Y48.489 E19.04981
G1 X52.117 Y47.88 E19.09064
G0 F3600 X52.4 Y48.162
G1 F1800 X53.284 Y47.277 E19.15305
G1 X53.872 Y46.749 E19.19248
G1 X54.847 Y45.962 E19.25499
G1 X55.456 Y45.519 E19.29256
G1 X56.503 Y44.837 E19.3549
G1 X57.207 Y44.432 E19.39542
G1 X58.356 Y43.852 E19.45963
G1 X59.033 Y43.552 E19.49658
G1 X60.171 Y43.114 E19.55741
G1 X60.918 Y42.871 E19.5966
G1 X62.126 Y42.548 E19.65899
G1 X62.874 Y42.389 E19.69714
G1 X64.112 Y42.192 E19.75968
G1 X64.897 Y42.11 E19.79906
G1 X66.147 Y42.046 E19.8615
G1 X66.91 Y42.046 E19.89957
G1 X68.159 Y42.111 E19.96196
G1 X68.924 Y42.191 E20.00034
G1 X70.164 Y42.386 E20.06296
G1 X70.94 Y42.551 E20.10254
G1 X72.146 Y42.876 E20.16486
G1 X72.869 Y43.112 E20.2028
G1 X74.04 Y43.561 E20.26537
G1 X74.752 Y43.877 E20.30423
G1 X75.866 Y44.445 E20.36662
G1 X76.536 Y44.832 E20.40522
G1 X77.586 Y45.514 E20.46768
G1 X78.206 Y45.965 E20.50593
G1 X79.181 Y46.753 E20.56848
G1 X79.76 Y47.272 E20.60727
G1 X80.645 Y48.156 E20.66968
G1 X81.191 Y48.767 E20.71056
G1 X82.015 Y49.796 E20.77633
G1 X82.559 Y50.572 E20.82361
G1 X100.42 Y79.899 E22.53673
G1 X134.846 Y80.712 E24.25473
G1 X135.845 Y80.804 E24.30478
G1 X137.083 Y81.003 E24.36734
G1 X137.827 Y81.162 E24.40529
G1 X139.001 Y81.477 E24.46594
G1 X139.73 Y81.714 E24.50418
G1 X140.902 Y82.163 E24.56679
G1 X141.621 Y82.483 E24.60606
G1 X142.733 Y83.051 E24.66835
G1 X143.398 Y83.435 E24.70667
G1 X144.448 Y84.117 E24.76913
G1 X145.075 Y84.573 E24.80781
G1 X146.049 Y85.362 E24.87035
G1 X146.618 Y85.874 E24.90853
G1 X147.504 Y86.758 E24.97097
G1 X148.03 Y87.342 E25.01019
G1 X148.818 Y88.316 E25.07269
G1 X149.27 Y88.938 E25.11105
G1 X149.951 Y89.986 E25.17341
G1 X150.337 Y90.654 E25.2119
G1 X150.906 Y91.769 E25.27435
G1 X151.227 Y92.491 E25.31377
G1 X151.675 Y93.663 E25.37637
G1 X151.908 Y94.381 E25.41403
G1 X152.233 Y95.588 E25.47639
G1 X152.397 Y96.354 E25.51547
G1 X152.593 Y97.591 E25.57795
G1 X152.674 Y98.359 E25.61648
G1 X152.738 Y99.573 E25.67713
G1 X152.738 Y100.355 E25.71615
G1 X152.668 Y101.676 E25.78214
G1 X152.584 Y102.459 E25.82143
G1 X152.385 Y103.696 E25.88394
G1 X152.225 Y104.444 E25.9221
G1 X151.909 Y105.618 E25.98276
G1 X151.676 Y106.336 E26.02042
G1 X151.229 Y107.506 E26.08291
G1 X150.907 Y108.229 E26.12239
G1 X150.338 Y109.344 E26.18484
G1 X149.953 Y110.011 E26.22327
G1 X149.271 Y111.061 E26.28573
G1 X148.815 Y111.688 E26.32441
G1 X148.026 Y112.662 E26.38695
G1 X147.514 Y113.231 E26.42513
G1 X146.63 Y114.117 E26.48758
G1 X146.04 Y114.648 E26.52718
G1 X145.065 Y115.435 E26.58969
G1 X144.449 Y115.882 E26.62766
G1 X143.401 Y116.563 E26.69001
G1 X142.735 Y116.948 E26.72839
G1 X141.621 Y117.517 E26.7908
G1 X140.902 Y117.837 E26.83006
G1 X139.73 Y118.286 E26.89268
G1 X139.001 Y118.523 E26.93092
G1 X137.794 Y118.847 E26.99327
G1 X137.032 Y119.009 E27.03214
G1 X135.793 Y119.205 E27.09472
G1 X134.811 Y119.294 E27.14391
G1 X100.418 Y120.103 E28.86026
G1 X82.56 Y149.428 E30.57322
G1 X82.011 Y150.211 E30.62093
G1 X81.185 Y151.24 E30.68676
G1 X80.644 Y151.844 E30.72722
G1 X79.759 Y152.728 E30.78962
G1 X79.165 Y153.26 E30.82941
G1 X78.161 Y154.067 E30.89367
G1 X77.559 Y154.503 E30.93075
G1 X76.541 Y155.165 E30.99134
G1 X75.868 Y155.554 E31.03012
G1 X74.752 Y156.123 E31.09261
G1 X74.04 Y156.439 E31.13148
G1 X72.869 Y156.888 E31.19405
G1 X72.146 Y157.124 E31.23199
G1 X70.94 Y157.449 E31.2943
G1 X70.17 Y157.613 E31.33358
G1 X68.931 Y157.809 E31.39616
G1 X68.153 Y157.89 E31.43519
G1 X66.903 Y157.954 E31.49763
G1 X66.147 Y157.954 E31.53535
G1 X64.897 Y157.89 E31.59779
G1 X64.119 Y157.809 E31.63682
G1 X62.88 Y157.613 E31.6994
G1 X62.118 Y157.451 E31.73827
G1 X60.911 Y157.127 E31.80062
G1 X60.173 Y156.887 E31.83933
G1 X59.003 Y156.437 E31.90187
G1 X58.305 Y156.126 E31.94
G1 X57.188 Y155.558 E32.00252
G1 X56.483 Y155.149 E32.04318
G1 X55.41 Y154.445 E32.1072
G1 X54.821 Y154.016 E32.14356
G1 X53.872 Y153.25 E32.2044
G1 X53.284 Y152.722 E32.24383
G1 X52.4 Y151.837 E32.30624
G1 X51.868 Y151.243 E32.34602
G1 X51.061 Y150.239 E32.41028
G1 X50.625 Y149.636 E32.44741
G1 X49.962 Y148.616 E32.5081
G1 X49.575 Y147.947 E32.54666
G1 X49.006 Y146.832 E32.60911
G1 X48.686 Y146.114 E32.64833
G1 X48.238 Y144.944 E32.71083
G1 X48.004 Y144.224 E32.7486
G1 X47.679 Y143.018 E32.81092
G1 X47.515 Y142.249 E32.85015
G1 X47.319 Y141.011 E32.91268
G1 X47.238 Y140.232 E32.95175
G1 X47.174 Y138.982 E33.0142
G1 X47.174 Y138.226 E33.05192
G1 X47.238 Y136.975 E33.11441
G1 X47.319 Y136.197 E33.15343
G1 X47.515 Y134.958 E33.21602
G1 X47.677 Y134.196 E33.25488
G1 X48.001 Y132.989 E33.31723
G1 X48.241 Y132.25 E33.356
G1 X48.678 Y131.114 E33.41672
G1 X49.091 Y130.223 E33.46572
G1 X65.602 Y100 E35.18388
G1 X49.091 Y69.776 E36.90209
G1 X48.679 Y68.887 E36.95098
G1 X48.242 Y67.752 E37.01166
G1 X47.999 Y67.004 E37.05089
G1 X47.676 Y65.796 E37.11328
G1 X47.517 Y65.048 E37.15143
G1 X47.32 Y63.81 E37.21397
G1 X47.238 Y63.026 E37.2533
G1 X47.174 Y61.777 E37.31569
G1 X47.174 Y61.014 E37.35376
G1 X47.239 Y59.763 E37.41626
G1 X47.319 Y58.997 E37.45468
G1 X47.514 Y57.758 E37.51725
G1 X47.679 Y56.982 E37.55683
G1 X48.004 Y55.776 E37.61915
G1 X48.238 Y55.056 E37.65692
G1 X48.686 Y53.886 E37.71942
G1 X49.006 Y53.168 E37.75864
G1 X49.575 Y52.053 E37.82109
G1 X49.96 Y51.386 E37.85952
G1 X50.642 Y50.336 E37.92198
G1 X51.093 Y49.716 E37.96023
G1 X51.881 Y48.741 E38.02277
G1 X52.4 Y48.162 E38.06157
G0 F3600 X52.683 Y48.445
G1 F1800 X53.567 Y47.56 E38.12397
G1 X54.123 Y47.06 E38.16128
G1 X55.098 Y46.273 E38.22379
G1 X55.674 Y45.855 E38.2593
G1 X56.721 Y45.173 E38.32164
G1 X57.388 Y44.789 E38.36003
G1 X58.537 Y44.209 E38.42425
G1 X59.177 Y43.925 E38.45918
G1 X60.315 Y43.487 E38.52001
G1 X61.021 Y43.258 E38.55704
G1 X62.229 Y42.935 E38.61943
G1 X62.937 Y42.784 E38.65554
G1 X64.175 Y42.587 E38.71809
G1 X64.917 Y42.509 E38.75531
G1 X66.167 Y42.445 E38.81775
G1 X66.889 Y42.445 E38.85377
G1 X68.138 Y42.51 E38.91617
G1 X68.861 Y42.586 E38.95244
G1 X70.101 Y42.781 E39.01506
G1 X70.835 Y42.937 E39.0525
G1 X72.041 Y43.262 E39.11482
G1 X72.726 Y43.485 E39.15076
G1 X73.897 Y43.934 E39.21332
G1 X74.571 Y44.234 E39.25013
G1 X75.685 Y44.802 E39.31252
G1 X76.318 Y45.168 E39.349
G1 X77.368 Y45.85 E39.41146
G1 X77.955 Y46.276 E39.44765
G1 X78.93 Y47.064 E39.51019
G1 X79.477 Y47.555 E39.54686
G1 X80.362 Y48.439 E39.60927
G1 X80.879 Y49.017 E39.64796
G1 X81.703 Y50.046 E39.71372
G1 X82.218 Y50.78 E39.75846
G1 X100.193 Y80.293 E41.48246
G1 X134.836 Y81.112 E43.21129
G1 X135.782 Y81.199 E43.25869
G1 X137.02 Y81.398 E43.32125
G1 X137.723 Y81.548 E43.35711
G1 X138.897 Y81.863 E43.41775
G1 X139.587 Y82.087 E43.45394
G1 X140.759 Y82.536 E43.51656
G1 X141.439 Y82.839 E43.5537
G1 X142.551 Y83.407 E43.616
G1 X143.18 Y83.771 E43.65225
G1 X144.23 Y84.453 E43.71472
G1 X144.823 Y84.884 E43.75129
G1 X145.797 Y85.673 E43.81383
G1 X146.335 Y86.157 E43.84993
G1 X147.221 Y87.041 E43.91237
G1 X147.719 Y87.593 E43.94946
G1 X148.507 Y88.567 E44.01197
G1 X148.935 Y89.156 E44.04829
G1 X149.616 Y90.204 E44.11065
G1 X149.981 Y90.836 E44.14706
G1 X150.55 Y91.951 E44.20951
G1 X150.854 Y92.634 E44.24681
G1 X151.302 Y93.806 E44.30941
G1 X151.522 Y94.485 E44.34502
G1 X151.847 Y95.692 E44.40738
G1 X152.002 Y96.417 E44.44437
G1 X152.198 Y97.654 E44.50685
G1 X152.274 Y98.38 E44.54327
G1 X152.338 Y99.594 E44.60392
G1 X152.338 Y100.333 E44.64079
G1 X152.268 Y101.654 E44.70678
G1 X152.189 Y102.396 E44.74401
G1 X151.99 Y103.633 E44.80652
G1 X151.838 Y104.34 E44.8426
G1 X151.522 Y105.514 E44.90325
G1 X151.302 Y106.193 E44.93886
G1 X150.855 Y107.363 E45.00135
G1 X150.551 Y108.047 E45.03869
G1 X149.982 Y109.162 E45.10115
G1 X149.617 Y109.793 E45.13751
G1 X148.935 Y110.843 E45.19998
G1 X148.504 Y111.436 E45.23655
G1 X147.715 Y112.41 E45.29909
G1 X147.231 Y112.948 E45.33519
G1 X146.347 Y113.834 E45.39763
G1 X145.789 Y114.337 E45.43511
G1 X144.814 Y115.124 E45.49763
G1 X144.231 Y115.547 E45.53356
G1 X143.183 Y116.228 E45.59592
G1 X142.553 Y116.592 E45.63222
G1 X141.439 Y117.161 E45.69462
G1 X140.759 Y117.464 E45.73176
G1 X139.587 Y117.913 E45.79438
G1 X138.898 Y118.137 E45.83052
G1 X137.691 Y118.461 E45.89287
G1 X136.97 Y118.614 E45.92965
G1 X135.731 Y118.81 E45.99223
G1 X134.802 Y118.894 E46.03877
G1 X100.191 Y119.708 E47.76599
G1 X82.219 Y149.22 E49.48988
G1 X81.699 Y149.961 E49.53504
G1 X80.873 Y150.99 E49.60087
G1 X80.361 Y151.561 E49.63913
G1 X79.476 Y152.445 E49.70154
G1 X78.914 Y152.948 E49.73917
G1 X77.91 Y153.755 E49.80343
G1 X77.341 Y154.167 E49.83848
G1 X76.323 Y154.829 E49.89906
G1 X75.687 Y155.197 E49.93572
G1 X74.571 Y155.766 E49.99822
G1 X73.897 Y156.066 E50.03503
G1 X72.726 Y156.515 E50.0976
G1 X72.041 Y156.738 E50.13354
G1 X70.835 Y157.063 E50.19585
G1 X70.108 Y157.218 E50.23294
G1 X68.869 Y157.414 E50.29552
G1 X68.133 Y157.491 E50.33244
G1 X66.883 Y157.555 E50.39488
G1 X66.167 Y157.555 E50.4306
G1 X64.917 Y157.491 E50.49305
G1 X64.181 Y157.414 E50.52997
G1 X62.942 Y157.218 E50.59255
G1 X62.221 Y157.065 E50.62932
G1 X61.014 Y156.741 E50.69167
G1 X60.316 Y156.513 E50.72831
G1 X59.146 Y156.063 E50.79085
G1 X58.486 Y155.77 E50.82687
G1 X57.369 Y155.202 E50.88939
G1 X56.702 Y154.815 E50.92786
G1 X55.629 Y154.111 E50.99189
G1 X55.072 Y153.705 E51.02628
G1 X54.123 Y152.939 E51.08712
G1 X53.567 Y152.439 E51.12443
G1 X52.683 Y151.554 E51.18683
G1 X52.18 Y150.992 E51.22446
G1 X51.373 Y149.988 E51.28873
G1 X50.96 Y149.418 E51.32384
G1 X50.297 Y148.398 E51.38454
G1 X49.931 Y147.765 E51.42102
G1 X49.362 Y146.65 E51.48347
G1 X49.06 Y145.971 E51.52054
G1 X48.612 Y144.801 E51.58305
G1 X48.39 Y144.119 E51.61883
G1 X48.065 Y142.913 E51.68114
G1 X47.91 Y142.187 E51.71818
G1 X47.714 Y140.949 E51.78071
G1 X47.637 Y140.212 E51.81768
G1 X47.573 Y138.962 E51.88013
G1 X47.573 Y138.246 E51.91585
G1 X47.637 Y136.995 E51.97834
G1 X47.714 Y136.259 E52.01526
G1 X47.91 Y135.02 E52.07785
G1 X48.063 Y134.299 E52.11462
G1 X48.387 Y133.092 E52.17697
G1 X48.615 Y132.394 E52.2136
G1 X49.052 Y131.258 E52.27432
G1 X49.442 Y130.415 E52.32066
G1 X66.058 Y100 E54.04975
G1 X49.442 Y69.584 E55.77888
G1 X49.052 Y68.743 E55.82513
G1 X48.615 Y67.608 E55.88581
G1 X48.386 Y66.901 E55.92288
G1 X48.063 Y65.693 E55.98527
G1 X47.912 Y64.985 E56.02138
G1 X47.715 Y63.747 E56.08392
G1 X47.637 Y63.005 E56.12115
G1 X47.573 Y61.756 E56.18354
G1 X47.573 Y61.035 E56.21951
G1 X47.638 Y59.784 E56.28201
G1 X47.714 Y59.059 E56.31838
G1 X47.909 Y57.82 E56.38095
G1 X48.065 Y57.087 E56.41834
