;FLAVOR:RepRap
;TIME:5080
;Filament used: 2.57317m
;Layer height: 0.1
;Generated with Cura_SteamEngine 2.5.0
M190 S59
M104 S200
M109 S200
G21 ;metric values
G90 ;absolute positioning
M82 ;set extruder to absolute mode
M107 ;start with the fan off
G28 X0 Y0 ;move X/Y to min endstops
G28 Z0 ;move Z to min endstops
G1 Z15.0 F9000 ;move the platform down 15mm
G92 E0 ;zero the extruded length
G1 F200 E3 ;extrude 3mm of feed stock
G92 E0 ;zero the extruded length again
G1 F9000
;Put printing message on LCD screen
M117 Printing...
;LAYER_COUNT:98
;LAYER:0
M107
G0 F3600 X61.943 Y70.94 Z0.3
;TYPE:SKIRT
G1 F1800 X62.284 Y70.664 E0.02189
G1 X63.535 Y69.784 E0.09819
G1 X63.924 Y69.549 E0.12087
G1 X64.786 Y69.11 E0.16913
G1 X65.103 Y68.97 E0.18642
G1 X66.047 Y68.612 E0.23679
G1 X66.426 Y68.495 E0.25658
G1 X67.516 Y68.23 E0.31254
G1 X67.898 Y68.161 E0.33191
G1 X68.918 Y68.041 E0.38315
G1 X69.37 Y68.02 E0.40572
G1 X70.967 Y68.059 E0.48542
G1 X71.596 Y68.137 E0.51704
G1 X73.423 Y68.551 E0.6105
G1 X73.998 Y68.74 E0.6407
G1 X77.07 Y70.083 E0.80797
G1 X82.187 Y72.145 E1.0832
G1 X87.375 Y73.902 E1.35647
G1 X92.677 Y75.369 E1.63093
G1 X95.33 Y75.983 E1.76679
G1 X97.966 Y76.514 E1.90094
G1 X103.413 Y77.376 E2.17607
G1 X108.855 Y77.922 E2.44894
G1 X114.354 Y78.162 E2.72355
G1 X118.681 Y78.18 E2.93942
G1 X119.191 Y78.223 E2.96496
G1 X120.84 Y78.496 E3.04835
G1 X121.26 Y78.595 E3.06987
G1 X122.067 Y78.844 E3.11201
G1 X122.387 Y78.962 E3.12902
G1 X123.502 Y79.441 E3.18957
G1 X123.94 Y79.671 E3.21425
G1 X125.425 Y80.603 E3.30172
G1 X125.836 Y80.909 E3.32728
G1 X126.8 Y81.756 E3.3913
G1 X127.156 Y82.124 E3.41685
G1 X128.268 Y83.472 E3.50403
G1 X128.553 Y83.877 E3.52874
G1 X129.175 Y84.927 E3.58962
G1 X129.348 Y85.262 E3.60843
G1 X129.764 Y86.201 E3.65967
G1 X129.907 Y86.592 E3.68044
G1 X130.319 Y87.99 E3.75315
G1 X130.411 Y88.397 E3.77397
G1 X131.478 Y95.166 E4.11585
G1 X132.633 Y100.491 E4.38769
G1 X133.33 Y103.152 E4.52493
G1 X134.943 Y108.39 E4.79836
G1 X136.848 Y113.524 E5.07156
G1 X139.212 Y118.964 E5.36748
G1 X139.308 Y119.213 E5.3808
G1 X139.641 Y120.197 E5.43263
G1 X139.731 Y120.518 E5.44926
G1 X139.925 Y121.377 E5.49319
G1 X139.991 Y121.798 E5.51445
G1 X140.127 Y123.325 E5.59094
G1 X140.123 Y123.942 E5.62172
G1 X139.926 Y125.824 E5.71613
G1 X139.835 Y126.316 E5.74109
G1 X139.597 Y127.208 E5.78715
G1 X139.472 Y127.582 E5.80682
G1 X139.008 Y128.73 E5.8686
G1 X138.832 Y129.097 E5.8889
G1 X138.319 Y130.011 E5.94119
G1 X138.082 Y130.373 E5.96278
G1 X137.196 Y131.547 E6.03616
G1 X136.908 Y131.878 E6.05805
G1 X136.242 Y132.546 E6.10511
G1 X135.985 Y132.778 E6.12238
G1 X135.235 Y133.383 E6.17046
G1 X134.946 Y133.591 E6.18822
G1 X134.05 Y134.162 E6.24123
G1 X133.71 Y134.35 E6.26061
G1 X132.714 Y134.826 E6.31568
G1 X132.214 Y135.016 E6.34237
G1 X130.381 Y135.54 E6.43748
G1 X129.874 Y135.641 E6.46327
G1 X128.912 Y135.754 E6.5116
G1 X128.457 Y135.775 E6.53432
G1 X126.692 Y135.73 E6.62241
G1 X126.563 Y135.724 E6.62885
G1 X121.515 Y135.39 E6.88125
G1 X115.998 Y135.331 E7.15651
G1 X113.32 Y135.416 E7.29018
G1 X107.669 Y135.791 E7.57273
G1 X107.238 Y135.791 E7.59423
G1 X106.055 Y135.71 E7.65339
G1 X105.683 Y135.662 E7.6721
G1 X104.746 Y135.486 E7.71967
G1 X104.554 Y135.444 E7.72947
G1 X98.764 Y133.983 E8.02739
G1 X96.075 Y133.428 E8.16437
G1 X93.448 Y132.964 E8.29746
G1 X87.992 Y132.236 E8.57208
G1 X82.518 Y131.82 E8.84596
G1 X77.06 Y131.714 E9.11832
G1 X69.969 Y131.999 E9.47237
G1 X69.589 Y131.992 E9.49133
G1 X68.254 Y131.887 E9.55814
G1 X67.78 Y131.814 E9.58207
G1 X66.378 Y131.488 E9.65388
G1 X65.804 Y131.295 E9.6841
G1 X64.096 Y130.536 E9.77734
G1 X63.626 Y130.279 E9.80407
G1 X62.732 Y129.686 E9.85759
G1 X62.417 Y129.447 E9.87732
G1 X61.571 Y128.721 E9.93293
G1 X61.201 Y128.347 E9.95918
G1 X56.035 Y122.175 E10.36073
G1 X52.276 Y118.161 E10.63509
G1 X50.332 Y116.253 E10.77099
G1 X48.361 Y114.427 E10.90503
G1 X41.7 Y108.846 E11.33858
G1 X41.345 Y108.498 E11.36338
G1 X40.336 Y107.343 E11.4399
G1 X39.974 Y106.837 E11.47094
G1 X39.04 Y105.218 E11.56419
G1 X38.814 Y104.739 E11.59061
G1 X38.44 Y103.738 E11.64392
G1 X38.304 Y103.263 E11.66857
G1 X37.957 Y101.576 E11.7545
G1 X37.895 Y101.092 E11.77884
G1 X37.848 Y100.161 E11.82535
G1 X37.855 Y99.74 E11.84636
G1 X37.968 Y98.352 E11.91583
G1 X38.043 Y97.876 E11.93987
G1 X38.366 Y96.51 E12.0099
G1 X38.557 Y95.945 E12.03966
G1 X39.315 Y94.242 E12.13266
G1 X39.575 Y93.769 E12.15959
G1 X40.183 Y92.856 E12.21431
G1 X40.417 Y92.546 E12.23369
G1 X41.118 Y91.729 E12.2874
G1 X41.364 Y91.474 E12.30507
G1 X42.038 Y90.845 E12.35107
G1 X42.218 Y90.688 E12.36298
G1 X45.523 Y88.036 E12.57439
G1 X49.64 Y84.399 E12.84846
G1 X53.551 Y80.53 E13.12292
G1 X55.364 Y78.576 E13.25591
G1 X60.995 Y71.857 E13.69328
G1 X61.265 Y71.572 E13.71286
G1 X61.943 Y70.94 E13.7591
G1 F1500 E7.2591
G0 F3600 X63.53 Y72.905
G0 X64.328 Y73.887
G0 X64.353 Y73.994
G0 X64.287 Y73.92
;TYPE:WALL-INNER
G1 F1500 E13.7591
G1 F1800 X64.959 Y73.376 E13.80224
G1 X65.489 Y73.033 E13.83373
G1 X65.678 Y72.91 E13.84498
G1 X65.695 Y72.899 E13.84599
G1 X65.897 Y72.797 E13.85728
G1 X66.462 Y72.509 E13.88892
G1 X67.278 Y72.193 E13.93258
G1 X68.124 Y71.968 E13.97625
G1 X68.975 Y71.833 E14.01924
G1 X69.837 Y71.789 E14.0623
G1 X70.719 Y71.833 E14.10636
G1 X71.581 Y71.971 E14.14991
G1 X72.416 Y72.193 E14.19302
G1 X73.229 Y72.507 E14.2365
G1 X73.79 Y72.792 E14.26789
G1 X73.99 Y72.893 E14.27907
G1 X73.999 Y72.898 E14.27958
G1 X74.015 Y72.908 E14.28053
G1 X74.202 Y73.03 E14.29167
G1 X74.745 Y73.382 E14.32395
G1 X75.401 Y73.916 E14.36615
G1 X76.027 Y74.541 E14.41028
G1 X76.571 Y75.212 E14.45338
G1 X77.048 Y75.948 E14.49714
G1 X77.439 Y76.716 E14.54013
G1 X77.755 Y77.535 E14.58393
G1 X77.978 Y78.375 E14.62729
G1 X78.245 Y80.003 E14.70959
G1 X78.25 Y80.037 E14.71131
G1 X78.252 Y80.054 E14.71216
G1 X79.88 Y89.967 E15.21335
G1 X89.797 Y91.594 E15.71472
G1 X89.811 Y91.596 E15.71543
G1 X89.84 Y91.6 E15.71689
G1 X91.473 Y91.869 E15.79946
G1 X92.316 Y92.093 E15.84297
G1 X93.129 Y92.407 E15.88646
G1 X93.899 Y92.798 E15.92954
G1 X94.645 Y93.282 E15.97391
G1 X95.301 Y93.816 E16.01611
G1 X95.927 Y94.441 E16.06024
G1 X96.471 Y95.112 E16.10333
G1 X96.815 Y95.643 E16.1349
G1 X96.937 Y95.832 E16.14612
G1 X96.948 Y95.848 E16.14709
G1 X97.05 Y96.048 E16.15829
G1 X97.339 Y96.616 E16.19009
G1 X97.655 Y97.435 E16.23388
G1 X97.879 Y98.277 E16.27735
G1 X98.015 Y99.129 E16.3204
G1 X98.059 Y100 E16.36391
G1 X98.015 Y100.871 E16.40742
G1 X97.879 Y101.723 E16.45046
G1 X97.655 Y102.565 E16.49393
G1 X97.341 Y103.381 E16.53755
G1 X97.055 Y103.945 E16.5691
G1 X96.954 Y104.143 E16.58019
G1 X96.949 Y104.152 E16.5807
G1 X96.939 Y104.167 E16.5816
G1 X96.817 Y104.355 E16.59278
G1 X96.468 Y104.892 E16.62473
G1 X95.927 Y105.559 E16.66758
G1 X95.307 Y106.18 E16.71136
G1 X94.635 Y106.724 E16.75449
G1 X93.899 Y107.201 E16.79825
G1 X93.132 Y107.591 E16.84118
G1 X92.316 Y107.907 E16.88484
G1 X91.473 Y108.131 E16.92835
G1 X89.842 Y108.398 E17.01081
G1 X89.811 Y108.403 E17.01237
G1 X89.796 Y108.405 E17.01313
G1 X79.88 Y110.033 E17.51446
G1 X78.253 Y119.944 E18.01554
G1 X78.251 Y119.961 E18.0164
G1 X78.246 Y119.995 E18.01811
G1 X77.978 Y121.625 E18.10052
G1 X77.755 Y122.465 E18.14388
G1 X77.441 Y123.281 E18.1875
G1 X77.049 Y124.052 E18.23066
G1 X76.568 Y124.792 E18.27469
G1 X76.027 Y125.459 E18.31753
G1 X75.407 Y126.08 E18.36131
G1 X74.735 Y126.624 E18.40445
G1 X74.205 Y126.967 E18.43594
G1 X74.016 Y127.09 E18.4472
G1 X73.999 Y127.101 E18.44821
G1 X73.797 Y127.203 E18.4595
G1 X73.232 Y127.491 E18.49113
G1 X72.416 Y127.807 E18.53479
G1 X71.581 Y128.029 E18.5779
G1 X70.719 Y128.167 E18.62145
G1 X69.837 Y128.211 E18.66551
G1 X68.975 Y128.167 E18.70857
G1 X68.124 Y128.032 E18.75156
G1 X67.278 Y127.807 E18.79523
G1 X66.461 Y127.491 E18.83893
G1 X65.897 Y127.204 E18.8705
G1 X65.698 Y127.104 E18.88162
G1 X65.679 Y127.092 E18.88274
G1 X65.492 Y126.97 E18.89388
G1 X64.949 Y126.618 E18.92616
G1 X64.293 Y126.084 E18.96836
G1 X63.667 Y125.459 E19.01249
G1 X63.123 Y124.788 E19.05559
G1 X62.643 Y124.047 E19.09964
G1 X62.255 Y123.284 E19.14234
G1 X61.939 Y122.465 E19.18614
G1 X61.716 Y121.625 E19.2295
G1 X61.449 Y119.997 E19.3118
G1 X61.444 Y119.963 E19.31352
G1 X61.442 Y119.946 E19.31437
G1 X59.814 Y110.033 E19.81556
G1 X49.9 Y108.406 E20.31679
G1 X49.885 Y108.404 E20.31754
G1 X49.854 Y108.399 E20.31911
G1 X48.222 Y108.131 E20.40162
G1 X47.378 Y107.907 E20.44518
G1 X46.561 Y107.591 E20.48889
G1 X45.798 Y107.204 E20.53157
G1 X45.049 Y106.718 E20.57612
G1 X44.393 Y106.184 E20.61832
G1 X43.767 Y105.559 E20.66245
G1 X43.223 Y104.888 E20.70554
G1 X42.878 Y104.356 E20.73718
G1 X42.756 Y104.167 E20.7484
G1 X42.743 Y104.147 E20.74959
G1 X42.641 Y103.947 E20.76079
G1 X42.355 Y103.384 E20.7923
G1 X42.039 Y102.565 E20.83609
G1 X41.815 Y101.723 E20.87956
G1 X41.679 Y100.871 E20.92261
G1 X41.635 Y100 E20.96612
G1 X41.679 Y99.129 E21.00963
G1 X41.815 Y98.277 E21.05267
G1 X42.039 Y97.435 E21.09614
G1 X42.353 Y96.619 E21.13976
G1 X42.639 Y96.055 E21.17131
G1 X42.74 Y95.857 E21.1824
G1 X42.745 Y95.848 E21.18291
G1 X42.755 Y95.833 E21.18381
G1 X42.877 Y95.645 E21.19499
G1 X43.226 Y95.108 E21.22694
G1 X43.767 Y94.441 E21.26979
G1 X44.387 Y93.82 E21.31357
G1 X45.059 Y93.276 E21.3567
G1 X45.795 Y92.799 E21.40046
G1 X46.562 Y92.409 E21.44339
G1 X47.378 Y92.093 E21.48705
G1 X48.222 Y91.869 E21.53061
G1 X49.852 Y91.602 E21.61302
G1 X49.883 Y91.597 E21.61458
G1 X49.898 Y91.595 E21.61534
G1 X59.814 Y89.967 E22.11667
G1 X61.441 Y80.056 E22.61775
G1 X61.443 Y80.039 E22.61861
G1 X61.448 Y80.005 E22.62032
G1 X61.716 Y78.375 E22.70273
G1 X61.939 Y77.535 E22.74609
G1 X62.253 Y76.719 E22.78971
G1 X62.645 Y75.948 E22.83286
G1 X63.126 Y75.208 E22.8769
G1 X63.667 Y74.541 E22.91974
G1 X64.287 Y73.92 E22.96352
G0 F3600 X64.353 Y73.994
G0 X65.787 Y73.068
G0 X65.837 Y73.154
G1 F1800 X65.724 Y73.349 E22.97328
G1 X61.843 Y80.071 E23.36052
G1 X61.826 Y80.101 E23.36221
G1 X61.835 Y80.116 E23.36307
G1 X65.837 Y87.047 E23.76236
G1 X73.857 Y87.047 E24.16248
G1 X77.859 Y80.116 E24.56178
G1 X77.868 Y80.101 E24.56265
G1 X77.851 Y80.071 E24.56434
G1 X73.969 Y73.348 E24.95165
G1 X73.857 Y73.154 E24.96124
G1 X73.632 Y73.154 E24.971
G1 X66.064 Y73.154 E25.34857
G1 X65.837 Y73.154 E25.35826
G0 F3600 X65.787 Y73.068
G0 X61.786 Y80.101
G0 X65.818 Y87.081
G0 X68.619 Y88.315
G0 X68.629 Y88.414
G1 F1800 X67.425 Y88.604 E25.41907
G1 X66.246 Y88.92 E25.47997
G1 X65.109 Y89.357 E25.54074
G1 X64.022 Y89.911 E25.60161
G1 X62.999 Y90.575 E25.66246
G1 X62.051 Y91.342 E25.72329
G1 X61.188 Y92.205 E25.78418
G1 X60.421 Y93.152 E25.84498
G1 X59.757 Y94.175 E25.90583
G1 X59.203 Y95.262 E25.96669
G1 X58.767 Y96.4 E26.02749
G1 X58.451 Y97.578 E26.08834
G1 X58.261 Y98.782 E26.14915
G1 X58.196 Y100 E26.21001
G1 X58.261 Y101.218 E26.27086
G1 X58.451 Y102.422 E26.33167
G1 X58.767 Y103.6 E26.39252
G1 X59.203 Y104.738 E26.45332
G1 X59.757 Y105.825 E26.51419
G1 X60.421 Y106.848 E26.57503
G1 X61.188 Y107.795 E26.63583
G1 X62.051 Y108.658 E26.69672
G1 X62.999 Y109.425 E26.75756
G1 X64.022 Y110.089 E26.8184
G1 X65.109 Y110.643 E26.87927
G1 X66.246 Y111.08 E26.94004
G1 X67.425 Y111.396 E27.00094
G1 X68.629 Y111.586 E27.06175
G1 X69.847 Y111.651 E27.1226
G1 X71.065 Y111.586 E27.18345
G1 X72.269 Y111.396 E27.24427
G1 X73.448 Y111.08 E27.30516
G1 X74.585 Y110.643 E27.36593
G1 X75.672 Y110.089 E27.4268
G1 X76.695 Y109.425 E27.48765
G1 X77.643 Y108.658 E27.54848
G1 X78.506 Y107.795 E27.60937
G1 X79.273 Y106.848 E27.67017
G1 X79.937 Y105.825 E27.73102
G1 X80.491 Y104.738 E27.79189
G1 X80.927 Y103.6 E27.85269
G1 X81.244 Y102.422 E27.91355
G1 X81.434 Y101.218 E27.97436
G1 X81.498 Y100 E28.03521
G1 X81.434 Y98.782 E28.09606
G1 X81.244 Y97.578 E28.15687
G1 X80.927 Y96.4 E28.21773
G1 X80.491 Y95.262 E28.27853
G1 X79.937 Y94.175 E28.3394
G1 X79.273 Y93.152 E28.40024
G1 X78.506 Y92.205 E28.46104
G1 X77.643 Y91.342 E28.52193
G1 X76.695 Y90.575 E28.58277
G1 X75.672 Y89.911 E28.64362
G1 X74.585 Y89.357 E28.70448
G1 X73.448 Y88.92 E28.76525
G1 X72.269 Y88.604 E28.82615
G1 X71.065 Y88.414 E28.88696
G1 X69.847 Y88.349 E28.94781
G1 X68.629 Y88.414 E29.00867
G0 F3600 X68.619 Y88.315
G0 X66.234 Y88.882
G0 X65.093 Y89.321
G0 X64.003 Y89.877
G0 X62.976 Y90.543
G0 X62.025 Y91.313
G0 X56.979 Y95.942
G0 X56.893 Y95.991
G1 F1800 X49.96 Y91.988 E29.40807
G1 X49.947 Y91.98 E29.40882
G1 X49.92 Y91.996 E29.41036
G1 X43.195 Y95.879 E29.79779
G1 X43.001 Y95.991 E29.80743
G1 X43.001 Y96.214 E29.81712
G1 X43.001 Y103.784 E30.19478
G1 X43.001 Y104.009 E30.20454
G1 X43.196 Y104.122 E30.21429
G1 X49.92 Y108.004 E30.60165
G1 X49.947 Y108.02 E30.60319
G1 X49.96 Y108.012 E30.60394
G1 X56.893 Y104.009 E31.00335
G1 X56.893 Y95.991 E31.40337
G0 F3600 X56.979 Y95.942
G0 X58.412 Y102.43
G0 X58.729 Y103.612
G0 X59.167 Y104.754
G0 X59.723 Y105.844
G0 X60.389 Y106.871
G0 X61.159 Y107.821
G0 X65.788 Y112.867
G0 X65.837 Y112.953
G1 F1800 X61.835 Y119.884 E31.80266
G1 X61.826 Y119.899 E31.80353
G1 X61.843 Y119.929 E31.80522
G1 X65.725 Y126.652 E32.19254
G1 X65.837 Y126.846 E32.2021
G1 X66.06 Y126.846 E32.21178
G1 X73.63 Y126.846 E32.58945
G1 X73.857 Y126.846 E32.59914
G1 X73.97 Y126.651 E32.6089
G1 X77.851 Y119.929 E32.99614
G1 X77.868 Y119.899 E32.99783
G1 X77.859 Y119.884 E32.99869
G1 X73.857 Y112.953 E33.39799
G1 X65.837 Y112.953 E33.7981
G0 F3600 X65.788 Y112.867
G0 X72.277 Y111.435
G0 X73.46 Y111.118
G0 X74.601 Y110.679
G0 X75.691 Y110.123
G0 X76.718 Y109.457
G0 X77.669 Y108.687
G0 X82.715 Y104.058
G0 X82.801 Y104.009
G1 F1800 X89.734 Y108.012 E34.19751
G1 X89.747 Y108.02 E34.19826
G1 X89.774 Y108.004 E34.1998
G1 X96.499 Y104.121 E34.58723
G1 X96.693 Y104.009 E34.59687
G1 X96.693 Y103.786 E34.60655
G1 X96.693 Y96.216 E34.98422
G1 X96.693 Y95.991 E34.99398
G1 X96.498 Y95.878 E35.00373
G1 X89.772 Y91.995 E35.3912
G1 X89.747 Y91.98 E35.39263
G1 X89.735 Y91.987 E35.39332
G1 X82.801 Y95.991 E35.79279
G1 X82.801 Y104.009 E36.19281
G0 F3600 X83.201 Y103.778
;TYPE:WALL-OUTER
G1 F1800 X89.747 Y107.558 E36.56993
G1 X96.293 Y103.778 E36.94705
G1 X96.293 Y96.222 E37.32402
G1 X89.747 Y92.442 E37.70114
G1 X83.201 Y96.222 E38.07826
G1 X83.201 Y103.778 E38.45523
G0 F3600 X83.374 Y103.878
G0 X83.123 Y104.31
G0 X81.012 Y103.654
G0 X80.546 Y103.476
G1 F1800 X80.852 Y102.339 E38.51397
G1 X81.036 Y101.176 E38.57272
G1 X81.097 Y100 E38.63147
G1 X81.036 Y98.824 E38.69022
G1 X80.852 Y97.661 E38.74896
G1 X80.546 Y96.524 E38.80771
G1 X80.125 Y95.425 E38.86642
G1 X79.59 Y94.375 E38.92521
G1 X78.949 Y93.387 E38.98397
G1 X78.208 Y92.473 E39.04267
G1 X77.375 Y91.64 E39.10144
G1 X76.46 Y90.899 E39.16019
G1 X75.472 Y90.258 E39.21894
G1 X74.422 Y89.723 E39.27774
G1 X73.324 Y89.301 E39.33642
G1 X72.186 Y88.996 E39.3952
G1 X71.023 Y88.812 E39.45394
G1 X69.847 Y88.75 E39.5127
G1 X68.671 Y88.812 E39.57145
G1 X67.508 Y88.996 E39.63019
G1 X66.37 Y89.301 E39.68897
G1 X65.272 Y89.723 E39.74766
G1 X64.222 Y90.258 E39.80645
G1 X63.234 Y90.899 E39.86521
G1 X62.319 Y91.64 E39.92395
G1 X61.486 Y92.473 E39.98272
G1 X60.745 Y93.387 E40.04142
G1 X60.104 Y94.375 E40.10018
G1 X59.569 Y95.425 E40.15897
G1 X59.148 Y96.524 E40.21769
G1 X58.843 Y97.661 E40.27642
G1 X58.659 Y98.824 E40.33516
G1 X58.597 Y100 E40.39392
G1 X58.659 Y101.176 E40.45267
G1 X58.843 Y102.339 E40.51141
G1 X59.148 Y103.476 E40.57014
G1 X59.569 Y104.575 E40.62886
G1 X60.104 Y105.625 E40.68765
G1 X60.745 Y106.613 E40.74641
G1 X61.486 Y107.527 E40.80511
G1 X62.319 Y108.36 E40.86388
G1 X63.234 Y109.101 E40.92262
G1 X64.222 Y109.742 E40.98138
G1 X65.272 Y110.277 E41.04017
G1 X66.37 Y110.699 E41.09886
G1 X67.508 Y111.004 E41.15764
G1 X68.671 Y111.188 E41.21638
G1 X69.847 Y111.25 E41.27513
G1 X71.023 Y111.188 E41.33389
G1 X72.186 Y111.004 E41.39263
G1 X73.324 Y110.699 E41.45141
G1 X74.422 Y110.277 E41.51009
G1 X75.472 Y109.742 E41.56889
G1 X76.46 Y109.101 E41.62764
G1 X77.375 Y108.36 E41.68639
G1 X78.208 Y107.527 E41.74516
G1 X78.949 Y106.613 E41.80386
G1 X79.59 Y105.625 E41.86262
G1 X80.125 Y104.575 E41.92141
G1 X80.546 Y103.476 E41.98013
G0 F3600 X80.597 Y103.283
G0 X81.08 Y103.414
G0 X79.736 Y110.3
G0 X80.228 Y110.381
G1 F1800 X78.37 Y121.711 E42.55293
G1 X78.138 Y122.583 E42.59795
G1 X77.805 Y123.448 E42.64419
