;FLAVOR:Marlin
;TIME:17365
;Filament used: 11.8342m
;Layer height: 0.1
;Generated with Cura_SteamEngine 3.0.4
M190 S60
M104 S200
M109 S200
M82 ; absolute extrusion mode
G21 ;metric values
G90 ;absolute positioning
M82 ;set extruder to absolute mode
M107 ;start with the fan off
G28 X0 Y0 ;move X/Y to min endstops
G28 Z0 ;move Z to min endstops
G1 Z15.0 F9000 ;move the platform down 15mm
G92 E0 ;zero the extruded length
G1 F200 E3 ;extrude 3mm of feed stock
G92 E0 ;zero the extruded length again
G1 F9000
;Put printing message on LCD screen
M117 Printing...
;LAYER_COUNT:168
;LAYER:0
M107
G0 F3600 X70.075 Y48.019 Z0.3
;TYPE:SKIRT
G1 F1800 X70.241 Y47.79 E0.01411
G1 X72.226 Y45.288 E0.17345
G1 X72.401 Y45.085 E0.18682
G1 X74.189 Y43.183 E0.31706
G1 X74.371 Y43.005 E0.32976
G1 X76.365 Y41.196 E0.46408
G1 X76.547 Y41.043 E0.47594
G1 X78.274 Y39.696 E0.58521
G1 X78.475 Y39.551 E0.59757
G1 X81.042 Y37.851 E0.75118
G1 X81.278 Y37.709 E0.76492
G1 X83.572 Y36.459 E0.89526
G1 X83.785 Y36.353 E0.90713
G1 X86.109 Y35.303 E1.03436
G1 X86.331 Y35.213 E1.04631
G1 X88.487 Y34.427 E1.1608
G1 X88.733 Y34.348 E1.17369
G1 X91.75 Y33.517 E1.32981
G1 X91.986 Y33.461 E1.34191
G1 X93.926 Y33.082 E1.44053
G1 X94.144 Y33.048 E1.45154
G1 X96.756 Y32.722 E1.58286
G1 X97.005 Y32.7 E1.59533
G1 X99.683 Y32.577 E1.72908
G1 X99.963 Y32.577 E1.74305
G1 X103.021 Y32.704 E1.89574
G1 X103.294 Y32.727 E1.90941
G1 X106.024 Y33.076 E2.04672
G1 X106.273 Y33.118 E2.05932
G1 X108.76 Y33.638 E2.18608
G1 X108.984 Y33.693 E2.19759
G1 X111.154 Y34.313 E2.31018
G1 X111.4 Y34.394 E2.3231
G1 X114.326 Y35.493 E2.47904
G1 X114.574 Y35.599 E2.49249
G1 X116.91 Y36.709 E2.62152
G1 X117.131 Y36.824 E2.63395
G1 X119.416 Y38.137 E2.76543
G1 X119.652 Y38.287 E2.77938
G1 X122.218 Y40.076 E2.93544
G1 X122.431 Y40.238 E2.94879
G1 X124.463 Y41.923 E3.08049
G1 X124.653 Y42.094 E3.09324
G1 X126.559 Y43.951 E3.22601
G1 X126.72 Y44.119 E3.23761
G1 X128.158 Y45.74 E3.34572
G1 X128.282 Y45.889 E3.35539
G1 X129.475 Y47.41 E3.45183
G1 X129.622 Y47.614 E3.46438
G1 X131.399 Y50.289 E3.6246
G1 X131.539 Y50.521 E3.63812
G1 X132.795 Y52.81 E3.76838
G1 X132.907 Y53.034 E3.78087
G1 X134.01 Y55.481 E3.91478
G1 X134.1 Y55.7 E3.9266
G1 X134.819 Y57.673 E4.03136
G1 X134.895 Y57.911 E4.04383
G1 X135.724 Y60.889 E4.19805
G1 X135.781 Y61.129 E4.21035
G1 X136.204 Y63.279 E4.31967
G1 X136.239 Y63.501 E4.33089
G1 X136.561 Y66.083 E4.4607
G1 X136.584 Y66.363 E4.47472
G1 X136.714 Y69.938 E4.65319
G1 X136.716 Y70.057 E4.65913
G1 X136.654 Y132.574 E7.77812
G1 X136.637 Y132.902 E7.7945
G1 X136.317 Y135.981 E7.94894
G1 X136.272 Y136.277 E7.96388
G1 X135.613 Y139.574 E8.13162
G1 X135.552 Y139.826 E8.14456
G1 X134.988 Y141.8 E8.24698
G1 X134.909 Y142.039 E8.25954
G1 X133.809 Y144.989 E8.41661
G1 X133.703 Y145.242 E8.4303
G1 X132.6 Y147.569 E8.55878
G1 X132.486 Y147.786 E8.57101
G1 X131.158 Y150.109 E8.7045
G1 X131.004 Y150.353 E8.7189
G1 X129.155 Y153.001 E8.88003
G1 X128.989 Y153.218 E8.89366
G1 X127.342 Y155.193 E9.02195
G1 X127.18 Y155.373 E9.03404
G1 X125.376 Y157.231 E9.16324
G1 X125.209 Y157.391 E9.17478
G1 X123.606 Y158.819 E9.28188
G1 X123.447 Y158.952 E9.29222
G1 X121.758 Y160.271 E9.39914
G1 X121.555 Y160.417 E9.41161
G1 X118.981 Y162.122 E9.56565
G1 X118.751 Y162.261 E9.57905
G1 X116.437 Y163.528 E9.71067
G1 X116.21 Y163.64 E9.7233
G1 X113.779 Y164.731 E9.85624
G1 X113.569 Y164.817 E9.86756
G1 X111.626 Y165.528 E9.97078
G1 X111.386 Y165.605 E9.98336
G1 X108.386 Y166.442 E10.13874
G1 X108.144 Y166.5 E10.15116
G1 X105.994 Y166.923 E10.26048
G1 X105.771 Y166.959 E10.27175
G1 X103.238 Y167.274 E10.39909
G1 X102.99 Y167.295 E10.41151
G1 X100.287 Y167.419 E10.54651
G1 X99.999 Y167.419 E10.56088
G1 X96.851 Y167.28 E10.71808
G1 X96.585 Y167.257 E10.7314
G1 X94.027 Y166.929 E10.86007
G1 X93.778 Y166.887 E10.87267
G1 X91.129 Y166.332 E11.00769
G1 X90.905 Y166.277 E11.0192
G1 X88.892 Y165.701 E11.12366
G1 X88.645 Y165.619 E11.13664
G1 X85.673 Y164.501 E11.29506
G1 X85.43 Y164.398 E11.30823
G1 X83.035 Y163.263 E11.44046
G1 X82.81 Y163.145 E11.45313
G1 X80.568 Y161.856 E11.58215
G1 X80.331 Y161.706 E11.59615
G1 X77.798 Y159.938 E11.75026
G1 X77.586 Y159.776 E11.76357
G1 X75.495 Y158.04 E11.89916
G1 X75.306 Y157.87 E11.91184
G1 X73.436 Y156.048 E12.04209
G1 X73.275 Y155.88 E12.0537
G1 X71.834 Y154.256 E12.16202
G1 X71.71 Y154.107 E12.17169
G1 X70.517 Y152.586 E12.26813
G1 X70.37 Y152.382 E12.28068
G1 X68.593 Y149.707 E12.4409
G1 X68.452 Y149.475 E12.45444
G1 X67.187 Y147.169 E12.58566
G1 X67.075 Y146.944 E12.5982
G1 X65.981 Y144.514 E12.73115
G1 X65.892 Y144.295 E12.74295
G1 X65.173 Y142.321 E12.84776
G1 X65.097 Y142.084 E12.86018
G1 X64.268 Y139.107 E13.01435
G1 X64.211 Y138.867 E13.02666
G1 X63.795 Y136.755 E13.13405
G1 X63.76 Y136.535 E13.14517
G1 X63.433 Y133.929 E13.2762
G1 X63.41 Y133.65 E13.29017
G1 X63.279 Y130.127 E13.46605
G1 X63.277 Y130.005 E13.47214
G1 X63.338 Y67.426 E16.59422
G1 X63.355 Y67.095 E16.61075
G1 X63.685 Y63.947 E16.76867
G1 X63.726 Y63.677 E16.78229
G1 X64.238 Y61.015 E16.91754
G1 X64.289 Y60.791 E16.929
G1 X64.829 Y58.775 E17.03312
G1 X64.893 Y58.564 E17.04412
G1 X65.75 Y56.067 E17.17583
G1 X65.857 Y55.798 E17.19027
G1 X67.162 Y52.885 E17.34952
G1 X67.283 Y52.642 E17.36306
G1 X68.56 Y50.338 E17.49449
G1 X68.686 Y50.129 E17.50666
G1 X70.075 Y48.019 E17.63269
G1 F1500 E11.13269
G0 F3600 X72.167 Y49.437
G0 X73.231 Y50.156
G0 X73.44 Y49.989
G0 X73.36 Y49.931
;TYPE:WALL-INNER
G1 F1500 E17.63269
G1 F1800 X74.638 Y48.291 E17.73642
G1 X75.987 Y46.76 E17.83822
G1 X77.472 Y45.272 E17.9431
G1 X79.017 Y43.914 E18.04573
G1 X80.651 Y42.648 E18.14885
G1 X82.343 Y41.493 E18.25106
G1 X84.134 Y40.431 E18.35494
G1 X85.978 Y39.498 E18.45804
G1 X87.878 Y38.671 E18.56143
G1 X89.828 Y37.972 E18.66477
G1 X91.818 Y37.39 E18.76821
G1 X93.81 Y36.947 E18.87002
G1 X95.882 Y36.617 E18.9747
G1 X97.917 Y36.428 E19.07666
G1 X99.992 Y36.362 E19.18024
G1 X102.076 Y36.428 E19.28426
G1 X104.122 Y36.618 E19.38677
G1 X106.166 Y36.945 E19.49005
G1 X108.166 Y37.39 E19.59227
G1 X110.165 Y37.973 E19.69615
G1 X112.114 Y38.671 E19.79943
G1 X114.004 Y39.493 E19.90226
G1 X115.856 Y40.434 E20.0059
G1 X117.632 Y41.487 E20.10891
G1 X119.343 Y42.649 E20.21209
G1 X120.975 Y43.914 E20.31511
G1 X122.52 Y45.272 E20.41773
G1 X124.005 Y46.76 E20.52261
G1 X125.354 Y48.291 E20.62442
G1 X126.632 Y49.931 E20.72815
G1 X127.795 Y51.649 E20.83165
G1 X128.833 Y53.406 E20.93346
G1 X129.781 Y55.256 E21.03717
G1 X130.613 Y57.179 E21.1417
G1 X131.302 Y59.098 E21.24343
G1 X131.878 Y61.087 E21.34674
G1 X132.331 Y63.106 E21.44997
G1 X132.655 Y65.158 E21.55361
G1 X132.853 Y67.203 E21.65611
G1 X132.916 Y69.281 E21.75983
G1 X132.916 Y130.697 E24.82389
G1 X132.853 Y132.789 E24.92831
G1 X132.655 Y134.834 E25.03081
G1 X132.33 Y136.894 E25.13486
G1 X131.882 Y138.893 E25.23706
G1 X131.303 Y140.894 E25.34099
G1 X130.613 Y142.817 E25.44291
G1 X129.782 Y144.738 E25.54734
G1 X128.842 Y146.574 E25.65024
G1 X127.795 Y148.347 E25.75297
G1 X126.632 Y150.065 E25.85647
G1 X125.354 Y151.705 E25.9602
G1 X124.005 Y153.236 E26.062
G1 X122.524 Y154.72 E26.1666
G1 X120.977 Y156.08 E26.26937
G1 X119.345 Y157.345 E26.37238
G1 X117.632 Y158.509 E26.47571
G1 X115.856 Y159.562 E26.57872
G1 X114.012 Y160.499 E26.68191
G1 X112.108 Y161.324 E26.78543
G1 X110.166 Y162.023 E26.88841
G1 X108.175 Y162.6 E26.99182
G1 X106.171 Y163.049 E27.09428
G1 X104.113 Y163.374 E27.19823
G1 X102.073 Y163.568 E27.30046
G1 X99.992 Y163.634 E27.40434
G1 X97.92 Y163.568 E27.50776
G1 X95.878 Y163.374 E27.6101
G1 X93.813 Y163.049 E27.71439
G1 X91.813 Y162.601 E27.81664
G1 X89.818 Y162.02 E27.92031
G1 X87.887 Y161.325 E28.0227
G1 X85.937 Y160.477 E28.12878
G1 X84.085 Y159.535 E28.23245
G1 X82.312 Y158.481 E28.33535
G1 X80.619 Y157.322 E28.43771
G1 X78.969 Y156.04 E28.54196
G1 X77.425 Y154.677 E28.64471
G1 X75.987 Y153.236 E28.74627
G1 X74.638 Y151.705 E28.84807
G1 X73.36 Y150.065 E28.9518
G1 X72.197 Y148.347 E29.05531
G1 X71.15 Y146.574 E29.15803
G1 X70.21 Y144.738 E29.26094
G1 X69.379 Y142.817 E29.36536
G1 X68.689 Y140.894 E29.46729
G1 X68.11 Y138.893 E29.57122
G1 X67.662 Y136.894 E29.67342
G1 X67.337 Y134.834 E29.77746
G1 X67.139 Y132.789 E29.87997
G1 X67.077 Y130.715 E29.98349
G1 X67.077 Y69.299 E33.04754
G1 X67.139 Y67.203 E33.15216
G1 X67.337 Y65.158 E33.25466
G1 X67.662 Y63.102 E33.35851
G1 X68.11 Y61.1 E33.46086
G1 X68.69 Y59.098 E33.56485
G1 X69.379 Y57.179 E33.66657
G1 X70.211 Y55.256 E33.7711
G1 X71.153 Y53.417 E33.87419
G1 X72.197 Y51.649 E33.97662
G1 X73.36 Y49.931 E34.08013
G0 F3600 X73.44 Y49.989
G0 X97.923 Y36.527
G0 X97.9 Y36.028
;TYPE:WALL-OUTER
G1 F1800 X99.992 Y35.962 E34.18455
G1 X102.093 Y36.028 E34.28942
G1 X104.176 Y36.222 E34.39379
G1 X106.234 Y36.551 E34.49777
G1 X108.272 Y37.004 E34.60193
G1 X110.296 Y37.594 E34.70711
G1 X112.26 Y38.298 E34.8112
G1 X114.175 Y39.131 E34.91538
G1 X116.044 Y40.081 E35.01998
G1 X117.851 Y41.152 E35.12478
G1 X119.573 Y42.322 E35.22864
G1 X121.227 Y43.603 E35.33302
G1 X122.803 Y44.989 E35.43772
G1 X124.288 Y46.477 E35.54261
G1 X125.662 Y48.037 E35.64632
G1 X126.955 Y49.696 E35.75125
G1 X128.131 Y51.432 E35.85587
G1 X129.189 Y53.224 E35.95969
G1 X130.144 Y55.087 E36.06413
G1 X130.98 Y57.02 E36.1692
G1 X131.683 Y58.978 E36.27299
G1 X132.266 Y60.989 E36.37746
G1 X132.724 Y63.031 E36.48186
G1 X133.052 Y65.109 E36.58682
G1 X133.253 Y67.182 E36.69072
G1 X133.316 Y69.281 E36.79549
G1 X133.316 Y130.709 E39.86015
G1 X133.253 Y132.81 E39.96501
G1 X133.052 Y134.883 E40.06892
G1 X132.724 Y136.965 E40.17407
G1 X132.269 Y138.995 E40.27786
G1 X131.684 Y141.014 E40.38273
G1 X130.98 Y142.976 E40.48673
G1 X130.145 Y144.907 E40.59169
G1 X129.195 Y146.761 E40.69562
G1 X128.131 Y148.564 E40.80007
G1 X126.955 Y150.3 E40.90468
G1 X125.662 Y151.959 E41.00962
G1 X124.288 Y153.519 E41.11333
G1 X122.805 Y155.005 E41.21807
G1 X121.229 Y156.391 E41.32278
G1 X119.575 Y157.672 E41.42715
G1 X117.851 Y158.844 E41.53115
G1 X116.044 Y159.915 E41.63595
G1 X114.187 Y160.859 E41.73988
G1 X112.257 Y161.695 E41.84481
G1 X110.291 Y162.403 E41.94906
G1 X108.277 Y162.987 E42.05368
G1 X106.242 Y163.443 E42.15772
G1 X104.164 Y163.771 E42.26268
G1 X102.092 Y163.968 E42.36652
G1 X99.992 Y164.034 E42.47134
G1 X97.901 Y163.968 E42.57571
G1 X95.828 Y163.771 E42.6796
G1 X93.742 Y163.443 E42.78495
G1 X91.707 Y162.987 E42.88899
G1 X89.702 Y162.403 E42.99318
G1 X87.727 Y161.692 E43.0979
G1 X85.768 Y160.84 E43.20448
G1 X83.896 Y159.888 E43.30926
G1 X82.096 Y158.818 E43.41373
G1 X80.376 Y157.641 E43.51771
G1 X78.716 Y156.35 E43.62263
G1 X77.151 Y154.969 E43.72676
G1 X75.704 Y153.519 E43.82896
G1 X74.33 Y151.959 E43.93267
G1 X73.037 Y150.3 E44.03761
G1 X71.861 Y148.564 E44.14222
G1 X70.797 Y146.761 E44.24666
G1 X69.847 Y144.907 E44.3506
G1 X69.012 Y142.976 E44.45555
G1 X68.308 Y141.014 E44.55955
G1 X67.723 Y138.995 E44.66442
G1 X67.268 Y136.965 E44.76821
G1 X66.94 Y134.883 E44.87336
G1 X66.739 Y132.81 E44.97727
G1 X66.677 Y130.715 E45.08184
G1 X66.677 Y69.287 E48.14649
G1 X66.739 Y67.182 E48.25156
G1 X66.94 Y65.109 E48.35546
G1 X67.268 Y63.031 E48.46042
G1 X67.723 Y61.001 E48.56421
G1 X68.309 Y58.978 E48.66929
G1 X69.012 Y57.02 E48.77308
G1 X69.848 Y55.087 E48.87815
G1 X70.797 Y53.235 E48.98197
G1 X71.861 Y51.432 E49.08642
G1 X73.037 Y49.696 E49.19103
G1 X74.33 Y48.037 E49.29596
G1 X75.704 Y46.477 E49.39968
G1 X77.189 Y44.989 E49.50456
G1 X78.765 Y43.603 E49.60926
G1 X80.41 Y42.329 E49.71307
G1 X82.139 Y41.149 E49.8175
G1 X83.946 Y40.078 E49.9223
G1 X85.807 Y39.136 E50.02636
G1 X87.732 Y38.298 E50.13111
G1 X89.697 Y37.594 E50.23524
G1 X91.712 Y37.004 E50.33999
G1 X93.742 Y36.553 E50.44374
G1 X95.828 Y36.221 E50.54912
G1 X97.9 Y36.028 E50.65294
G0 F3600 X98.099 Y36.022
G0 X98.113 Y36.521
G0 X97.934 Y36.828
;TYPE:WALL-INNER
G1 F1800 X99.992 Y36.762 E50.75567
G1 X102.059 Y36.828 E50.85884
G1 X104.081 Y37.016 E50.96015
G1 X106.088 Y37.337 E51.06156
G1 X108.054 Y37.774 E51.16203
G1 X110.053 Y38.357 E51.26592
G1 X111.962 Y39.041 E51.36709
G1 X113.825 Y39.851 E51.46844
G1 X115.662 Y40.784 E51.57123
G1 X117.428 Y41.831 E51.67366
G1 X119.097 Y42.965 E51.77433
G1 X120.729 Y44.23 E51.87734
G1 X122.236 Y45.554 E51.97742
G1 X123.721 Y47.042 E52.0823
G1 X125.038 Y48.537 E52.1817
G1 X126.308 Y50.167 E52.28479
G1 X127.463 Y51.873 E52.38758
G1 X128.483 Y53.599 E52.4876
G1 X129.413 Y55.414 E52.58935
G1 X130.245 Y57.337 E52.69388
G1 X130.918 Y59.21 E52.79317
G1 X131.488 Y61.175 E52.89525
G1 X131.935 Y63.168 E52.99715
G1 X132.259 Y65.22 E53.10079
G1 X132.453 Y67.215 E53.20079
G1 X132.516 Y69.281 E53.30391
G1 X132.516 Y130.685 E56.36737
G1 X132.453 Y132.769 E56.47139
G1 X132.259 Y134.772 E56.57179
G1 X131.934 Y136.832 E56.67583
G1 X131.498 Y138.781 E56.77547
G1 X130.921 Y140.774 E56.87899
G1 X130.245 Y142.659 E56.97889
G1 X129.416 Y144.576 E57.08309
G1 X128.498 Y146.37 E57.18363
G1 X127.463 Y148.123 E57.2852
G1 X126.308 Y149.829 E57.38798
G1 X125.038 Y151.459 E57.49107
G1 X123.721 Y152.954 E57.59047
G1 X122.244 Y154.434 E57.69479
G1 X120.731 Y155.764 E57.79529
G1 X119.099 Y157.029 E57.89831
G1 X117.428 Y158.165 E57.99911
G1 X115.662 Y159.212 E58.10154
G1 X113.852 Y160.131 E58.20281
G1 X111.948 Y160.956 E58.30634
G1 X110.044 Y161.641 E58.40729
G1 X108.073 Y162.214 E58.50969
G1 X106.109 Y162.653 E58.6101
G1 X104.051 Y162.978 E58.71404
G1 X102.053 Y163.168 E58.81417
G1 X99.992 Y163.234 E58.91705
G1 X97.94 Y163.168 E59.01948
G1 X95.94 Y162.978 E59.11971
G1 X93.875 Y162.653 E59.224
G1 X91.915 Y162.215 E59.3242
G1 X89.94 Y161.638 E59.42685
G1 X88.026 Y160.95 E59.52832
G1 X86.113 Y160.118 E59.63239
G1 X84.279 Y159.185 E59.73505
G1 X82.528 Y158.143 E59.83671
G1 X80.861 Y157.004 E59.93743
G1 X79.215 Y155.724 E60.04146
G1 X77.707 Y154.393 E60.14181
G1 X76.271 Y152.954 E60.24323
G1 X74.954 Y151.459 E60.34263
G1 X73.684 Y149.829 E60.44572
G1 X72.529 Y148.123 E60.54851
G1 X71.494 Y146.37 E60.65007
G1 X70.576 Y144.576 E60.75061
G1 X69.747 Y142.659 E60.85481
G1 X69.071 Y140.774 E60.95472
G1 X68.494 Y138.781 E61.05823
G1 X68.058 Y136.832 E61.15787
G1 X67.733 Y134.772 E61.26192
G1 X67.539 Y132.769 E61.36231
G1 X67.477 Y130.715 E61.46484
G1 X67.477 Y69.311 E64.52829
G1 X67.539 Y67.215 E64.63291
G1 X67.733 Y65.22 E64.73291
G1 X68.058 Y63.164 E64.83676
G1 X68.494 Y61.212 E64.93654
G1 X69.074 Y59.21 E65.04053
G1 X69.747 Y57.337 E65.13982
G1 X70.579 Y55.414 E65.24436
G1 X71.497 Y53.621 E65.34485
G1 X72.529 Y51.873 E65.44613
G1 X73.684 Y50.167 E65.54891
G1 X74.954 Y48.537 E65.652
G1 X76.271 Y47.042 E65.7514
G1 X77.756 Y45.554 E65.85628
G1 X79.281 Y44.214 E65.95756
G1 X80.877 Y42.978 E66.05827
G1 X82.563 Y41.828 E66.16009
G1 X84.338 Y40.775 E66.26306
G1 X86.138 Y39.864 E66.3637
G1 X88.025 Y39.043 E66.46637
G1 X89.945 Y38.355 E66.56813
G1 X91.928 Y37.774 E66.67122
G1 X93.872 Y37.343 E66.77056
G1 X95.944 Y37.013 E66.87523
G1 X97.934 Y36.828 E66.97494
G0 F3600 X124.009 Y47.642
;TYPE:SKIN
G1 F1800 X121.618 Y45.251 E67.14364
G1 X121.548 Y45.181
G0 F3600 X118.747 Y42.945
G1 F1800 X126.343 Y50.541 E67.67958
G1 X126.413 Y50.611
G0 F3600 X127.463 Y52.226
G1 F1800 X117.055 Y41.819 E68.41389
G1 X116.985 Y41.749
G0 F3600 X115.664 Y40.994
G1 F1800 X128.281 Y53.611 E69.30408
G1 X128.351 Y53.681
G0 F3600 X128.887 Y54.783
G1 F1800 X114.501 Y40.396 E70.31913
G1 X114.431 Y40.326
G0 F3600 X113.403 Y39.864
G1 F1800 X129.417 Y55.878 E71.449
G1 X129.487 Y55.948
G0 F3600 X129.848 Y56.875
G1 F1800 X112.402 Y39.428 E72.67995
G1 X112.332 Y39.358
G0 F3600 X111.459 Y39.052
G1 F1800 X130.227 Y57.819 E74.0041
G1 X130.297 Y57.889
G0 F3600 X130.543 Y58.701
G1 F1800 X110.578 Y38.736 E75.41273
G1 X110.508 Y38.666
G0 F3600 X109.725 Y38.448
G1 F1800 X130.829 Y59.553 E76.90177
G1 X130.899 Y59.623
G0 F3600 X131.06 Y60.35
G1 F1800 X108.926 Y38.216 E78.46344
G1 X108.856 Y38.146
G0 F3600 X108.128 Y37.983
G1 F1800 X131.292 Y61.147 E80.09779
G1 X131.362 Y61.217
G0 F3600 X131.461 Y61.881
G1 F1800 X107.389 Y37.81 E81.79616
G1 X107.319 Y37.74
G0 F3600 X106.662 Y37.648
G1 F1800 X131.625 Y62.611 E83.55744
G1 X131.695 Y62.681
G0 F3600 X131.777 Y63.329
G1 F1800 X105.943 Y37.495 E85.38017
G1 X105.873 Y37.425
G0 F3600 X105.269 Y37.387
G1 F1800 X131.883 Y64.001 E87.25793
