;FLAVOR:RepRap
;TIME:3583
;Filament used: 1.14434m
;Layer height: 0.1
;Generated with Cura_SteamEngine 2.5.0
M190 S50
M104 S210
M109 S210
G21 ;metric values
G90 ;absolute positioning
M82 ;set extruder to absolute mode
M107 ;start with the fan off
G28 X0 Y0 ;move X/Y to min endstops
G28 Z0 ;move Z to min endstops
G1 Z15.0 F9000 ;move the platform down 15mm
G92 E0 ;zero the extruded length
G1 F200 E3 ;extrude 3mm of feed stock
G92 E0 ;zero the extruded length again
G1 F9000
;Put printing message on LCD screen
M117 Printing...
;LAYER_COUNT:400
;LAYER:0
M107
G0 F3600 X81.208 Y74.026 Z0.3
;TYPE:SKIRT
G1 F1800 X81.744 Y73.446 E0.0394
G1 X82.336 Y72.923 E0.07881
G1 X82.978 Y72.462 E0.11824
G1 X83.662 Y72.069 E0.1576
G1 X84.384 Y71.747 E0.19704
G1 X85.134 Y71.5 E0.23643
G1 X85.905 Y71.33 E0.27582
G1 X86.689 Y71.239 E0.3152
G1 X87.368 Y71.224 E0.34908
G1 X87.873 Y71.235 E0.37428
G1 X88.66 Y71.292 E0.41365
G1 X89.438 Y71.428 E0.45305
G1 X90.198 Y71.643 E0.49246
G1 X90.933 Y71.933 E0.53188
G1 X91.634 Y72.296 E0.57126
G1 X92.295 Y72.728 E0.61066
G1 X92.909 Y73.225 E0.65007
G1 X93.404 Y73.71 E0.68464
G1 X95.368 Y75.813 E0.8282
G1 X99.991 Y80.314 E1.1501
G1 X106.774 Y73.521 E1.62903
G1 X107.36 Y72.991 E1.66845
G1 X107.996 Y72.523 E1.70785
G1 X108.676 Y72.122 E1.74723
G1 X109.394 Y71.791 E1.78668
G1 X110.141 Y71.535 E1.82607
G1 X110.91 Y71.356 E1.86546
G1 X111.693 Y71.255 E1.90485
G1 X112.14 Y71.234 E1.92718
G1 X112.648 Y71.224 E1.95253
G1 X113.438 Y71.248 E1.99196
G1 X114.221 Y71.352 E2.03136
G1 X114.989 Y71.535 E2.07075
G1 X115.735 Y71.794 E2.11015
G1 X116.45 Y72.128 E2.14952
G1 X117.129 Y72.532 E2.18894
G1 X117.763 Y73.003 E2.22834
G1 X118.346 Y73.535 E2.26772
G1 X118.872 Y74.124 E2.30712
G1 X119.337 Y74.763 E2.34654
G1 X119.674 Y75.333 E2.37958
G1 X119.798 Y75.564 E2.39266
G1 X120.136 Y76.278 E2.43207
G1 X120.4 Y77.022 E2.47146
G1 X120.587 Y77.789 E2.51084
G1 X120.696 Y78.571 E2.55024
G1 X120.725 Y79.36 E2.58963
G1 X120.674 Y80.148 E2.62902
G1 X120.544 Y80.927 E2.66842
G1 X120.336 Y81.689 E2.70783
G1 X120.052 Y82.426 E2.74723
G1 X119.694 Y83.13 E2.78664
G1 X119.268 Y83.794 E2.826
G1 X118.776 Y84.412 E2.86541
G1 X118.203 Y84.997 E2.90626
G1 X110.166 Y92.381 E3.45077
G1 X109.558 Y92.885 E3.49017
G1 X108.903 Y93.325 E3.52953
G1 X108.206 Y93.697 E3.56895
G1 X107.475 Y93.996 E3.60835
G1 X106.718 Y94.22 E3.64774
G1 X105.942 Y94.366 E3.68713
G1 X105.155 Y94.432 E3.72653
G1 X104.365 Y94.419 E3.76595
G1 X103.581 Y94.327 E3.80533
G1 X102.81 Y94.155 E3.84474
G1 X102.061 Y93.906 E3.88412
G1 X101.34 Y93.583 E3.92354
G1 X100.656 Y93.189 E3.96292
G1 X100.015 Y92.727 E4.00234
G1 X100 Y92.714 E4.00333
G1 X99.378 Y93.167 E4.04172
G1 X98.696 Y93.565 E4.08111
G1 X97.977 Y93.891 E4.1205
G1 X97.229 Y94.144 E4.15989
G1 X96.459 Y94.32 E4.1993
G1 X95.675 Y94.417 E4.23871
G1 X94.885 Y94.434 E4.27814
G1 X94.098 Y94.371 E4.31752
G1 X93.321 Y94.229 E4.35693
G1 X92.563 Y94.009 E4.39631
G1 X91.831 Y93.714 E4.43568
G1 X91.132 Y93.346 E4.47509
G1 X90.474 Y92.909 E4.5145
G1 X89.834 Y92.381 E4.55589
G1 X81.797 Y84.997 E5.1004
G1 X81.243 Y84.434 E5.13981
G1 X80.749 Y83.818 E5.1792
G1 X80.32 Y83.155 E5.2186
G1 X79.96 Y82.452 E5.258
G1 X79.673 Y81.716 E5.29741
G1 X79.462 Y80.955 E5.33681
G1 X79.329 Y80.177 E5.37619
G1 X79.275 Y79.389 E5.4156
G1 X79.301 Y78.6 E5.45498
G1 X79.407 Y77.817 E5.4944
G1 X79.592 Y77.049 E5.53381
G1 X79.853 Y76.304 E5.5732
G1 X80.202 Y75.564 E5.61401
G1 X80.326 Y75.333 E5.62709
G1 X80.734 Y74.657 E5.66649
G1 X81.208 Y74.026 E5.70586
G0 F3600 X81.541 Y74.251
G1 F1800 X82.067 Y73.69 E5.74423
G1 X82.648 Y73.186 E5.7826
G1 X83.278 Y72.745 E5.82097
G1 X83.951 Y72.372 E5.85935
G1 X84.659 Y72.071 E5.89774
G1 X85.394 Y71.845 E5.9361
G1 X86.149 Y71.697 E5.97448
G1 X86.915 Y71.627 E6.01286
G1 X87.359 Y71.624 E6.03501
G1 X87.864 Y71.635 E6.06021
G1 X88.631 Y71.691 E6.09858
G1 X89.388 Y71.827 E6.13695
G1 X90.127 Y72.041 E6.17533
G1 X90.84 Y72.331 E6.21374
G1 X91.518 Y72.692 E6.25206
G1 X92.156 Y73.123 E6.29047
G1 X92.745 Y73.617 E6.32882
G1 X93.112 Y73.983 E6.35468
G1 X95.079 Y76.09 E6.49849
G1 X99.996 Y80.876 E6.84082
G1 X107.058 Y73.803 E7.33947
G1 X107.629 Y73.288 E7.37783
G1 X108.25 Y72.835 E7.41618
G1 X108.915 Y72.448 E7.45457
G1 X109.617 Y72.133 E7.49295
G1 X110.347 Y71.893 E7.53129
G1 X111.099 Y71.729 E7.56969
G1 X112.148 Y71.633 E7.62224
G1 X112.656 Y71.623 E7.64759
G1 X113.425 Y71.648 E7.68598
G1 X114.187 Y71.753 E7.72435
G1 X114.934 Y71.936 E7.76272
G1 X115.658 Y72.195 E7.80109
G1 X116.351 Y72.529 E7.83947
G1 X117.006 Y72.932 E7.87783
G1 X117.616 Y73.402 E7.91625
G1 X118.173 Y73.932 E7.95461
G1 X118.672 Y74.517 E7.99297
G1 X119.108 Y75.15 E8.03132
G1 X119.322 Y75.522 E8.05273
G1 X119.446 Y75.753 E8.06581
G1 X119.774 Y76.449 E8.1042
G1 X120.028 Y77.175 E8.14257
G1 X120.206 Y77.923 E8.18093
G1 X120.304 Y78.686 E8.21931
G1 X120.323 Y79.455 E8.25769
G1 X120.262 Y80.222 E8.29607
G1 X120.122 Y80.978 E8.33443
G1 X119.904 Y81.716 E8.37282
G1 X119.611 Y82.427 E8.41119
G1 X119.245 Y83.103 E8.44954
G1 X118.812 Y83.738 E8.48788
G1 X118.314 Y84.325 E8.52629
G1 X117.933 Y84.702 E8.55303
G1 X109.896 Y92.086 E9.09754
G1 X109.303 Y92.577 E9.13595
G1 X108.662 Y93.003 E9.17434
G1 X107.981 Y93.36 E9.2127
G1 X107.267 Y93.645 E9.25106
G1 X106.527 Y93.854 E9.28942
G1 X105.769 Y93.985 E9.3278
G1 X105.001 Y94.036 E9.3662
G1 X104.233 Y94.008 E9.40454
G1 X103.471 Y93.9 E9.44294
G1 X102.725 Y93.713 E9.48131
G1 X102.002 Y93.451 E9.51967
G1 X101.31 Y93.114 E9.55807
G1 X100.657 Y92.708 E9.59643
G1 X100.05 Y92.236 E9.63479
G1 X99.995 Y92.184 E9.63857
G1 X99.623 Y92.502 E9.66299
G1 X98.99 Y92.939 E9.70136
G1 X98.315 Y93.307 E9.73972
G1 X97.605 Y93.604 E9.77811
G1 X96.869 Y93.825 E9.81645
G1 X96.113 Y93.969 E9.85485
G1 X95.346 Y94.033 E9.89325
G1 X94.577 Y94.018 E9.93162
G1 X93.814 Y93.922 E9.96999
G1 X93.065 Y93.749 E10.00834
G1 X92.338 Y93.498 E10.04671
G1 X91.641 Y93.173 E10.08508
G1 X90.981 Y92.777 E10.12348
G1 X90.104 Y92.086 E10.17918
G1 X82.067 Y84.702 E10.72368
G1 X81.529 Y84.153 E10.76203
G1 X81.05 Y83.551 E10.80041
G1 X80.637 Y82.903 E10.83875
G1 X80.293 Y82.215 E10.87713
G1 X80.022 Y81.495 E10.91551
G1 X79.827 Y80.751 E10.95388
G1 X79.711 Y79.99 E10.99229
G1 X79.674 Y79.222 E11.03065
G1 X79.717 Y78.454 E11.06902
G1 X79.84 Y77.695 E11.10738
G1 X80.041 Y76.952 E11.14578
G1 X80.318 Y76.235 E11.18413
G1 X80.554 Y75.753 E11.21091
G1 X80.678 Y75.522 E11.22399
G1 X81.076 Y74.864 E11.26235
G1 X81.541 Y74.251 E11.30074
G0 F3600 X81.873 Y74.478
G1 F1800 X82.389 Y73.936 E11.33807
G1 X82.959 Y73.451 E11.37541
G1 X83.578 Y73.031 E11.41273
G1 X84.238 Y72.679 E11.45005
G1 X84.932 Y72.399 E11.48738
G1 X85.651 Y72.195 E11.52467
G1 X86.389 Y72.069 E11.56202
G1 X87.35 Y72.024 E11.61002
G1 X87.855 Y72.035 E11.63522
G1 X88.601 Y72.091 E11.67254
G1 X89.337 Y72.226 E11.70988
G1 X90.054 Y72.44 E11.74721
G1 X90.744 Y72.728 E11.78451
G1 X91.4 Y73.089 E11.82186
G1 X92.013 Y73.517 E11.85916
G1 X92.82 Y74.256 E11.91376
G1 X94.801 Y76.378 E12.05859
G1 X99.99 Y81.429 E12.41986
G1 X99.999 Y81.439 E12.42053
G1 X107.341 Y74.086 E12.93894
G1 X107.897 Y73.586 E12.97625
G1 X108.503 Y73.147 E13.01358
G1 X109.153 Y72.776 E13.05092
G1 X109.838 Y72.477 E13.08821
G1 X110.552 Y72.252 E13.12555
G1 X111.285 Y72.105 E13.16285
G1 X112.156 Y72.033 E13.20645
G1 X112.664 Y72.023 E13.2318
G1 X113.412 Y72.049 E13.26914
G1 X114.153 Y72.154 E13.30648
G1 X114.878 Y72.337 E13.34379
G1 X115.579 Y72.597 E13.38109
G1 X116.249 Y72.93 E13.41842
G1 X116.88 Y73.332 E13.45574
G1 X117.464 Y73.8 E13.49308
G1 X117.994 Y74.327 E13.53037
G1 X118.466 Y74.908 E13.56771
G1 X118.97 Y75.711 E13.61501
G1 X119.094 Y75.942 E13.62809
G1 X119.412 Y76.619 E13.66541
G1 X119.656 Y77.326 E13.70272
G1 X119.823 Y78.056 E13.74008
G1 X119.911 Y78.798 E13.77736
G1 X119.92 Y79.546 E13.81468
G1 X119.849 Y80.291 E13.85202
G1 X119.698 Y81.024 E13.88936
G1 X119.471 Y81.737 E13.92669
G1 X119.168 Y82.421 E13.96401
G1 X118.795 Y83.069 E14.00131
G1 X118.354 Y83.673 E14.03862
G1 X117.662 Y84.408 E14.08899
G1 X109.625 Y91.792 E14.63349
G1 X109.048 Y92.268 E14.67081
G1 X108.423 Y92.679 E14.70813
G1 X107.758 Y93.022 E14.74546
G1 X107.06 Y93.292 E14.7828
G1 X106.338 Y93.485 E14.82008
G1 X105.599 Y93.601 E14.8574
G1 X104.852 Y93.637 E14.89471
G1 X104.105 Y93.593 E14.93205
G1 X103.367 Y93.47 E14.96937
G1 X102.647 Y93.268 E15.00668
G1 X101.952 Y92.991 E15.04401
G1 X101.29 Y92.641 E15.08137
G1 X100.67 Y92.223 E15.11867
G1 X100.098 Y91.741 E15.15599
G1 X99.998 Y91.636 E15.16322
G1 X99.812 Y91.824 E15.17642
G1 X99.231 Y92.296 E15.21376
G1 X98.604 Y92.703 E15.25106
G1 X97.937 Y93.041 E15.28836
G1 X97.237 Y93.306 E15.32571
G1 X96.513 Y93.495 E15.36304
G1 X95.774 Y93.606 E15.40032
G1 X95.026 Y93.636 E15.43767
G1 X94.28 Y93.587 E15.47497
G1 X93.543 Y93.459 E15.51229
G1 X92.824 Y93.253 E15.5496
G1 X92.131 Y92.971 E15.58693
G1 X91.472 Y92.617 E15.62425
G1 X90.854 Y92.194 E15.66161
G1 X90.375 Y91.792 E15.69281
G1 X82.338 Y84.408 E16.23731
G1 X81.815 Y83.873 E16.27464
G1 X81.352 Y83.285 E16.31198
G1 X80.954 Y82.652 E16.34928
G1 X80.627 Y81.979 E16.38661
G1 X80.373 Y81.276 E16.4239
G1 X80.195 Y80.549 E16.46124
G1 X80.096 Y79.807 E16.49859
G1 X80.077 Y79.06 E16.53587
G1 X80.137 Y78.314 E16.57321
G1 X80.277 Y77.579 E16.61054
G1 X80.494 Y76.863 E16.64786
G1 X80.906 Y75.942 E16.6982
G1 X81.03 Y75.711 E16.71128
G1 X81.419 Y75.072 E16.7486
G1 X81.873 Y74.478 E16.7859
G0 F3600 X82.205 Y74.706
G1 F1800 X82.71 Y74.183 E16.82217
G1 X83.269 Y73.719 E16.85842
G1 X83.875 Y73.319 E16.89464
G1 X84.522 Y72.989 E16.93088
G1 X85.201 Y72.731 E16.96712
G1 X85.904 Y72.55 E17.00333
G1 X86.624 Y72.447 E17.03962
G1 X87.342 Y72.424 E17.07546
G1 X87.847 Y72.435 E17.10066
G1 X88.571 Y72.49 E17.13689
G1 X89.285 Y72.625 E17.17314
G1 X89.979 Y72.838 E17.20936
G1 X90.646 Y73.126 E17.2456
G1 X91.278 Y73.485 E17.28186
G1 X91.866 Y73.911 E17.31809
G1 X92.527 Y74.529 E17.36324
G1 X94.512 Y76.655 E17.50835
G1 X99.711 Y81.716 E17.87033
G1 X99.999 Y82.029 E17.89155
G1 X100.224 Y81.78 E17.90829
G1 X107.624 Y74.369 E18.43079
G1 X108.164 Y73.884 E18.467
G1 X108.755 Y73.461 E18.50326
G1 X109.389 Y73.106 E18.53951
G1 X110.058 Y72.822 E18.57577
G1 X110.753 Y72.614 E18.61197
G1 X111.468 Y72.484 E18.64822
G1 X112.164 Y72.433 E18.68304
G1 X112.672 Y72.423 E18.70839
G1 X113.398 Y72.449 E18.74463
G1 X114.117 Y72.554 E18.78088
G1 X114.819 Y72.738 E18.81709
G1 X115.498 Y72.998 E18.85336
G1 X116.143 Y73.33 E18.88956
G1 X116.749 Y73.732 E18.92584
G1 X117.306 Y74.198 E18.96207
G1 X117.809 Y74.722 E18.99831
G1 X118.251 Y75.298 E19.03453
G1 X118.617 Y75.9 E19.06968
G1 X118.741 Y76.131 E19.08276
G1 X119.049 Y76.789 E19.119
G1 X119.283 Y77.477 E19.15526
G1 X119.439 Y78.186 E19.19148
G1 X119.517 Y78.909 E19.22776
G1 X119.515 Y79.635 E19.26398
G1 X119.433 Y80.357 E19.30023
G1 X119.272 Y81.065 E19.33645
G1 X119.035 Y81.751 E19.37266
G1 X118.723 Y82.408 E19.40895
G1 X118.342 Y83.026 E19.44517
G1 X117.894 Y83.598 E19.48142
G1 X117.391 Y84.113 E19.51733
G1 X109.354 Y91.497 E20.06184
G1 X108.793 Y91.958 E20.09806
G1 X108.185 Y92.355 E20.13429
G1 X107.536 Y92.683 E20.17057
G1 X106.856 Y92.937 E20.20678
G1 X106.152 Y93.115 E20.24301
G1 X105.432 Y93.215 E20.27928
G1 X104.706 Y93.234 E20.31551
G1 X103.982 Y93.174 E20.35176
G1 X103.269 Y93.035 E20.388
G1 X102.576 Y92.819 E20.42421
G1 X101.911 Y92.527 E20.46045
G1 X101.282 Y92.164 E20.49668
G1 X100.696 Y91.734 E20.53294
G1 X100.162 Y91.243 E20.56913
G1 X100.003 Y91.061 E20.58119
G1 X99.94 Y91.136 E20.58608
G1 X99.417 Y91.639 E20.62228
G1 X98.841 Y92.082 E20.65853
G1 X98.22 Y92.459 E20.69477
G1 X97.562 Y92.765 E20.73098
G1 X96.873 Y92.997 E20.76725
G1 X96.164 Y93.152 E20.80346
G1 X95.441 Y93.229 E20.83973
G1 X94.715 Y93.225 E20.87595
G1 X93.993 Y93.142 E20.91221
G1 X93.285 Y92.98 E20.94844
G1 X92.6 Y92.741 E20.98464
G1 X91.944 Y92.428 E21.0209
G1 X91.327 Y92.044 E21.05716
G1 X90.646 Y91.497 E21.10074
G1 X82.609 Y84.113 E21.64524
G1 X82.102 Y83.593 E21.68148
G1 X81.655 Y83.02 E21.71773
G1 X81.274 Y82.402 E21.75395
G1 X80.963 Y81.746 E21.79017
G1 X80.726 Y81.059 E21.82643
G1 X80.566 Y80.35 E21.86269
G1 X80.485 Y79.629 E21.89889
G1 X80.483 Y78.902 E21.93516
G1 X80.562 Y78.18 E21.97139
G1 X80.719 Y77.471 E22.00762
G1 X80.953 Y76.784 E22.04383
G1 X81.259 Y76.131 E22.07981
G1 X81.383 Y75.9 E22.09289
G1 X81.761 Y75.28 E22.12912
G1 X82.205 Y74.706 E22.16532
G0 F3600 X82.536 Y74.934
G1 F1800 X83.03 Y74.432 E22.20046
G1 X83.577 Y73.989 E22.23558
G1 X84.171 Y73.611 E22.2707
G1 X84.804 Y73.303 E22.30582
G1 X85.467 Y73.068 E22.34092
G1 X86.153 Y72.911 E22.37603
G1 X86.853 Y72.832 E22.41117
G1 X87.333 Y72.823 E22.43512
G1 X87.838 Y72.834 E22.46032
G1 X88.54 Y72.89 E22.49546
G1 X89.231 Y73.024 E22.53057
G1 X89.902 Y73.236 E22.56568
G1 X90.545 Y73.523 E22.60081
G1 X91.151 Y73.881 E22.63593
G1 X91.713 Y74.305 E22.67105
G1 X92.235 Y74.802 E22.70701
G1 X94.223 Y76.932 E22.85237
G1 X99.432 Y82.002 E23.21502
G1 X99.907 Y82.521 E23.25012
G1 X100.001 Y82.651 E23.25812
G1 X100.182 Y82.414 E23.273
G1 X100.507 Y82.062 E23.2969
G1 X107.907 Y74.651 E23.8194
G1 X108.432 Y74.182 E23.85452
G1 X109.006 Y73.775 E23.88963
G1 X109.623 Y73.437 E23.92473
G1 X110.275 Y73.17 E23.95988
G1 X110.952 Y72.979 E23.99497
G1 X111.647 Y72.866 E24.0301
G1 X112.172 Y72.833 E24.05634
G1 X112.68 Y72.823 E24.08169
G1 X113.383 Y72.849 E24.11679
G1 X114.079 Y72.955 E24.15191
G1 X114.759 Y73.139 E24.18706
G1 X115.413 Y73.399 E24.22217
G1 X116.034 Y73.731 E24.2573
G1 X116.613 Y74.132 E24.29244
G1 X117.143 Y74.595 E24.32755
G1 X117.617 Y75.116 E24.36269
G1 X118.028 Y75.687 E24.39779
G1 X118.265 Y76.09 E24.42112
G1 X118.389 Y76.321 E24.4342
G1 X118.686 Y76.959 E24.46931
G1 X118.909 Y77.627 E24.50444
G1 X119.055 Y78.315 E24.53953
G1 X119.121 Y79.016 E24.57466
G1 X119.108 Y79.72 E24.60979
G1 X119.016 Y80.418 E24.64491
G1 X118.844 Y81.101 E24.68005
G1 X118.597 Y81.76 E24.71516
G1 X118.276 Y82.386 E24.75026
G1 X117.886 Y82.973 E24.78542
G1 X117.433 Y83.511 E24.82051
G1 X117.121 Y83.819 E24.84238
G1 X109.084 Y91.203 E25.38688
G1 X108.539 Y91.649 E25.42202
G1 X107.947 Y92.03 E25.45714
G1 X107.316 Y92.342 E25.49226
G1 X106.654 Y92.581 E25.52737
G1 X105.969 Y92.742 E25.56248
G1 X105.27 Y92.825 E25.5976
G1 X104.566 Y92.829 E25.63272
G1 X103.866 Y92.752 E25.66786
G1 X103.179 Y92.597 E25.70299
G1 X102.515 Y92.364 E25.7381
G1 X101.881 Y92.058 E25.77322
G1 X101.286 Y91.682 E25.80834
G1 X100.737 Y91.241 E25.84347
G1 X100.242 Y90.741 E25.87857
G1 X100.006 Y90.442 E25.89757
G1 X99.543 Y90.973 E25.93272
G1 X99.023 Y91.447 E25.96783
G1 X98.452 Y91.86 E26.00298
G1 X97.839 Y92.205 E26.03808
G1 X97.19 Y92.478 E26.0732
G1 X96.514 Y92.676 E26.10835
G1 X95.821 Y92.796 E26.14344
G1 X95.118 Y92.837 E26.17857
G1 X94.415 Y92.798 E26.21369
G1 X93.721 Y92.679 E26.24882
G1 X93.045 Y92.483 E26.28394
G1 X92.396 Y92.211 E26.31905
G1 X91.781 Y91.867 E26.3542
G1 X91.21 Y91.456 E26.3893
G1 X90.916 Y91.203 E26.40865
G1 X82.879 Y83.819 E26.95316
G1 X82.389 Y83.314 E26.98826
G1 X81.959 Y82.756 E27.02341
G1 X81.595 Y82.154 E27.05851
G1 X81.301 Y81.514 E27.09364
G1 X81.082 Y80.845 E27.12876
G1 X80.94 Y80.155 E27.16391
G1 X80.877 Y79.454 E27.19902
G1 X80.894 Y78.75 E27.23416
G1 X80.991 Y78.053 E27.26926
G1 X81.166 Y77.371 E27.30439
G1 X81.418 Y76.714 E27.3395
G1 X81.611 Y76.321 E27.36134
G1 X81.735 Y76.09 E27.37442
G1 X82.103 Y75.489 E27.40958
G1 X82.536 Y74.934 E27.4447
G0 F3600 X82.867 Y75.165
G1 F1800 X83.348 Y74.684 E27.47864
G1 X83.883 Y74.262 E27.51263
G1 X84.464 Y73.907 E27.5466
G1 X85.082 Y73.622 E27.58055
G1 X85.73 Y73.411 E27.61455
G1 X86.398 Y73.278 E27.64853
G1 X87.324 Y73.223 E27.69481
G1 X87.829 Y73.234 E27.72001
G1 X88.508 Y73.289 E27.754
G1 X89.176 Y73.423 E27.78799
G1 X89.823 Y73.634 E27.82194
G1 X90.441 Y73.92 E27.85592
G1 X91.021 Y74.276 E27.88987
G1 X91.556 Y74.698 E27.92386
G1 X91.942 Y75.075 E27.95078
G1 X93.934 Y77.209 E28.09642
G1 X99.153 Y82.289 E28.45978
G1 X99.612 Y82.792 E28.49376
G1 X100.005 Y83.34 E28.5274
G1 X100.15 Y83.106 E28.54113
G1 X100.79 Y82.345 E28.59074
G1 X108.19 Y74.934 E29.11324
G1 X108.698 Y74.481 E29.1472
G1 X109.256 Y74.091 E29.18116
G1 X109.856 Y73.769 E29.21513
G1 X110.49 Y73.52 E29.24912
G1 X111.148 Y73.346 E29.28307
