;FLAVOR:Marlin
;TIME:11631
;Filament used: 6.30939m
;Layer height: 0.1
;Generated with Cura_SteamEngine 3.0.4
M190 S60
M104 S195
M109 S195
M82 ; absolute extrusion mode
G21 ;metric values
G90 ;absolute positioning
M82 ;set extruder to absolute mode
M107 ;start with the fan off
G28 X0 Y0 ;move X/Y to min endstops
G28 Z0 ;move Z to min endstops
G1 Z15.0 F9000 ;move the platform down 15mm
G92 E0 ;zero the extruded length
G1 F200 E3 ;extrude 3mm of feed stock
G92 E0 ;zero the extruded length again
G1 F9000
;Put printing message on LCD screen
M117 Printing...
;LAYER_COUNT:78
;LAYER:0
M107
G0 F3600 X63.296 Y42.863 Z0.3
;TYPE:SKIRT
G1 F1800 X63.682 Y42.348 E0.03211
G1 X64.13 Y41.861 E0.06512
G1 X64.586 Y41.451 E0.09572
G1 X65.24 Y40.969 E0.13625
G1 X65.67 Y40.702 E0.1615
G1 X65.973 Y40.565 E0.17809
G1 X67.046 Y40.145 E0.23558
G1 X67.529 Y39.999 E0.26075
G1 X67.786 Y39.953 E0.27378
G1 X68.412 Y39.869 E0.30529
G1 X68.839 Y39.841 E0.32664
G1 X131.166 Y39.858 E3.43614
G1 X131.812 Y39.924 E3.46854
G1 X132.539 Y40.074 E3.50557
G1 X133.164 Y40.272 E3.53828
G1 X133.993 Y40.631 E3.58335
G1 X134.439 Y40.867 E3.60853
G1 X134.719 Y41.067 E3.6257
G1 X135.67 Y41.827 E3.68643
G1 X136.039 Y42.173 E3.71167
G1 X136.241 Y42.419 E3.72755
G1 X136.766 Y43.126 E3.77148
G1 X137.035 Y43.555 E3.79674
G1 X137.178 Y43.872 E3.81409
G1 X137.626 Y45.021 E3.87562
G1 X137.772 Y45.505 E3.90084
G1 X137.818 Y45.767 E3.91411
G1 X137.908 Y46.454 E3.94868
G1 X137.935 Y46.87 E3.96948
G1 X137.923 Y144.009 E8.81576
G1 X137.875 Y144.56 E8.84336
G1 X137.762 Y145.206 E8.87608
G1 X137.636 Y145.696 E8.90132
G1 X137.538 Y145.946 E8.91471
G1 X137.04 Y147.076 E8.97632
G1 X136.8 Y147.521 E9.00155
G1 X136.62 Y147.772 E9.01695
G1 X136.086 Y148.446 E9.05986
G1 X135.742 Y148.816 E9.08506
G1 X135.472 Y149.038 E9.1025
G1 X134.463 Y149.779 E9.16496
G1 X134.033 Y150.045 E9.19018
G1 X133.674 Y150.203 E9.20975
G1 X132.698 Y150.562 E9.26163
G1 X132.095 Y150.719 E9.29272
G1 X131.585 Y150.8 E9.31848
G1 X131.096 Y150.84 E9.34296
G1 X114.207 Y150.911 E10.18556
G1 X108.738 Y151.221 E10.45885
G1 X103.286 Y151.839 E10.73259
G1 X97.862 Y152.77 E11.00715
G1 X95.259 Y153.33 E11.13999
G1 X92.583 Y153.986 E11.27745
G1 X87.292 Y155.523 E11.55233
G1 X82.139 Y157.342 E11.82496
G1 X76.352 Y159.745 E12.13758
G1 X75.871 Y159.902 E12.16282
G1 X75.503 Y159.968 E12.18147
G1 X73.914 Y160.157 E12.26131
G1 X73.525 Y160.179 E12.28075
G1 X70.185 Y160.167 E12.44738
G1 X69.779 Y160.14 E12.46768
G1 X68.554 Y159.979 E12.52932
G1 X68.06 Y159.873 E12.55453
G1 X67.761 Y159.769 E12.57032
G1 X66.556 Y159.277 E12.63526
G1 X66.105 Y159.049 E12.66047
G1 X65.826 Y158.859 E12.67731
G1 X64.791 Y158.07 E12.74224
G1 X64.414 Y157.733 E12.76747
G1 X64.202 Y157.486 E12.78371
G1 X63.412 Y156.467 E12.84803
G1 X63.135 Y156.044 E12.87326
G1 X62.992 Y155.748 E12.88966
G1 X62.49 Y154.556 E12.95419
G1 X62.331 Y154.076 E12.97942
G1 X62.262 Y153.694 E12.99878
G1 X62.074 Y152.122 E13.07777
G1 X62.051 Y151.741 E13.09681
G1 X62.078 Y46.426 E18.351
G1 X62.127 Y45.868 E18.37894
G1 X62.231 Y45.282 E18.40864
G1 X62.378 Y44.737 E18.4368
G1 X62.604 Y44.122 E18.46949
G1 X62.867 Y43.575 E18.49977
G1 X63.296 Y42.863 E18.54124
G1 F1500 E12.04124
G0 F3600 X65.39 Y44.268
G0 X66.459 Y44.98
G0 X66.584 Y44.936
G0 X66.505 Y44.876
;TYPE:WALL-INNER
G1 F1500 E18.54124
G1 F1800 X66.783 Y44.559 E18.56227
G1 X67.098 Y44.281 E18.58323
G1 X67.448 Y44.048 E18.60421
G1 X67.816 Y43.867 E18.62467
G1 X68.219 Y43.73 E18.64591
G1 X68.621 Y43.649 E18.66637
G1 X69.066 Y43.621 E18.68861
G1 X130.689 Y43.62 E21.76299
G1 X131.164 Y43.65 E21.78674
G1 X131.603 Y43.739 E21.80909
G1 X132.025 Y43.882 E21.83132
G1 X132.438 Y44.086 E21.8543
G1 X132.808 Y44.331 E21.87644
G1 X133.137 Y44.621 E21.89832
G1 X133.446 Y44.974 E21.92172
G1 X133.691 Y45.341 E21.94374
G1 X133.893 Y45.75 E21.9665
G1 X134.036 Y46.172 E21.98873
G1 X134.125 Y46.611 E22.01107
G1 X134.155 Y47.086 E22.03482
G1 X134.156 Y143.592 E26.84952
G1 X134.127 Y144.069 E26.87336
G1 X134.04 Y144.506 E26.89559
G1 X133.894 Y144.936 E26.91825
G1 X133.698 Y145.334 E26.94038
G1 X133.447 Y145.711 E26.96298
G1 X133.147 Y146.054 E26.98571
G1 X132.805 Y146.354 E27.00841
G1 X132.434 Y146.603 E27.0307
G1 X132.028 Y146.805 E27.05332
G1 X131.607 Y146.949 E27.07552
G1 X131.164 Y147.039 E27.09808
G1 X130.687 Y147.071 E27.12193
G1 X78.191 Y147.071 E29.74096
G1 X78.191 Y151.959 E29.98483
G1 X78.036 Y153.133 E30.04391
G1 X77.6 Y154.185 E30.10072
G1 X76.904 Y155.093 E30.1578
G1 X75.995 Y155.79 E30.21494
G1 X74.943 Y156.226 E30.27176
G1 X73.77 Y156.38 E30.33078
G1 X70.27 Y156.38 E30.5054
G1 X69.1 Y156.227 E30.56427
G1 X68.041 Y155.788 E30.62146
G1 X67.136 Y155.093 E30.67839
G1 X66.44 Y154.187 E30.73539
G1 X66.003 Y153.132 E30.79236
G1 X65.849 Y151.959 E30.85138
G1 X65.844 Y46.843 E36.09564
G1 X65.872 Y46.398 E36.11788
G1 X65.953 Y45.996 E36.13834
G1 X66.089 Y45.595 E36.15947
G1 X66.273 Y45.223 E36.18017
G1 X66.505 Y44.876 E36.201
G0 F3600 X66.584 Y44.936
G0 X85.142 Y55.559
G0 X85.228 Y55.609
G1 F1800 X84.967 Y56.239 E36.23502
G1 X84.879 Y56.913 E36.26893
G1 X84.967 Y57.588 E36.30289
G1 X85.228 Y58.218 E36.33691
G1 X85.643 Y58.758 E36.37089
G1 X86.182 Y59.172 E36.4048
G1 X86.812 Y59.433 E36.43882
G1 X87.487 Y59.52 E36.47277
G1 X88.161 Y59.433 E36.50668
G1 X88.79 Y59.173 E36.54064
G1 X89.331 Y58.758 E36.57465
G1 X89.746 Y58.218 E36.60863
G1 X90.007 Y57.588 E36.64265
G1 X90.095 Y56.913 E36.67661
G1 X90.007 Y56.239 E36.71052
G1 X89.746 Y55.609 E36.74454
G1 X89.331 Y55.069 E36.77852
G1 X88.79 Y54.654 E36.81254
G1 X88.161 Y54.394 E36.8465
G1 X87.487 Y54.306 E36.88041
G1 X86.812 Y54.394 E36.91437
G1 X86.182 Y54.655 E36.94839
G1 X85.643 Y55.069 E36.9823
G1 X85.228 Y55.609 E37.01627
G0 F3600 X85.142 Y55.559
G0 X84.929 Y56.229
G0 X70.378 Y149.7
G0 X70.372 Y149.799
G1 F1800 X69.798 Y149.837 E37.04497
G1 X69.253 Y150.023 E37.0737
G1 X68.774 Y150.344 E37.10247
G1 X68.396 Y150.777 E37.13115
G1 X68.142 Y151.294 E37.15989
G1 X68.036 Y151.83 E37.18714
G1 X68.03 Y152.02 E37.19663
G1 X68.071 Y152.442 E37.21778
G1 X68.255 Y152.979 E37.2461
G1 X68.576 Y153.455 E37.27474
G1 X69.008 Y153.834 E37.30342
G1 X69.525 Y154.089 E37.33218
G1 X70.09 Y154.201 E37.36091
G1 X70.664 Y154.163 E37.38961
G1 X71.21 Y153.976 E37.41841
G1 X71.688 Y153.655 E37.44713
G1 X72.066 Y153.223 E37.47577
G1 X72.32 Y152.706 E37.50451
G1 X72.426 Y152.169 E37.53182
G1 X72.432 Y151.98 E37.54125
G1 X72.391 Y151.558 E37.5624
G1 X72.207 Y151.021 E37.59072
G1 X71.886 Y150.544 E37.61941
G1 X71.454 Y150.164 E37.64811
G1 X70.937 Y149.911 E37.67683
G1 X70.372 Y149.799 E37.70556
G0 F3600 X69.877 Y150.233
;TYPE:WALL-OUTER
G1 F1800 X69.432 Y150.385 E37.72902
G1 X69.041 Y150.647 E37.75251
G1 X68.732 Y151.001 E37.77595
G1 X68.524 Y151.423 E37.79942
G1 X68.435 Y151.875 E37.8224
G1 X68.431 Y152.007 E37.82899
G1 X68.465 Y152.357 E37.84654
G1 X68.616 Y152.799 E37.86984
G1 X68.879 Y153.189 E37.89331
G1 X69.232 Y153.499 E37.91675
G1 X69.654 Y153.707 E37.94022
G1 X70.116 Y153.798 E37.96371
G1 X70.585 Y153.767 E37.98716
G1 X71.031 Y153.615 E38.01067
G1 X71.421 Y153.352 E38.03413
G1 X71.73 Y152.999 E38.05754
G1 X71.938 Y152.577 E38.08101
G1 X72.027 Y152.124 E38.10404
G1 X72.031 Y151.993 E38.11058
G1 X71.997 Y151.643 E38.12813
G1 X71.846 Y151.2 E38.15148
G1 X71.583 Y150.81 E38.17495
G1 X71.23 Y150.5 E38.19838
G1 X70.808 Y150.293 E38.22183
G1 X70.346 Y150.202 E38.24533
G1 X69.877 Y150.233 E38.26878
G0 F3600 X69.688 Y150.297
G0 X69.527 Y149.824
G0 X78.091 Y147.471
G0 X78.591 Y147.471
G1 F1800 X78.591 Y151.988 E38.49413
G1 X78.427 Y153.234 E38.55683
G1 X77.948 Y154.389 E38.61921
G1 X77.189 Y155.378 E38.68141
G1 X76.199 Y156.138 E38.74367
G1 X75.044 Y156.617 E38.80606
G1 X73.799 Y156.78 E38.8687
G1 X70.241 Y156.78 E39.04621
G1 X68.996 Y156.617 E39.10885
G1 X67.84 Y156.138 E39.17128
G1 X66.851 Y155.378 E39.23351
G1 X66.09 Y154.388 E39.29581
G1 X65.613 Y153.236 E39.35801
G1 X65.449 Y151.988 E39.42081
G1 X65.444 Y46.834 E44.66696
G1 X65.475 Y46.347 E44.69131
G1 X65.567 Y45.887 E44.71471
G1 X65.718 Y45.443 E44.73811
G1 X65.925 Y45.023 E44.76147
G1 X66.187 Y44.631 E44.78499
G1 X66.499 Y44.275 E44.80861
G1 X66.853 Y43.964 E44.83212
G1 X67.245 Y43.702 E44.85564
G1 X67.666 Y43.495 E44.87905
G1 X68.11 Y43.344 E44.90244
G1 X68.57 Y43.252 E44.92585
G1 X69.057 Y43.221 E44.95019
G1 X130.698 Y43.22 E48.02548
G1 X131.217 Y43.253 E48.05142
G1 X131.708 Y43.352 E48.07641
G1 X132.18 Y43.512 E48.10128
G1 X132.634 Y43.736 E48.12653
G1 X133.051 Y44.013 E48.15151
G1 X133.425 Y44.342 E48.17636
G1 X133.764 Y44.729 E48.20203
G1 X134.039 Y45.141 E48.22674
G1 X134.263 Y45.595 E48.252
G1 X134.423 Y46.067 E48.27686
G1 X134.522 Y46.558 E48.30185
G1 X134.555 Y47.077 E48.3278
G1 X134.556 Y143.601 E53.1434
G1 X134.524 Y144.12 E53.16934
G1 X134.426 Y144.612 E53.19437
G1 X134.265 Y145.087 E53.21939
G1 X134.044 Y145.537 E53.2444
G1 X133.764 Y145.956 E53.26954
G1 X133.432 Y146.337 E53.29476
G1 X133.052 Y146.67 E53.31996
G1 X132.636 Y146.949 E53.34495
G1 X132.183 Y147.174 E53.37019
G1 X131.71 Y147.336 E53.39513
G1 X131.219 Y147.436 E53.42013
G1 X130.699 Y147.471 E53.44613
G1 X78.591 Y147.471 E56.04581
G0 F3600 X78.591 Y147.671
G0 X78.091 Y147.671
G0 X84.929 Y56.229
G0 X85.194 Y55.589
G0 X85.615 Y55.041
G0 X86.162 Y54.621
G0 X86.725 Y54.322
G0 X86.916 Y54.784
G1 F1800 X86.384 Y55.004 E56.07453
G1 X85.928 Y55.354 E56.10321
G1 X85.577 Y55.811 E56.13196
G1 X85.357 Y56.343 E56.16068
G1 X85.282 Y56.913 E56.18936
G1 X85.357 Y57.484 E56.2181
G1 X85.577 Y58.016 E56.24682
G1 X85.928 Y58.473 E56.27557
G1 X86.384 Y58.823 E56.30424
G1 X86.916 Y59.043 E56.33297
G1 X87.487 Y59.117 E56.36169
G1 X88.057 Y59.043 E56.39037
G1 X88.589 Y58.823 E56.41909
G1 X89.046 Y58.473 E56.44781
G1 X89.397 Y58.016 E56.47656
G1 X89.617 Y57.484 E56.50528
G1 X89.692 Y56.913 E56.53401
G1 X89.617 Y56.343 E56.56269
G1 X89.397 Y55.811 E56.59141
G1 X89.046 Y55.354 E56.62016
G1 X88.589 Y55.004 E56.64888
G1 X88.057 Y54.784 E56.6776
G1 X87.487 Y54.709 E56.70628
G1 X86.916 Y54.784 E56.73502
G0 F3600 X86.731 Y54.86
G0 X86.54 Y54.398
G0 X86.708 Y54.004
;TYPE:WALL-INNER
G1 F1800 X85.98 Y54.305 E56.77432
G1 X85.357 Y54.783 E56.81349
G1 X84.878 Y55.407 E56.85274
G1 X84.577 Y56.135 E56.89204
G1 X84.475 Y56.913 E56.93119
G1 X84.577 Y57.692 E56.97039
G1 X84.878 Y58.42 E57.00969
G1 X85.357 Y59.044 E57.04893
G1 X85.98 Y59.522 E57.08811
G1 X86.708 Y59.823 E57.12741
G1 X87.487 Y59.924 E57.1666
G1 X88.265 Y59.823 E57.20574
G1 X88.992 Y59.523 E57.24498
G1 X89.617 Y59.044 E57.28427
G1 X90.096 Y58.42 E57.32351
G1 X90.397 Y57.692 E57.36281
G1 X90.499 Y56.913 E57.40201
G1 X90.397 Y56.135 E57.44116
G1 X90.096 Y55.407 E57.48046
G1 X89.617 Y54.783 E57.5197
G1 X88.992 Y54.304 E57.55899
G1 X88.265 Y54.004 E57.59823
G1 X87.487 Y53.902 E57.63737
G1 X86.708 Y54.004 E57.67657
G0 F3600 X69.091 Y44.021
G1 F1800 X130.664 Y44.02 E60.74846
G1 X131.116 Y44.048 E60.77105
G1 X131.507 Y44.127 E60.79095
G1 X131.87 Y44.251 E60.81009
G1 X132.231 Y44.429 E60.83017
G1 X132.569 Y44.653 E60.8504
G1 X132.853 Y44.903 E60.86928
G1 X133.13 Y45.218 E60.89021
G1 X133.343 Y45.539 E60.90943
G1 X133.525 Y45.908 E60.92995
G1 X133.648 Y46.268 E60.94893
G1 X133.727 Y46.659 E60.96883
G1 X133.755 Y47.111 E60.99143
G1 X133.756 Y143.568 E65.80369
G1 X133.729 Y144.025 E65.82653
G1 X133.652 Y144.406 E65.84592
G1 X133.526 Y144.778 E65.86551
G1 X133.35 Y145.137 E65.88546
G1 X133.134 Y145.462 E65.90493
G1 X132.859 Y145.774 E65.92568
G1 X132.559 Y146.038 E65.94562
G1 X132.236 Y146.255 E65.96503
G1 X131.874 Y146.435 E65.9852
G1 X131.505 Y146.561 E66.00465
G1 X131.116 Y146.641 E66.02447
G1 X130.661 Y146.671 E66.04722
G1 X77.791 Y146.671 E68.68491
G1 X77.791 Y151.937 E68.94763
G1 X77.648 Y153.023 E69.00228
G1 X77.25 Y153.983 E69.05413
G1 X76.618 Y154.807 E69.10594
G1 X75.793 Y155.44 E69.15782
G1 X74.833 Y155.838 E69.20966
G1 X73.748 Y155.98 E69.26426
G1 X70.292 Y155.98 E69.43668
G1 X69.21 Y155.839 E69.49111
G1 X68.243 Y155.438 E69.54334
G1 X67.422 Y154.807 E69.595
G1 X66.79 Y153.985 E69.64673
G1 X66.391 Y153.022 E69.69874
G1 X66.249 Y151.937 E69.75333
G1 X66.244 Y46.868 E74.99524
G1 X66.27 Y46.445 E75.01639
G1 X66.341 Y46.092 E75.03435
G1 X66.457 Y45.753 E75.05223
G1 X66.621 Y45.421 E75.0707
G1 X66.821 Y45.122 E75.08865
G1 X67.067 Y44.841 E75.10728
G1 X67.344 Y44.597 E75.12569
G1 X67.645 Y44.396 E75.14375
G1 X67.972 Y44.236 E75.16191
G1 X68.318 Y44.118 E75.18015
G1 X68.668 Y44.047 E75.19797
G1 X69.091 Y44.021 E75.21911
G0 F3600 X70.398 Y149.397
G1 F1800 X69.718 Y149.441 E75.25311
G1 X69.074 Y149.661 E75.28706
G1 X68.508 Y150.042 E75.3211
G1 X68.06 Y150.553 E75.35501
G1 X67.76 Y151.164 E75.38896
G1 X67.638 Y151.784 E75.42049
G1 X67.63 Y152.033 E75.43292
G1 X67.677 Y152.528 E75.45773
G1 X67.893 Y153.159 E75.491
G1 X68.274 Y153.721 E75.52487
G1 X68.784 Y154.17 E75.55877
G1 X69.395 Y154.471 E75.59275
G1 X70.064 Y154.603 E75.62677
G1 X70.744 Y154.559 E75.66077
G1 X71.39 Y154.338 E75.69483
G1 X71.954 Y153.957 E75.72879
G1 X72.402 Y153.447 E75.76266
G1 X72.702 Y152.836 E75.79662
G1 X72.824 Y152.215 E75.82819
G1 X72.832 Y151.967 E75.84057
G1 X72.785 Y151.472 E75.86538
G1 X72.569 Y150.841 E75.89865
G1 X72.188 Y150.278 E75.93257
G1 X71.678 Y149.828 E75.9665
G1 X71.065 Y149.529 E76.00053
G1 X70.398 Y149.397 E76.03445
G0 F3600 X69.236 Y149.988
G0 X68.748 Y150.314
G0 X68.363 Y150.755
G0 X68.105 Y151.282
G0 X67.599 Y154.714
;TYPE:SKIN
G1 F1800 X67.512 Y154.627 E76.04059
G0 F3600 X67.683 Y153.102
G1 F1800 X66.428 Y151.846 E76.12917
G1 X66.358 Y151.776
G0 F3600 X66.428 Y151.281
G1 F1800 X67.477 Y152.33 E76.20318
G1 X67.547 Y152.4
G0 F3600 X67.462 Y151.749
G1 F1800 X66.428 Y150.715 E76.27614
G1 X66.358 Y150.645
G0 F3600 X66.428 Y150.149
G1 F1800 X67.554 Y151.276 E76.35562
G1 X67.624 Y151.346
G0 F3600 X67.706 Y150.862
G1 F1800 X66.428 Y149.584 E76.44579
G1 X66.358 Y149.514
G0 F3600 X66.428 Y149.018
G1 F1800 X67.892 Y150.482 E76.54908
G1 X67.962 Y150.552
G0 F3600 X68.15 Y150.175
G1 F1800 X66.428 Y148.452 E76.67061
G1 X66.358 Y148.382
G0 F3600 X66.428 Y147.887
G1 F1800 X68.423 Y149.881 E76.81133
G1 X68.493 Y149.951
G0 F3600 X68.761 Y149.654
G1 F1800 X66.428 Y147.321 E76.97594
G1 X66.358 Y147.251
G0 F3600 X66.428 Y146.755
G1 F1800 X69.124 Y149.451 E77.16616
G1 X69.194 Y149.521
G0 F3600 X69.546 Y149.308
G1 F1800 X66.428 Y146.19 E77.38615
G1 X66.358 Y146.12
G0 F3600 X66.428 Y145.624
G1 F1800 X70.042 Y149.238 E77.64114
G1 X70.112 Y149.308
G0 F3600 X70.628 Y149.258
G1 F1800 X66.428 Y145.058 E77.93747
G1 X66.358 Y144.988
G0 F3600 X66.428 Y144.493
G1 F1800 X71.452 Y149.517 E78.29194
G1 X71.522 Y149.587
G0 F3600 X72.752 Y150.816
G1 F1800 X76.542 Y154.607 E78.55938
G1 X76.612 Y154.677
G0 F3600 X76.238 Y154.868
G1 F1800 X72.978 Y151.608 E78.78939
G1 X72.908 Y151.538
G0 F3600 X73.003 Y152.199
G1 F1800 X75.918 Y155.114 E78.99506
G1 X75.988 Y155.184
G0 F3600 X75.572 Y155.334
G1 F1800 X72.915 Y152.677 E79.18252
G1 X72.845 Y152.607
G0 F3600 X72.771 Y153.099
G1 F1800 X75.172 Y155.499 E79.35189
G1 X75.242 Y155.569
G0 F3600 X74.77 Y155.663
G1 F1800 X72.586 Y153.479 E79.50599
G1 X72.516 Y153.409
G0 F3600 X72.335 Y153.794
G1 F1800 X74.27 Y155.728 E79.64247
G1 X74.34 Y155.798
G0 F3600 X73.769 Y155.794
G1 F1800 X72.07 Y154.094 E79.76238
G1 X72 Y154.024
G0 F3600 X71.733 Y154.323
G1 F1800 X73.208 Y155.798 E79.86645
G1 X73.278 Y155.868
G0 F3600 X72.643 Y155.798
G1 F1800 X71.376 Y154.532 E79.95581
G1 X71.306 Y154.462
G0 F3600 X70.955 Y154.676
G1 F1800 X72.077 Y155.798 E80.03497
G1 X72.147 Y155.868
G0 F3600 X71.511 Y155.798
G1 F1800 X70.469 Y154.756 E80.10849
G1 X70.399 Y154.686
G0 F3600 X69.901 Y154.753
G1 F1800 X70.946 Y155.798 E80.18222
G1 X71.016 Y155.868
G0 F3600 X70.38 Y155.798
G1 F1800 X69.114 Y154.532 E80.27155
G1 X69.044 Y154.462
G0 F3600 X69.008 Y155.558
G1 F1800 X66.667 Y153.217 E80.43672
G1 X66.597 Y153.147
G0 F3600 X66.501 Y152.486
G1 F1800 X69.741 Y155.726 E80.66532
G1 X69.811 Y155.796
G0 F3600 X76.788 Y154.287
G1 F1800 X66.428 Y143.927 E81.39627
G1 X66.358 Y143.857
G0 F3600 X66.428 Y143.361
G1 F1800 X77.034 Y153.967 E82.14458
G1 X77.104 Y154.037
G0 F3600 X77.218 Y153.586
G1 F1800 X66.428 Y142.795 E82.90591
G1 X66.358 Y142.725
G0 F3600 X66.428 Y142.23
G1 F1800 X77.384 Y153.186 E83.67891
