;FLAVOR:Marlin
;TIME:1290
;Filament used: 0.666154m
;Layer height: 0.1
;Generated with Cura_SteamEngine 3.0.4
M190 S60
M104 S195
M109 S195
M82 ; absolute extrusion mode
G21 ;metric values
G90 ;absolute positioning
M82 ;set extruder to absolute mode
M107 ;start with the fan off
G28 X0 Y0 ;move X/Y to min endstops
G28 Z0 ;move Z to min endstops
G1 Z15.0 F9000 ;move the platform down 15mm
G92 E0 ;zero the extruded length
G1 F200 E3 ;extrude 3mm of feed stock
G92 E0 ;zero the extruded length again
G1 F9000
;Put printing message on LCD screen
M117 Printing...
;LAYER_COUNT:173
;LAYER:0
M107
G0 F3600 X88.267 Y88.999 Z0.3
;TYPE:SKIRT
G1 F1800 X89.033 Y88.233 E0.05405
G1 X89.793 Y87.565 E0.10453
G1 X90.65 Y86.906 E0.15846
G1 X91.51 Y86.331 E0.21007
G1 X92.447 Y85.791 E0.26403
G1 X93.358 Y85.342 E0.3147
G1 X94.358 Y84.928 E0.3687
G1 X95.102 Y84.663 E0.4081
G1 X95.566 Y84.54 E0.43205
G1 X97.144 Y84.171 E0.5129
G1 X97.921 Y84.03 E0.5523
G1 X98.416 Y83.982 E0.57711
G1 X99.496 Y83.912 E0.6311
G1 X100.285 Y83.901 E0.67047
G1 X100.759 Y83.933 E0.69417
G1 X102.374 Y84.091 E0.77513
G1 X103.156 Y84.208 E0.81458
G1 X103.644 Y84.323 E0.83959
G1 X104.687 Y84.604 E0.89348
G1 X105.642 Y84.928 E0.94379
G1 X106.642 Y85.342 E0.99779
G1 X107.553 Y85.791 E1.04846
G1 X108.49 Y86.331 E1.10241
G1 X109.35 Y86.906 E1.15403
G1 X110.207 Y87.565 E1.20796
G1 X110.967 Y88.233 E1.25844
G1 X111.733 Y88.999 E1.31249
G1 X112.401 Y89.759 E1.36297
G1 X113.06 Y90.616 E1.4169
G1 X113.635 Y91.476 E1.46852
G1 X114.175 Y92.413 E1.52247
G1 X114.623 Y93.322 E1.57303
G1 X115.037 Y94.321 E1.62698
G1 X115.302 Y95.065 E1.66638
G1 X115.427 Y95.536 E1.69069
G1 X115.795 Y97.114 E1.77153
G1 X115.935 Y97.891 E1.81092
G1 X115.982 Y98.373 E1.83508
G1 X116.053 Y99.453 E1.88908
G1 X116.065 Y100.243 E1.9285
G1 X116.033 Y100.729 E1.9528
G1 X115.874 Y102.345 E2.03381
G1 X115.757 Y103.126 E2.07321
G1 X115.644 Y103.603 E2.09767
G1 X115.364 Y104.646 E2.15154
G1 X115.038 Y105.608 E2.20222
G1 X114.624 Y106.608 E2.25622
G1 X114.176 Y107.516 E2.30673
G1 X113.637 Y108.452 E2.36062
G1 X113.06 Y109.316 E2.41245
G1 X112.4 Y110.174 E2.46646
G1 X111.733 Y110.933 E2.51687
G1 X110.967 Y111.699 E2.57091
G1 X110.207 Y112.367 E2.62139
G1 X109.35 Y113.026 E2.67533
G1 X108.49 Y113.601 E2.72694
G1 X107.553 Y114.141 E2.78089
G1 X106.642 Y114.59 E2.83156
G1 X105.642 Y115.004 E2.88556
G1 X104.898 Y115.269 E2.92496
G1 X104.429 Y115.393 E2.94917
G1 X102.851 Y115.761 E3.03001
G1 X102.074 Y115.901 E3.06939
G1 X101.592 Y115.948 E3.09356
G1 X100.512 Y116.019 E3.14755
G1 X99.722 Y116.031 E3.18697
G1 X99.236 Y115.998 E3.21127
G1 X97.621 Y115.839 E3.29224
G1 X96.84 Y115.722 E3.33163
G1 X96.363 Y115.61 E3.35608
G1 X95.32 Y115.33 E3.40996
G1 X94.358 Y115.004 E3.46063
G1 X93.358 Y114.59 E3.51463
G1 X92.447 Y114.141 E3.5653
G1 X91.51 Y113.601 E3.61925
G1 X90.65 Y113.026 E3.67087
G1 X89.793 Y112.367 E3.7248
G1 X89.033 Y111.699 E3.77528
G1 X88.267 Y110.933 E3.82933
G1 X87.6 Y110.174 E3.87974
G1 X86.94 Y109.316 E3.93374
G1 X86.363 Y108.452 E3.98558
G1 X85.824 Y107.516 E4.03946
G1 X85.376 Y106.608 E4.08998
G1 X84.962 Y105.608 E4.14398
G1 X84.697 Y104.864 E4.18338
G1 X84.573 Y104.395 E4.20758
G1 X84.205 Y102.817 E4.28842
G1 X84.065 Y102.04 E4.32781
G1 X84.018 Y101.558 E4.35197
G1 X83.947 Y100.479 E4.40592
G1 X83.935 Y99.69 E4.44529
G1 X83.967 Y99.204 E4.46958
G1 X84.126 Y97.587 E4.55065
G1 X84.243 Y96.806 E4.59004
G1 X84.356 Y96.326 E4.61465
G1 X84.636 Y95.284 E4.66848
G1 X84.962 Y94.324 E4.71906
G1 X85.376 Y93.324 E4.77305
G1 X85.824 Y92.416 E4.82357
G1 X86.363 Y91.48 E4.87745
G1 X86.94 Y90.616 E4.92929
G1 X87.6 Y89.758 E4.98329
G1 X88.267 Y88.999 E5.0337
G0 F3600 X88.549 Y89.281
G1 F1800 X89.315 Y88.515 E5.08775
G1 X90.037 Y87.882 E5.13565
G1 X90.894 Y87.223 E5.18959
G1 X91.71 Y86.678 E5.23854
G1 X92.647 Y86.138 E5.2925
G1 X93.511 Y85.712 E5.34056
G1 X94.511 Y85.298 E5.39456
G1 X95.236 Y85.041 E5.43293
G1 X95.657 Y84.929 E5.45467
G1 X97.235 Y84.56 E5.53552
G1 X97.992 Y84.424 E5.57389
G1 X98.441 Y84.381 E5.59639
G1 X99.521 Y84.311 E5.65039
G1 X100.29 Y84.302 E5.68875
G1 X100.721 Y84.331 E5.7103
G1 X102.336 Y84.489 E5.79126
G1 X103.096 Y84.604 E5.82961
G1 X103.54 Y84.709 E5.85237
G1 X104.583 Y84.99 E5.90626
G1 X105.489 Y85.298 E5.954
G1 X106.489 Y85.712 E6.008
G1 X107.353 Y86.138 E6.05606
G1 X108.29 Y86.678 E6.11002
G1 X109.106 Y87.223 E6.15897
G1 X109.963 Y87.882 E6.21291
G1 X110.685 Y88.515 E6.26081
G1 X111.451 Y89.281 E6.31486
G1 X112.084 Y90.003 E6.36276
G1 X112.743 Y90.86 E6.4167
G1 X113.288 Y91.676 E6.46565
G1 X113.828 Y92.613 E6.51961
G1 X114.253 Y93.475 E6.56755
G1 X114.667 Y94.474 E6.6215
G1 X114.924 Y95.199 E6.65988
G1 X115.038 Y95.626 E6.68193
G1 X115.406 Y97.204 E6.76277
G1 X115.541 Y97.961 E6.80113
G1 X115.583 Y98.4 E6.82313
G1 X115.654 Y99.48 E6.87713
G1 X115.665 Y100.249 E6.9155
G1 X115.634 Y100.69 E6.93756
G1 X115.475 Y102.306 E7.01857
G1 X115.36 Y103.066 E7.05692
G1 X115.258 Y103.5 E7.07916
G1 X114.978 Y104.543 E7.13304
G1 X114.668 Y105.455 E7.18109
G1 X114.254 Y106.455 E7.23509
G1 X113.83 Y107.317 E7.28302
G1 X113.291 Y108.253 E7.3369
G1 X112.743 Y109.072 E7.38607
G1 X112.083 Y109.93 E7.44007
G1 X111.451 Y110.651 E7.4879
G1 X110.685 Y111.417 E7.54195
G1 X109.963 Y112.05 E7.58985
G1 X109.106 Y112.709 E7.64379
G1 X108.29 Y113.254 E7.69275
G1 X107.353 Y113.794 E7.7467
G1 X106.489 Y114.22 E7.79476
G1 X105.489 Y114.634 E7.84876
G1 X104.764 Y114.891 E7.88713
G1 X104.339 Y115.004 E7.90907
G1 X102.761 Y115.372 E7.98991
G1 X102.004 Y115.507 E8.02827
G1 X101.565 Y115.549 E8.05028
G1 X100.485 Y115.62 E8.10427
G1 X99.716 Y115.631 E8.14264
G1 X99.275 Y115.6 E8.1647
G1 X97.66 Y115.441 E8.24566
G1 X96.899 Y115.326 E8.28406
G1 X96.466 Y115.224 E8.30625
G1 X95.423 Y114.944 E8.36013
G1 X94.511 Y114.634 E8.40819
G1 X93.511 Y114.22 E8.46218
G1 X92.647 Y113.794 E8.51024
G1 X91.71 Y113.254 E8.5642
G1 X90.894 Y112.709 E8.61315
G1 X90.037 Y112.05 E8.66709
G1 X89.315 Y111.417 E8.71499
G1 X88.549 Y110.651 E8.76904
G1 X87.917 Y109.93 E8.81687
G1 X87.257 Y109.072 E8.87088
G1 X86.709 Y108.253 E8.92004
G1 X86.17 Y107.317 E8.97393
G1 X85.746 Y106.455 E9.02185
G1 X85.332 Y105.455 E9.07585
G1 X85.075 Y104.73 E9.11423
G1 X84.962 Y104.305 E9.13617
G1 X84.594 Y102.727 E9.21701
G1 X84.459 Y101.97 E9.25537
G1 X84.417 Y101.532 E9.27732
G1 X84.346 Y100.453 E9.33127
G1 X84.335 Y99.684 E9.36964
G1 X84.366 Y99.243 E9.39169
G1 X84.525 Y97.626 E9.47275
G1 X84.639 Y96.865 E9.51114
G1 X84.743 Y96.43 E9.53346
G1 X85.023 Y95.388 E9.58729
G1 X85.332 Y94.477 E9.63528
G1 X85.746 Y93.477 E9.68928
G1 X86.17 Y92.615 E9.7372
G1 X86.709 Y91.679 E9.79109
G1 X87.257 Y90.86 E9.84025
G1 X87.917 Y90.002 E9.89426
G1 X88.549 Y89.281 E9.94209
G0 F3600 X88.832 Y89.564
G1 F1800 X89.598 Y88.798 E9.99614
G1 X90.281 Y88.199 E10.04146
G1 X91.138 Y87.54 E10.0954
G1 X91.91 Y87.024 E10.14172
G1 X92.847 Y86.484 E10.19568
G1 X93.664 Y86.081 E10.24113
G1 X94.664 Y85.667 E10.29512
G1 X95.37 Y85.419 E10.33246
G1 X95.748 Y85.319 E10.35196
G1 X97.326 Y84.95 E10.43281
G1 X98.063 Y84.819 E10.47016
G1 X98.467 Y84.781 E10.4904
G1 X99.547 Y84.711 E10.5444
G1 X100.295 Y84.702 E10.58172
G1 X100.682 Y84.729 E10.60107
G1 X102.297 Y84.887 E10.68203
G1 X103.036 Y85 E10.71933
G1 X103.436 Y85.095 E10.73984
G1 X104.479 Y85.376 E10.79373
G1 X105.336 Y85.667 E10.83888
G1 X106.336 Y86.081 E10.89288
G1 X107.153 Y86.484 E10.93833
G1 X108.09 Y87.024 E10.99228
G1 X108.862 Y87.54 E11.03861
G1 X109.719 Y88.199 E11.09255
G1 X110.402 Y88.798 E11.13787
G1 X111.168 Y89.564 E11.19191
G1 X111.767 Y90.247 E11.23724
G1 X112.426 Y91.104 E11.29117
G1 X112.942 Y91.876 E11.3375
G1 X113.482 Y92.813 E11.39145
G1 X113.884 Y93.628 E11.43679
G1 X114.298 Y94.627 E11.49074
G1 X114.547 Y95.332 E11.52804
G1 X114.648 Y95.717 E11.5479
G1 X115.016 Y97.295 E11.62874
G1 X115.147 Y98.032 E11.66609
G1 X115.184 Y98.426 E11.68583
G1 X115.255 Y99.506 E11.73983
G1 X115.264 Y100.254 E11.77715
G1 X115.236 Y100.65 E11.79695
G1 X115.077 Y102.266 E11.87797
G1 X114.964 Y103.006 E11.91531
G1 X114.872 Y103.396 E11.9353
G1 X114.592 Y104.439 E11.98918
G1 X114.299 Y105.302 E12.03465
G1 X113.885 Y106.302 E12.08865
G1 X113.483 Y107.117 E12.13399
G1 X112.944 Y108.053 E12.18787
G1 X112.426 Y108.828 E12.23438
G1 X111.766 Y109.686 E12.28838
G1 X111.168 Y110.368 E12.33364
G1 X110.402 Y111.134 E12.38768
G1 X109.719 Y111.733 E12.433
G1 X108.862 Y112.392 E12.48694
G1 X108.09 Y112.908 E12.53327
G1 X107.153 Y113.448 E12.58722
G1 X106.336 Y113.851 E12.63267
G1 X105.336 Y114.265 E12.68667
G1 X104.63 Y114.513 E12.724
G1 X104.248 Y114.614 E12.74371
G1 X102.67 Y114.982 E12.82455
G1 X101.933 Y115.113 E12.8619
G1 X101.539 Y115.15 E12.88164
G1 X100.459 Y115.221 E12.93564
G1 X99.711 Y115.23 E12.97296
G1 X99.314 Y115.202 E12.99281
G1 X97.699 Y115.043 E13.07378
G1 X96.96 Y114.93 E13.11107
G1 X96.57 Y114.838 E13.13106
G1 X95.527 Y114.558 E13.18494
G1 X94.664 Y114.265 E13.23041
G1 X93.664 Y113.851 E13.28441
G1 X92.847 Y113.448 E13.32986
G1 X91.91 Y112.908 E13.38381
G1 X91.138 Y112.392 E13.43014
G1 X90.281 Y111.733 E13.48407
G1 X89.598 Y111.134 E13.5294
G1 X88.832 Y110.368 E13.58344
G1 X88.234 Y109.686 E13.62869
G1 X87.574 Y108.828 E13.6827
G1 X87.056 Y108.053 E13.72921
G1 X86.517 Y107.117 E13.78309
G1 X86.115 Y106.302 E13.82843
G1 X85.701 Y105.302 E13.88243
G1 X85.453 Y104.596 E13.91976
G1 X85.352 Y104.214 E13.93947
G1 X84.984 Y102.636 E14.02031
G1 X84.853 Y101.899 E14.05766
G1 X84.816 Y101.506 E14.07735
G1 X84.745 Y100.427 E14.1313
G1 X84.736 Y99.679 E14.16862
G1 X84.764 Y99.282 E14.18847
G1 X84.923 Y97.665 E14.26954
G1 X85.035 Y96.925 E14.30688
G1 X85.129 Y96.533 E14.32699
G1 X85.409 Y95.491 E14.38082
G1 X85.701 Y94.63 E14.42618
G1 X86.115 Y93.63 E14.48017
G1 X86.517 Y92.815 E14.52551
G1 X87.056 Y91.879 E14.5794
G1 X87.574 Y91.104 E14.6259
G1 X88.234 Y90.246 E14.67991
G1 X88.832 Y89.564 E14.72516
G0 F3600 X89.115 Y89.847
G1 F1800 X89.881 Y89.081 E14.77921
G1 X90.525 Y88.516 E14.82195
G1 X91.382 Y87.857 E14.87588
G1 X92.109 Y87.371 E14.91951
G1 X93.046 Y86.831 E14.97347
G1 X93.817 Y86.451 E15.01635
G1 X94.817 Y86.037 E15.07035
G1 X95.839 Y85.708 E15.12391
G1 X97.417 Y85.339 E15.20476
G1 X98.493 Y85.18 E15.25903
G1 X99.573 Y85.11 E15.31302
G1 X100.643 Y85.127 E15.36641
G1 X102.258 Y85.285 E15.44737
G1 X102.976 Y85.396 E15.48361
G1 X103.332 Y85.481 E15.50187
G1 X104.375 Y85.762 E15.55576
G1 X105.183 Y86.037 E15.59835
G1 X106.183 Y86.451 E15.65234
G1 X106.954 Y86.831 E15.69523
G1 X107.891 Y87.371 E15.74918
G1 X108.618 Y87.857 E15.79281
G1 X109.475 Y88.516 E15.84674
G1 X110.119 Y89.081 E15.88949
G1 X110.885 Y89.847 E15.94353
G1 X111.45 Y90.491 E15.98627
G1 X112.109 Y91.348 E16.04021
G1 X112.595 Y92.075 E16.08384
G1 X113.135 Y93.012 E16.13779
G1 X113.514 Y93.781 E16.18056
G1 X113.928 Y94.78 E16.23451
G1 X114.259 Y95.808 E16.28839
G1 X114.627 Y97.386 E16.36923
G1 X114.785 Y98.452 E16.423
G1 X114.856 Y99.532 E16.477
G1 X114.838 Y100.611 E16.53083
G1 X114.679 Y102.227 E16.61185
G1 X114.485 Y103.292 E16.66585
G1 X114.205 Y104.335 E16.71973
G1 X113.929 Y105.149 E16.76261
G1 X113.515 Y106.149 E16.81661
G1 X113.136 Y106.918 E16.85938
G1 X112.597 Y107.854 E16.91327
G1 X112.109 Y108.584 E16.95708
G1 X111.449 Y109.442 E17.01108
G1 X110.885 Y110.085 E17.05375
G1 X110.119 Y110.851 E17.1078
G1 X109.475 Y111.416 E17.15054
G1 X108.618 Y112.075 E17.20448
G1 X107.891 Y112.561 E17.2481
G1 X106.954 Y113.101 E17.30206
G1 X106.183 Y113.481 E17.34494
G1 X105.183 Y113.895 E17.39894
G1 X104.157 Y114.225 E17.45271
G1 X102.579 Y114.593 E17.53355
G1 X101.513 Y114.751 E17.58731
G1 X100.433 Y114.822 E17.64131
G1 X99.353 Y114.804 E17.6952
G1 X97.738 Y114.645 E17.77616
G1 X96.674 Y114.451 E17.83012
G1 X95.631 Y114.171 E17.884
G1 X94.817 Y113.895 E17.92688
G1 X93.817 Y113.481 E17.98087
G1 X93.046 Y113.101 E18.02376
G1 X92.109 Y112.561 E18.07771
G1 X91.382 Y112.075 E18.12134
G1 X90.525 Y111.416 E18.17528
G1 X89.881 Y110.851 E18.21802
G1 X89.115 Y110.085 E18.27206
G1 X88.551 Y109.442 E18.31473
G1 X87.891 Y108.584 E18.36874
G1 X87.403 Y107.854 E18.41255
G1 X86.864 Y106.918 E18.46643
G1 X86.485 Y106.149 E18.50921
G1 X86.071 Y105.149 E18.5632
G1 X85.741 Y104.123 E18.61697
G1 X85.373 Y102.545 E18.69781
G1 X85.215 Y101.479 E18.75158
G1 X85.144 Y100.4 E18.80552
G1 X85.162 Y99.321 E18.85936
G1 X85.321 Y97.704 E18.94042
G1 X85.515 Y96.637 E18.99453
G1 X85.795 Y95.595 E19.04836
G1 X86.071 Y94.783 E19.09115
G1 X86.485 Y93.783 E19.14514
G1 X86.864 Y93.014 E19.18792
G1 X87.403 Y92.078 E19.2418
G1 X87.891 Y91.348 E19.28561
G1 X88.551 Y90.49 E19.33962
G1 X89.115 Y89.847 E19.38229
G0 F3600 X89.398 Y90.13
G1 F1800 X90.164 Y89.364 E19.43633
G1 X90.769 Y88.833 E19.47649
G1 X91.626 Y88.174 E19.53043
G1 X92.309 Y87.717 E19.57143
G1 X93.246 Y87.177 E19.62538
G1 X93.97 Y86.821 E19.66563
G1 X94.97 Y86.407 E19.71963
G1 X95.93 Y86.098 E19.76994
G1 X97.508 Y85.729 E19.85079
G1 X98.519 Y85.579 E19.90179
G1 X99.599 Y85.509 E19.95578
G1 X100.604 Y85.525 E20.00593
G1 X102.219 Y85.683 E20.08688
G1 X103.228 Y85.867 E20.13805
G1 X104.271 Y86.148 E20.19194
G1 X105.03 Y86.407 E20.23195
G1 X106.03 Y86.821 E20.28595
G1 X106.754 Y87.177 E20.3262
G1 X107.691 Y87.717 E20.38016
G1 X108.374 Y88.174 E20.42116
G1 X109.231 Y88.833 E20.47509
G1 X109.836 Y89.364 E20.51525
G1 X110.602 Y90.13 E20.5693
G1 X111.133 Y90.735 E20.60946
G1 X111.792 Y91.592 E20.66339
G1 X112.249 Y92.275 E20.70439
G1 X112.789 Y93.212 E20.75835
G1 X113.145 Y93.934 E20.79851
G1 X113.559 Y94.933 E20.85246
G1 X113.869 Y95.899 E20.90307
G1 X114.237 Y97.477 E20.98391
G1 X114.386 Y98.478 E21.0344
G1 X114.457 Y99.558 E21.0884
G1 X114.44 Y100.572 E21.139
G1 X114.281 Y102.188 E21.22001
G1 X114.099 Y103.189 E21.27077
G1 X113.819 Y104.232 E21.32464
G1 X113.559 Y104.996 E21.36491
G1 X113.145 Y105.996 E21.4189
G1 X112.79 Y106.718 E21.45904
G1 X112.251 Y107.654 E21.51293
G1 X111.792 Y108.34 E21.55411
G1 X111.132 Y109.198 E21.60811
G1 X110.602 Y109.802 E21.6482
G1 X109.836 Y110.568 E21.70225
G1 X109.231 Y111.099 E21.74241
G1 X108.374 Y111.758 E21.79635
G1 X107.691 Y112.215 E21.83734
G1 X106.754 Y112.755 E21.8913
G1 X106.03 Y113.111 E21.93155
G1 X105.03 Y113.525 E21.98555
G1 X104.066 Y113.835 E22.03607
G1 X102.488 Y114.203 E22.11691
G1 X101.487 Y114.352 E22.1674
G1 X100.407 Y114.423 E22.22139
G1 X99.393 Y114.406 E22.27199
G1 X97.778 Y114.247 E22.35295
G1 X96.777 Y114.065 E22.40371
G1 X95.734 Y113.785 E22.45759
G1 X94.97 Y113.525 E22.49785
G1 X93.97 Y113.111 E22.55185
G1 X93.246 Y112.755 E22.5921
G1 X92.309 Y112.215 E22.64605
G1 X91.626 Y111.758 E22.68705
G1 X90.769 Y111.099 E22.74099
G1 X90.164 Y110.568 E22.78115
G1 X89.398 Y109.802 E22.83519
G1 X88.868 Y109.198 E22.87528
G1 X88.208 Y108.34 E22.92929
G1 X87.749 Y107.654 E22.97047
G1 X87.21 Y106.718 E23.02435
G1 X86.855 Y105.996 E23.06449
G1 X86.441 Y104.996 E23.11849
G1 X86.131 Y104.032 E23.16901
G1 X85.763 Y102.454 E23.24985
G1 X85.614 Y101.453 E23.30034
G1 X85.543 Y100.374 E23.35429
G1 X85.56 Y99.36 E23.40488
G1 X85.719 Y97.743 E23.48595
G1 X85.901 Y96.741 E23.53675
G1 X86.181 Y95.699 E23.59058
G1 X86.441 Y94.936 E23.6308
G1 X86.855 Y93.936 E23.6848
G1 X87.21 Y93.214 E23.72493
G1 X87.749 Y92.278 E23.77882
G1 X88.208 Y91.592 E23.82
G1 X88.868 Y90.734 E23.87401
G1 X89.398 Y90.13 E23.9141
G0 F3600 X89.681 Y90.413
G1 F1800 X90.447 Y89.647 E23.96814
G1 X91.012 Y89.15 E24.00568
G1 X91.869 Y88.491 E24.05962
G1 X92.509 Y88.064 E24.098
G1 X93.446 Y87.524 E24.15196
G1 X94.123 Y87.19 E24.18962
G1 X95.123 Y86.776 E24.24362
G1 X96.021 Y86.487 E24.29068
G1 X97.599 Y86.118 E24.37153
G1 X98.545 Y85.978 E24.41924
G1 X99.625 Y85.908 E24.47323
G1 X100.565 Y85.924 E24.52014
G1 X102.18 Y86.082 E24.6011
G1 X103.124 Y86.254 E24.64897
G1 X104.167 Y86.535 E24.70286
G1 X104.877 Y86.776 E24.74027
G1 X105.877 Y87.19 E24.79426
G1 X106.554 Y87.524 E24.83192
G1 X107.491 Y88.064 E24.88588
G1 X108.131 Y88.491 E24.92426
G1 X108.988 Y89.15 E24.9782
G1 X109.553 Y89.647 E25.01574
G1 X110.319 Y90.413 E25.06979
G1 X110.816 Y90.978 E25.10733
G1 X111.475 Y91.835 E25.16126
G1 X111.902 Y92.475 E25.19965
G1 X112.442 Y93.412 E25.2536
G1 X112.775 Y94.088 E25.2912
G1 X113.189 Y95.087 E25.34515
G1 X113.479 Y95.99 E25.39246
G1 X113.847 Y97.568 E25.4733
