;FLAVOR:Marlin
;TIME:1249
;Filament used: 0.604396m
;Layer height: 0.1
;Generated with Cura_SteamEngine 3.0.4
M190 S60
M104 S195
M109 S195
M82 ; absolute extrusion mode
G21 ;metric values
G90 ;absolute positioning
M82 ;set extruder to absolute mode
M107 ;start with the fan off
G28 X0 Y0 ;move X/Y to min endstops
G28 Z0 ;move Z to min endstops
G1 Z15.0 F9000 ;move the platform down 15mm
G92 E0 ;zero the extruded length
G1 F200 E3 ;extrude 3mm of feed stock
G92 E0 ;zero the extruded length again
G1 F9000
;Put printing message on LCD screen
M117 Printing...
;LAYER_COUNT:173
;LAYER:0
M107
G0 F3600 X91.125 Y90.952 Z0.3
;TYPE:SKIRT
G1 F1800 X91.947 Y90.21 E0.05525
G1 X92.415 Y89.841 E0.08498
G1 X93.315 Y89.227 E0.13933
G1 X93.799 Y88.941 E0.16738
G1 X94.75 Y88.457 E0.22062
G1 X95.401 Y88.189 E0.25574
G1 X96.899 Y87.708 E0.33424
G1 X97.725 Y87.528 E0.37641
G1 X99.292 Y87.342 E0.45514
G1 X99.993 Y87.315 E0.49014
G1 X101.031 Y87.358 E0.54197
G1 X101.742 Y87.445 E0.5777
G1 X103.388 Y87.786 E0.66157
G1 X103.959 Y87.946 E0.69115
G1 X104.243 Y88.057 E0.70637
G1 X105.779 Y88.722 E0.78987
G1 X106.438 Y89.076 E0.82719
G1 X107.387 Y89.696 E0.88375
G1 X107.845 Y90.041 E0.91235
G1 X108.606 Y90.694 E0.96238
G1 X109.004 Y91.081 E0.99008
G1 X109.753 Y91.909 E1.04578
G1 X110.125 Y92.381 E1.07576
G1 X110.739 Y93.281 E1.13012
G1 X111.025 Y93.765 E1.15816
G1 X111.509 Y94.716 E1.2114
G1 X111.781 Y95.379 E1.24715
G1 X112.27 Y96.917 E1.32767
G1 X112.448 Y97.745 E1.36992
G1 X112.626 Y99.285 E1.44726
G1 X112.651 Y99.982 E1.48206
G1 X112.605 Y101.034 E1.5346
G1 X112.515 Y101.747 E1.57045
G1 X112.172 Y103.379 E1.65365
G1 X111.904 Y104.222 E1.69778
G1 X111.245 Y105.744 E1.78053
G1 X110.89 Y106.403 E1.81787
G1 X110.269 Y107.353 E1.87449
G1 X109.925 Y107.811 E1.90307
G1 X109.272 Y108.572 E1.9531
G1 X108.885 Y108.97 E1.98079
G1 X108.058 Y109.718 E2.03643
G1 X107.587 Y110.089 E2.06634
G1 X106.686 Y110.704 E2.12076
G1 X106.201 Y110.991 E2.14888
G1 X105.25 Y111.475 E2.20212
G1 X104.586 Y111.748 E2.23793
G1 X103.046 Y112.237 E2.31855
G1 X102.217 Y112.414 E2.36084
G1 X100.679 Y112.591 E2.43807
G1 X99.98 Y112.616 E2.47297
G1 X98.902 Y112.568 E2.5268
G1 X98.187 Y112.477 E2.56276
G1 X96.581 Y112.137 E2.64466
G1 X95.742 Y111.869 E2.6886
G1 X94.219 Y111.209 E2.77142
G1 X93.562 Y110.856 E2.80863
G1 X92.613 Y110.236 E2.86518
G1 X92.154 Y109.891 E2.89383
G1 X91.392 Y109.237 E2.94392
G1 X90.995 Y108.85 E2.97158
G1 X90.246 Y108.022 E3.02729
G1 X89.874 Y107.549 E3.05731
G1 X89.261 Y106.65 E3.1116
G1 X88.975 Y106.167 E3.1396
G1 X88.49 Y105.214 E3.19295
G1 X88.217 Y104.549 E3.22881
G1 X87.729 Y103.011 E3.30931
G1 X87.552 Y102.183 E3.35156
G1 X87.375 Y100.644 E3.42884
G1 X87.35 Y99.948 E3.46359
G1 X87.397 Y98.879 E3.51697
G1 X87.488 Y98.164 E3.55293
G1 X87.828 Y96.552 E3.63512
G1 X88.095 Y95.711 E3.67915
G1 X88.755 Y94.187 E3.762
G1 X89.11 Y93.529 E3.7993
G1 X89.731 Y92.579 E3.85593
G1 X90.075 Y92.121 E3.8845
G1 X90.734 Y91.353 E3.93499
G1 X91.125 Y90.952 E3.96293
G0 F3600 X91.393 Y91.249
G1 F1800 X92.215 Y90.507 E4.01818
G1 X92.641 Y90.172 E4.04522
G1 X93.541 Y89.558 E4.09957
G1 X93.981 Y89.297 E4.1251
G1 X94.932 Y88.813 E4.17833
G1 X95.523 Y88.57 E4.21021
G1 X97.021 Y88.089 E4.28871
G1 X97.773 Y87.925 E4.32711
G1 X99.34 Y87.739 E4.40583
G1 X99.977 Y87.714 E4.43764
G1 X101.015 Y87.757 E4.48947
G1 X101.66 Y87.837 E4.52189
G1 X103.306 Y88.178 E4.60576
G1 X104.084 Y88.424 E4.64646
G1 X105.62 Y89.089 E4.72997
G1 X106.219 Y89.411 E4.7639
G1 X107.168 Y90.031 E4.82045
G1 X107.585 Y90.344 E4.84647
G1 X108.346 Y90.997 E4.89649
G1 X108.707 Y91.35 E4.92168
G1 X109.456 Y92.178 E4.97739
G1 X109.794 Y92.607 E5.00463
G1 X110.408 Y93.507 E5.05899
G1 X110.669 Y93.947 E5.08451
G1 X111.153 Y94.898 E5.13775
G1 X111.4 Y95.5 E5.17021
G1 X111.889 Y97.038 E5.25073
G1 X112.051 Y97.791 E5.28916
G1 X112.229 Y99.331 E5.3665
G1 X112.251 Y99.965 E5.39815
G1 X112.205 Y101.017 E5.45068
G1 X112.123 Y101.665 E5.48327
G1 X111.78 Y103.297 E5.56647
G1 X111.537 Y104.063 E5.60656
G1 X110.878 Y105.585 E5.68931
G1 X110.555 Y106.185 E5.7233
G1 X109.934 Y107.135 E5.77993
G1 X109.622 Y107.551 E5.80587
G1 X108.969 Y108.312 E5.8559
G1 X108.616 Y108.674 E5.88112
G1 X107.789 Y109.422 E5.93675
G1 X107.361 Y109.759 E5.96393
G1 X106.46 Y110.374 E6.01836
G1 X106.019 Y110.635 E6.04392
G1 X105.068 Y111.119 E6.09716
G1 X104.465 Y111.366 E6.12967
G1 X102.925 Y111.855 E6.21028
G1 X102.171 Y112.017 E6.24876
G1 X100.633 Y112.194 E6.32599
G1 X99.998 Y112.216 E6.35769
G1 X98.92 Y112.168 E6.41153
G1 X98.27 Y112.085 E6.44422
G1 X96.664 Y111.745 E6.52612
G1 X95.902 Y111.502 E6.56602
G1 X94.379 Y110.842 E6.64883
G1 X93.781 Y110.521 E6.68269
G1 X92.832 Y109.901 E6.73925
G1 X92.415 Y109.587 E6.76529
G1 X91.653 Y108.933 E6.81539
G1 X91.292 Y108.581 E6.84054
G1 X90.543 Y107.753 E6.89625
G1 X90.204 Y107.323 E6.92356
G1 X89.591 Y106.424 E6.97785
G1 X89.331 Y105.985 E7.0033
G1 X88.846 Y105.032 E7.05665
G1 X88.598 Y104.428 E7.08923
G1 X88.11 Y102.89 E7.16973
G1 X87.949 Y102.137 E7.20815
G1 X87.772 Y100.598 E7.28543
G1 X87.75 Y99.965 E7.31703
G1 X87.797 Y98.896 E7.37042
G1 X87.879 Y98.246 E7.4031
G1 X88.219 Y96.634 E7.48529
G1 X88.462 Y95.87 E7.52529
G1 X89.122 Y94.346 E7.60815
G1 X89.445 Y93.747 E7.6421
G1 X90.066 Y92.797 E7.69872
G1 X90.378 Y92.381 E7.72467
G1 X91.037 Y91.613 E7.77516
G1 X91.393 Y91.249 E7.80056
G0 F3600 X91.661 Y91.546
G1 F1800 X92.483 Y90.804 E7.8558
G1 X92.866 Y90.502 E7.88014
G1 X93.766 Y89.888 E7.93449
G1 X94.162 Y89.654 E7.95744
G1 X95.113 Y89.17 E8.01068
G1 X95.645 Y88.95 E8.0394
G1 X97.143 Y88.469 E8.11789
G1 X97.82 Y88.322 E8.15245
G1 X99.387 Y88.136 E8.23118
G1 X99.96 Y88.114 E8.25979
G1 X100.998 Y88.157 E8.31162
G1 X101.579 Y88.229 E8.34083
G1 X103.225 Y88.57 E8.42469
G1 X103.925 Y88.791 E8.46131
G1 X105.461 Y89.456 E8.54482
G1 X106 Y89.746 E8.57535
G1 X106.949 Y90.366 E8.63191
G1 X107.324 Y90.648 E8.65532
G1 X108.085 Y91.301 E8.70534
G1 X108.411 Y91.618 E8.72803
G1 X109.16 Y92.446 E8.78373
G1 X109.464 Y92.832 E8.80825
G1 X110.078 Y93.732 E8.8626
G1 X110.312 Y94.128 E8.88555
G1 X110.796 Y95.079 E8.93879
G1 X111.019 Y95.621 E8.96803
G1 X111.508 Y97.159 E9.04854
G1 X111.653 Y97.837 E9.08313
G1 X111.831 Y99.377 E9.16047
G1 X111.852 Y99.947 E9.18893
G1 X111.806 Y100.999 E9.24147
G1 X111.732 Y101.582 E9.27079
G1 X111.389 Y103.214 E9.35399
G1 X111.17 Y103.904 E9.3901
G1 X110.511 Y105.426 E9.47285
G1 X110.22 Y105.966 E9.50345
G1 X109.599 Y106.916 E9.56007
G1 X109.318 Y107.29 E9.58341
G1 X108.665 Y108.051 E9.63344
G1 X108.348 Y108.377 E9.65613
G1 X107.521 Y109.125 E9.71176
G1 X107.136 Y109.428 E9.7362
G1 X106.235 Y110.043 E9.79063
G1 X105.838 Y110.278 E9.81364
G1 X104.887 Y110.762 E9.86688
G1 X104.344 Y110.985 E9.89616
G1 X102.804 Y111.474 E9.97678
G1 X102.126 Y111.619 E10.01137
G1 X100.588 Y111.796 E10.0886
G1 X100.016 Y111.816 E10.11716
G1 X98.938 Y111.768 E10.17099
G1 X98.352 Y111.694 E10.20046
G1 X96.746 Y111.354 E10.28236
G1 X96.061 Y111.135 E10.31824
G1 X94.538 Y110.475 E10.40105
G1 X94 Y110.186 E10.43152
G1 X93.051 Y109.566 E10.48807
G1 X92.675 Y109.284 E10.51152
G1 X91.913 Y108.63 E10.56162
G1 X91.588 Y108.313 E10.58427
G1 X90.839 Y107.485 E10.63997
G1 X90.535 Y107.098 E10.66452
G1 X89.922 Y106.199 E10.71881
G1 X89.688 Y105.804 E10.74172
G1 X89.203 Y104.851 E10.79506
G1 X88.98 Y104.307 E10.8244
G1 X88.492 Y102.769 E10.9049
G1 X88.347 Y102.091 E10.93949
G1 X88.17 Y100.552 E11.01677
G1 X88.149 Y99.983 E11.04518
G1 X88.196 Y98.914 E11.09857
G1 X88.27 Y98.329 E11.12798
G1 X88.61 Y96.717 E11.21018
G1 X88.829 Y96.029 E11.2462
G1 X89.489 Y94.505 E11.32905
G1 X89.78 Y93.966 E11.35961
G1 X90.401 Y93.016 E11.41624
G1 X90.682 Y92.642 E11.43958
G1 X91.341 Y91.874 E11.49006
G1 X91.661 Y91.546 E11.51293
G0 F3600 X91.929 Y91.843
G1 F1800 X92.751 Y91.101 E11.56817
G1 X93.092 Y90.833 E11.58981
G1 X93.992 Y90.219 E11.64417
G1 X94.344 Y90.01 E11.66459
G1 X95.295 Y89.526 E11.71783
G1 X95.768 Y89.331 E11.74335
G1 X97.266 Y88.85 E11.82184
G1 X97.867 Y88.719 E11.85253
G1 X99.434 Y88.533 E11.93126
G1 X99.943 Y88.514 E11.95667
G1 X100.981 Y88.557 E12.0085
G1 X101.498 Y88.621 E12.03449
G1 X103.144 Y88.962 E12.11835
G1 X103.766 Y89.158 E12.15089
G1 X105.302 Y89.823 E12.23439
G1 X105.781 Y90.081 E12.26154
G1 X106.73 Y90.701 E12.31809
G1 X107.064 Y90.952 E12.33894
G1 X107.825 Y91.605 E12.38896
G1 X108.114 Y91.886 E12.40908
G1 X108.863 Y92.714 E12.46478
G1 X109.133 Y93.058 E12.4866
G1 X109.747 Y93.958 E12.54095
G1 X109.956 Y94.31 E12.56137
G1 X110.44 Y95.261 E12.61461
G1 X110.638 Y95.742 E12.64056
G1 X111.127 Y97.28 E12.72108
G1 X111.256 Y97.883 E12.75184
G1 X111.434 Y99.423 E12.82918
G1 X111.452 Y99.93 E12.85449
G1 X111.406 Y100.982 E12.90703
G1 X111.341 Y101.5 E12.93308
G1 X110.998 Y103.132 E13.01627
G1 X110.803 Y103.745 E13.04837
G1 X110.144 Y105.267 E13.13111
G1 X109.886 Y105.747 E13.1583
G1 X109.265 Y106.697 E13.21492
G1 X109.014 Y107.03 E13.23573
G1 X108.361 Y107.791 E13.28576
G1 X108.08 Y108.08 E13.30587
G1 X107.253 Y108.828 E13.3615
G1 X106.91 Y109.098 E13.38328
G1 X106.009 Y109.713 E13.4377
G1 X105.656 Y109.922 E13.45817
G1 X104.705 Y110.406 E13.5114
G1 X104.222 Y110.604 E13.53745
G1 X102.682 Y111.093 E13.61806
G1 X102.08 Y111.222 E13.64877
G1 X100.542 Y111.399 E13.72601
G1 X100.034 Y111.417 E13.75137
G1 X98.956 Y111.369 E13.80521
G1 X98.435 Y111.303 E13.83141
G1 X96.829 Y110.963 E13.91331
G1 X96.22 Y110.768 E13.94521
G1 X94.697 Y110.108 E14.02802
G1 X94.219 Y109.851 E14.0551
G1 X93.27 Y109.231 E14.11165
G1 X92.936 Y108.98 E14.13249
G1 X92.174 Y108.326 E14.18259
G1 X91.885 Y108.045 E14.2027
G1 X91.136 Y107.217 E14.25841
G1 X90.865 Y106.873 E14.28025
G1 X90.252 Y105.974 E14.33454
G1 X90.044 Y105.622 E14.35494
G1 X89.559 Y104.669 E14.40829
G1 X89.361 Y104.186 E14.43433
G1 X88.873 Y102.648 E14.51483
G1 X88.744 Y102.046 E14.54555
G1 X88.567 Y100.507 E14.62283
G1 X88.549 Y100 E14.64814
G1 X88.596 Y98.931 E14.70153
G1 X88.662 Y98.412 E14.72763
G1 X89.002 Y96.8 E14.80982
G1 X89.197 Y96.188 E14.84187
G1 X89.857 Y94.664 E14.92472
G1 X90.114 Y94.185 E14.95184
G1 X90.735 Y93.235 E15.00847
G1 X90.985 Y92.902 E15.02924
G1 X91.644 Y92.134 E15.07973
G1 X91.929 Y91.843 E15.10005
G1 F1500 E8.60005
G0 F3600 X93.724 Y93.609
G0 X94.602 Y94.545
G0 X94.658 Y94.601
G0 X94.588 Y94.531
;TYPE:WALL-INNER
G1 F1500 E15.10005
G1 F1800 X94.933 Y94.208 E15.12363
G1 X95.346 Y93.87 E15.15025
G1 X95.733 Y93.591 E15.17406
G1 X96.173 Y93.319 E15.19986
G1 X96.61 Y93.086 E15.22457
G1 X97.059 Y92.883 E15.24915
G1 X97.534 Y92.703 E15.2745
G1 X98.003 Y92.561 E15.29894
G1 X98.512 Y92.442 E15.32502
G1 X99.002 Y92.361 E15.3498
G1 X99.489 Y92.314 E15.37421
G1 X100 Y92.296 E15.39972
G1 X100.511 Y92.314 E15.42523
G1 X100.998 Y92.361 E15.44964
G1 X101.488 Y92.442 E15.47442
G1 X101.997 Y92.561 E15.5005
G1 X102.466 Y92.703 E15.52494
G1 X102.941 Y92.883 E15.55029
G1 X103.39 Y93.086 E15.57487
G1 X103.827 Y93.319 E15.59958
G1 X104.267 Y93.591 E15.62538
G1 X104.654 Y93.87 E15.64919
G1 X105.067 Y94.208 E15.67581
G1 X105.412 Y94.531 E15.69939
G1 X105.765 Y94.907 E15.72512
G1 X106.096 Y95.312 E15.75122
G1 X106.375 Y95.699 E15.77502
G1 X106.643 Y96.132 E15.80042
G1 X106.882 Y96.579 E15.82571
G1 X107.083 Y97.024 E15.85007
G1 X107.261 Y97.494 E15.87515
G1 X107.406 Y97.972 E15.90007
G1 X107.521 Y98.471 E15.92561
G1 X107.605 Y98.972 E15.95096
G1 X107.652 Y99.445 E15.97467
G1 X107.67 Y99.959 E16.00033
G1 X107.652 Y100.474 E16.02604
G1 X107.605 Y100.958 E16.0503
G1 X107.521 Y101.46 E16.07569
G1 X107.406 Y101.96 E16.10129
G1 X107.263 Y102.432 E16.1259
G1 X107.083 Y102.907 E16.15124
G1 X106.88 Y103.356 E16.17582
G1 X106.647 Y103.793 E16.20053
G1 X106.375 Y104.233 E16.22634
G1 X106.096 Y104.62 E16.25014
G1 X105.761 Y105.03 E16.27655
G1 X105.432 Y105.38 E16.30052
G1 X105.059 Y105.731 E16.32607
G1 X104.657 Y106.059 E16.35196
G1 X104.261 Y106.345 E16.37633
G1 X103.842 Y106.604 E16.4009
G1 X103.384 Y106.849 E16.42681
G1 X102.946 Y107.047 E16.4508
G1 X102.462 Y107.23 E16.47661
G1 X101.994 Y107.372 E16.50101
G1 X101.494 Y107.487 E16.52661
G1 X100.997 Y107.57 E16.55175
G1 X100.51 Y107.618 E16.57616
G1 X100 Y107.636 E16.60162
G1 X99.49 Y107.618 E16.62708
G1 X99.003 Y107.57 E16.65149
G1 X98.506 Y107.487 E16.67663
G1 X98.006 Y107.372 E16.70223
G1 X97.538 Y107.23 E16.72663
G1 X97.054 Y107.047 E16.75244
G1 X96.616 Y106.849 E16.77643
G1 X96.158 Y106.604 E16.80234
G1 X95.739 Y106.345 E16.82691
G1 X95.343 Y106.059 E16.85128
G1 X94.941 Y105.731 E16.87717
G1 X94.568 Y105.38 E16.90272
G1 X94.239 Y105.03 E16.92669
G1 X93.904 Y104.62 E16.9531
G1 X93.625 Y104.233 E16.9769
G1 X93.353 Y103.793 E17.00271
G1 X93.12 Y103.356 E17.02742
G1 X92.917 Y102.907 E17.052
G1 X92.737 Y102.432 E17.07734
G1 X92.594 Y101.96 E17.10195
G1 X92.479 Y101.46 E17.12755
G1 X92.395 Y100.958 E17.15294
G1 X92.348 Y100.475 E17.17715
G1 X92.33 Y99.972 E17.20226
G1 X92.348 Y99.445 E17.22857
G1 X92.395 Y98.972 E17.25228
G1 X92.479 Y98.471 E17.27763
G1 X92.594 Y97.972 E17.30317
G1 X92.739 Y97.494 E17.32809
G1 X92.917 Y97.024 E17.35317
G1 X93.118 Y96.579 E17.37753
G1 X93.357 Y96.132 E17.40282
G1 X93.625 Y95.699 E17.42822
G1 X93.904 Y95.312 E17.45203
G1 X94.235 Y94.907 E17.47812
G1 X94.588 Y94.531 E17.50385
G0 F3600 X94.658 Y94.601
G0 X95.448 Y95.194
G0 X95.516 Y95.266
G1 F1800 X95.231 Y95.555 E17.5241
G1 X94.967 Y95.859 E17.54419
G1 X94.721 Y96.18 E17.56436
G1 X94.496 Y96.517 E17.58458
G1 X94.292 Y96.865 E17.60471
G1 X94.111 Y97.225 E17.62481
G1 X93.952 Y97.598 E17.64504
G1 X93.815 Y97.979 E17.66524
G1 X93.704 Y98.368 E17.68542
G1 X93.617 Y98.761 E17.7055
G1 X93.554 Y99.16 E17.72565
G1 X93.517 Y99.562 E17.74579
G1 X93.504 Y99.966 E17.76596
G1 X93.517 Y100.37 E17.78613
G1 X93.553 Y100.772 E17.80626
G1 X93.617 Y101.171 E17.82642
G1 X93.704 Y101.564 E17.8465
G1 X93.815 Y101.953 E17.86669
G1 X93.952 Y102.335 E17.88693
G1 X94.111 Y102.706 E17.90707
G1 X94.292 Y103.066 E17.92717
G1 X94.496 Y103.415 E17.94734
G1 X94.721 Y103.753 E17.9676
G1 X94.966 Y104.07 E17.98759
G1 X95.23 Y104.378 E18.00783
G1 X95.517 Y104.665 E18.02807
G1 X95.816 Y104.934 E18.04814
G1 X96.134 Y105.185 E18.06835
G1 X96.465 Y105.416 E18.08849
G1 X96.812 Y105.625 E18.1087
G1 X97.17 Y105.812 E18.12885
G1 X97.537 Y105.976 E18.1489
G1 X97.916 Y106.118 E18.1691
G1 X98.304 Y106.236 E18.18933
G1 X98.697 Y106.329 E18.20948
G1 X99.094 Y106.397 E18.22957
G1 X99.495 Y106.442 E18.2497
G1 X99.901 Y106.461 E18.26998
G1 X100.301 Y106.455 E18.28994
G1 X100.706 Y106.424 E18.3102
G1 X101.105 Y106.366 E18.33032
G1 X101.5 Y106.286 E18.35043
G1 X101.892 Y106.18 E18.37069
G1 X102.273 Y106.05 E18.39077
G1 X102.648 Y105.898 E18.41096
G1 X103.012 Y105.72 E18.43117
G1 X103.365 Y105.522 E18.45137
G1 X103.702 Y105.302 E18.47144
G1 X104.027 Y105.062 E18.4916
G1 X104.335 Y104.802 E18.51171
G1 X104.628 Y104.524 E18.53186
G1 X104.903 Y104.227 E18.55205
G1 X105.159 Y103.913 E18.57227
G1 X105.394 Y103.584 E18.59244
G1 X105.609 Y103.243 E18.61255
G1 X105.801 Y102.887 E18.63273
G1 X105.972 Y102.521 E18.65288
G1 X106.118 Y102.144 E18.67305
G1 X106.243 Y101.76 E18.6932
G1 X106.342 Y101.369 E18.71332
G1 X106.417 Y100.972 E18.73348
G1 X106.467 Y100.57 E18.75369
G1 X106.493 Y100.168 E18.77379
G1 X106.493 Y99.764 E18.79394
G1 X106.467 Y99.361 E18.81409
G1 X106.417 Y98.96 E18.83425
G1 X106.342 Y98.563 E18.85441
G1 X106.243 Y98.172 E18.87453
G1 X106.118 Y97.788 E18.89468
G1 X105.972 Y97.411 E18.91485
G1 X105.801 Y97.044 E18.93505
G1 X105.609 Y96.689 E18.95518
G1 X105.394 Y96.346 E18.97538
G1 X105.159 Y96.018 E18.99551
G1 X104.903 Y95.705 E19.01568
G1 X104.628 Y95.408 E19.03588
G1 X104.335 Y95.13 E19.05603
G1 X104.027 Y94.87 E19.07614
G1 X103.702 Y94.63 E19.09629
G1 X103.365 Y94.41 E19.11637
G1 X103.012 Y94.212 E19.13656
G1 X102.648 Y94.034 E19.15678
G1 X102.273 Y93.882 E19.17697
G1 X101.891 Y93.752 E19.1971
G1 X101.5 Y93.646 E19.21731
G1 X101.105 Y93.566 E19.23741
G1 X100.706 Y93.508 E19.25753
G1 X100.301 Y93.477 E19.27779
G1 X99.901 Y93.471 E19.29775
G1 X99.496 Y93.49 E19.31798
G1 X99.094 Y93.534 E19.33816
G1 X98.697 Y93.603 E19.35826
G1 X98.304 Y93.696 E19.37841
G1 X97.917 Y93.813 E19.39858
G1 X97.537 Y93.955 E19.41882
G1 X97.169 Y94.12 E19.43894
G1 X96.812 Y94.307 E19.45904
G1 X96.465 Y94.516 E19.47925
