;FLAVOR:RepRap
;TIME:1315
;Filament used: 0.610961m
;Layer height: 0.1
;Generated with Cura_SteamEngine 2.5.0
M190 S60
M104 S200
M109 S200
G21 ;metric values
G90 ;absolute positioning
M82 ;set extruder to absolute mode
M107 ;start with the fan off
G28 X0 Y0 ;move X/Y to min endstops
G28 Z0 ;move Z to min endstops
G1 Z15.0 F9000 ;move the platform down 15mm
G92 E0 ;zero the extruded length
G1 F200 E3 ;extrude 3mm of feed stock
G92 E0 ;zero the extruded length again
G1 F9000
;Put printing message on LCD screen
M117 Printing...
;LAYER_COUNT:173
;LAYER:0
M107
G0 F3600 X91.837 Y91.345 Z0.3
;TYPE:SKIRT
G1 F1800 X92.384 Y90.862 E0.03641
G1 X93.511 Y90.021 E0.10656
G1 X94.248 Y89.575 E0.14954
G1 X95.561 Y88.949 E0.22211
G1 X96.242 Y88.692 E0.25842
G1 X97.19 Y88.42 E0.30763
G1 X97.774 Y88.294 E0.33743
G1 X98.826 Y88.142 E0.39046
G1 X99.451 Y88.097 E0.42173
G1 X100.526 Y88.096 E0.47536
G1 X101.054 Y88.127 E0.50175
G1 X101.787 Y88.215 E0.53858
G1 X102.46 Y88.35 E0.57282
G1 X103.999 Y88.785 E0.65261
G1 X104.737 Y89.067 E0.69203
G1 X105.699 Y89.538 E0.74546
G1 X106.33 Y89.916 E0.78216
G1 X107.49 Y90.749 E0.85341
G1 X107.982 Y91.159 E0.88536
G1 X108.522 Y91.681 E0.92283
G1 X108.867 Y92.056 E0.94825
G1 X109.508 Y92.838 E0.9987
G1 X109.871 Y93.352 E1.03009
G1 X110.443 Y94.299 E1.08529
G1 X110.788 Y95.006 E1.12454
G1 X111.352 Y96.485 E1.20351
G1 X111.565 Y97.236 E1.24245
G1 X111.765 Y98.295 E1.29622
G1 X111.837 Y98.921 E1.32766
G1 X111.883 Y99.978 E1.38044
G1 X111.853 Y100.717 E1.41734
G1 X111.672 Y102.159 E1.48985
G1 X111.518 Y102.884 E1.52683
G1 X111.213 Y103.893 E1.57941
G1 X111.037 Y104.373 E1.60492
G1 X110.739 Y105.059 E1.64223
G1 X110.439 Y105.631 E1.67446
G1 X109.691 Y106.833 E1.74509
G1 X109.329 Y107.332 E1.77585
G1 X108.887 Y107.86 E1.8102
G1 X108.445 Y108.316 E1.84188
G1 X107.371 Y109.276 E1.91375
G1 X106.789 Y109.716 E1.95015
G1 X105.89 Y110.284 E2.0032
G1 X105.351 Y110.574 E2.03374
G1 X104.403 Y111.002 E2.08563
G1 X103.842 Y111.211 E2.1155
G1 X103.025 Y111.453 E2.15801
G1 X102.403 Y111.589 E2.18978
G1 X100.919 Y111.803 E2.26458
G1 X100.07 Y111.842 E2.30698
G1 X98.719 Y111.774 E2.37447
G1 X98.035 Y111.686 E2.40887
G1 X97.188 Y111.508 E2.45205
G1 X96.648 Y111.358 E2.48001
G1 X95.495 Y110.957 E2.54092
G1 X94.949 Y110.725 E2.57051
G1 X94.677 Y110.575 E2.58601
G1 X93.146 Y109.657 E2.67507
G1 X92.659 Y109.318 E2.70468
G1 X92.395 Y109.089 E2.72211
G1 X91.361 Y108.117 E2.79291
G1 X90.927 Y107.644 E2.82494
G1 X90.461 Y107.056 E2.86237
G1 X90.104 Y106.532 E2.894
G1 X89.394 Y105.309 E2.96455
G1 X89.056 Y104.581 E3.0046
G1 X88.608 Y103.328 E3.07099
G1 X88.425 Y102.649 E3.10607
G1 X88.231 Y101.603 E3.15915
G1 X88.16 Y100.973 E3.19078
G1 X88.118 Y99.897 E3.2445
G1 X88.138 Y99.277 E3.27545
G1 X88.245 Y98.231 E3.3279
G1 X88.354 Y97.611 E3.35931
G1 X88.618 Y96.556 E3.41357
G1 X88.875 Y95.816 E3.45265
G1 X89.525 Y94.374 E3.53156
G1 X89.908 Y93.692 E3.57059
G1 X90.512 Y92.812 E3.62383
G1 X90.962 Y92.259 E3.6594
G1 X91.837 Y91.345 E3.72253
G0 F3600 X92.126 Y91.622
G1 F1800 X92.623 Y91.182 E3.75565
G1 X93.75 Y90.341 E3.8258
G1 X94.421 Y89.936 E3.86491
G1 X95.734 Y89.31 E3.93748
G1 X96.352 Y89.076 E3.97044
G1 X97.3 Y88.804 E4.01965
G1 X97.831 Y88.69 E4.04674
G1 X98.883 Y88.538 E4.09977
G1 X99.451 Y88.497 E4.12818
G1 X100.526 Y88.496 E4.18182
G1 X101.007 Y88.525 E4.20586
G1 X101.74 Y88.613 E4.24269
G1 X102.351 Y88.735 E4.27377
G1 X103.89 Y89.17 E4.35356
G1 X104.561 Y89.426 E4.38939
G1 X105.523 Y89.897 E4.44283
G1 X106.097 Y90.241 E4.47622
G1 X107.257 Y91.074 E4.54746
G1 X107.704 Y91.447 E4.57651
G1 X108.244 Y91.969 E4.61398
G1 X108.558 Y92.309 E4.63707
G1 X109.199 Y93.091 E4.68752
G1 X109.529 Y93.559 E4.71609
G1 X110.101 Y94.506 E4.77128
G1 X110.414 Y95.149 E4.80696
G1 X110.978 Y96.628 E4.88593
G1 X111.172 Y97.311 E4.92135
G1 X111.372 Y98.37 E4.97512
G1 X111.437 Y98.938 E5.00364
G1 X111.483 Y99.995 E5.05643
G1 X111.456 Y100.667 E5.08998
G1 X111.275 Y102.109 E5.16249
G1 X111.135 Y102.768 E5.1961
G1 X110.83 Y103.777 E5.24869
G1 X110.67 Y104.214 E5.2719
G1 X110.372 Y104.9 E5.30922
G1 X110.099 Y105.419 E5.33848
G1 X109.351 Y106.621 E5.40911
G1 X109.022 Y107.076 E5.43712
G1 X108.58 Y107.604 E5.47147
G1 X108.179 Y108.018 E5.50023
G1 X107.105 Y108.978 E5.5721
G1 X106.576 Y109.378 E5.60518
G1 X105.677 Y109.946 E5.65824
G1 X105.186 Y110.21 E5.68605
G1 X104.238 Y110.638 E5.73794
G1 X103.728 Y110.827 E5.76508
G1 X102.911 Y111.069 E5.80759
G1 X102.346 Y111.193 E5.83645
G1 X100.862 Y111.407 E5.91125
G1 X100.09 Y111.443 E5.94981
G1 X98.739 Y111.375 E6.01729
G1 X98.117 Y111.294 E6.04859
G1 X97.27 Y111.116 E6.09177
G1 X96.779 Y110.98 E6.11719
G1 X95.626 Y110.579 E6.17809
G1 X94.883 Y110.232 E6.219
G1 X93.352 Y109.314 E6.30806
G1 X92.889 Y108.989 E6.33628
G1 X92.669 Y108.797 E6.35085
G1 X91.635 Y107.825 E6.42165
G1 X91.24 Y107.395 E6.45078
G1 X90.774 Y106.807 E6.48821
G1 X90.45 Y106.331 E6.51694
G1 X89.74 Y105.108 E6.58749
G1 X89.433 Y104.447 E6.62385
G1 X88.985 Y103.194 E6.69024
G1 X88.818 Y102.576 E6.72218
G1 X88.624 Y101.53 E6.77525
G1 X88.56 Y100.957 E6.80402
G1 X88.518 Y99.881 E6.85774
G1 X88.536 Y99.318 E6.88584
G1 X88.643 Y98.272 E6.9383
G1 X88.742 Y97.708 E6.96687
G1 X89.006 Y96.653 E7.02113
G1 X89.239 Y95.98 E7.05666
G1 X89.889 Y94.538 E7.13557
G1 X90.238 Y93.918 E7.17107
G1 X90.842 Y93.038 E7.22432
G1 X91.251 Y92.536 E7.25662
G1 X92.126 Y91.622 E7.31975
G0 F3600 X92.415 Y91.899
G1 F1800 X92.862 Y91.503 E7.34954
G1 X93.989 Y90.662 E7.4197
G1 X94.593 Y90.297 E7.45491
G1 X95.906 Y89.671 E7.52748
G1 X96.462 Y89.461 E7.55713
G1 X97.41 Y89.189 E7.60633
G1 X97.888 Y89.086 E7.63073
G1 X98.94 Y88.934 E7.68376
G1 X99.452 Y88.897 E7.70937
G1 X100.527 Y88.896 E7.763
G1 X100.959 Y88.922 E7.78459
G1 X101.692 Y89.01 E7.82142
G1 X102.242 Y89.12 E7.84941
G1 X103.781 Y89.555 E7.92919
G1 X104.385 Y89.786 E7.96146
G1 X105.347 Y90.257 E8.01489
G1 X105.864 Y90.566 E8.04494
G1 X107.024 Y91.399 E8.11619
G1 X107.426 Y91.735 E8.14233
G1 X107.966 Y92.257 E8.1798
G1 X108.248 Y92.563 E8.20056
G1 X108.889 Y93.345 E8.25101
G1 X109.187 Y93.766 E8.27674
G1 X109.759 Y94.713 E8.33194
G1 X110.041 Y95.291 E8.36402
G1 X110.605 Y96.77 E8.44299
G1 X110.778 Y97.385 E8.47487
G1 X110.978 Y98.444 E8.52863
G1 X111.038 Y98.955 E8.5543
G1 X111.084 Y100.012 E8.60709
G1 X111.059 Y100.617 E8.6373
G1 X110.878 Y102.059 E8.7098
G1 X110.752 Y102.653 E8.7401
G1 X110.447 Y103.662 E8.79269
G1 X110.303 Y104.054 E8.81352
G1 X110.005 Y104.74 E8.85083
G1 X109.76 Y105.208 E8.87719
G1 X109.012 Y106.41 E8.94782
G1 X108.715 Y106.819 E8.97304
G1 X108.273 Y107.347 E9.00739
G1 X107.912 Y107.72 E9.03329
G1 X106.838 Y108.68 E9.10516
G1 X106.362 Y109.039 E9.1349
G1 X105.463 Y109.607 E9.18795
G1 X105.021 Y109.845 E9.213
G1 X104.073 Y110.273 E9.26489
G1 X103.614 Y110.444 E9.28933
G1 X102.797 Y110.686 E9.33184
G1 X102.289 Y110.797 E9.35778
G1 X100.805 Y111.011 E9.43259
G1 X100.11 Y111.043 E9.4673
G1 X98.759 Y110.975 E9.53478
G1 X98.2 Y110.903 E9.5629
G1 X97.353 Y110.725 E9.60608
G1 X96.91 Y110.602 E9.62902
G1 X95.757 Y110.201 E9.68992
G1 X95.089 Y109.889 E9.7267
G1 X93.558 Y108.971 E9.81577
G1 X92.943 Y108.506 E9.85423
G1 X91.909 Y107.534 E9.92503
G1 X91.554 Y107.147 E9.95123
G1 X91.088 Y106.559 E9.98866
G1 X90.796 Y106.13 E10.01455
G1 X90.086 Y104.907 E10.08511
G1 X89.809 Y104.312 E10.11785
G1 X89.361 Y103.059 E10.18424
G1 X89.211 Y102.503 E10.21297
G1 X89.017 Y101.457 E10.26604
G1 X88.96 Y100.941 E10.29194
G1 X88.918 Y99.865 E10.34567
G1 X88.934 Y99.359 E10.37092
G1 X89.041 Y98.313 E10.42338
G1 X89.13 Y97.805 E10.44911
G1 X89.394 Y96.75 E10.50337
G1 X89.604 Y96.145 E10.53532
G1 X90.254 Y94.703 E10.61423
G1 X90.568 Y94.145 E10.64617
G1 X91.172 Y93.265 E10.69942
G1 X91.54 Y92.813 E10.7285
G1 X92.415 Y91.899 E10.79163
G0 F3600 X92.703 Y92.175
G1 F1800 X93.101 Y91.823 E10.81814
G1 X94.228 Y90.982 E10.88829
G1 X94.765 Y90.658 E10.91958
G1 X96.078 Y90.032 E10.99215
G1 X96.572 Y89.845 E11.01851
G1 X97.52 Y89.573 E11.06771
G1 X97.945 Y89.482 E11.08939
G1 X98.997 Y89.33 E11.14242
G1 X99.452 Y89.297 E11.16518
G1 X100.527 Y89.296 E11.21882
G1 X100.911 Y89.319 E11.23801
G1 X101.644 Y89.407 E11.27484
G1 X102.133 Y89.505 E11.29972
G1 X103.672 Y89.94 E11.37951
G1 X104.209 Y90.145 E11.40819
G1 X105.171 Y90.616 E11.46163
G1 X105.631 Y90.891 E11.48836
G1 X106.791 Y91.724 E11.55961
G1 X107.148 Y92.022 E11.58281
G1 X107.688 Y92.544 E11.62028
G1 X107.939 Y92.816 E11.63875
G1 X108.58 Y93.598 E11.68919
G1 X108.844 Y93.973 E11.71207
G1 X109.416 Y94.92 E11.76727
G1 X109.667 Y95.434 E11.79581
G1 X110.231 Y96.913 E11.87478
G1 X110.385 Y97.459 E11.90308
G1 X110.585 Y98.518 E11.95685
G1 X110.638 Y98.973 E11.9797
G1 X110.684 Y100.03 E12.03249
G1 X110.662 Y100.568 E12.05935
G1 X110.481 Y102.01 E12.13186
G1 X110.369 Y102.537 E12.15873
G1 X110.064 Y103.546 E12.21132
G1 X109.936 Y103.895 E12.22987
G1 X109.638 Y104.581 E12.26718
G1 X109.42 Y104.997 E12.29061
G1 X108.672 Y106.199 E12.36125
G1 X108.409 Y106.562 E12.38361
G1 X107.967 Y107.09 E12.41796
G1 X107.646 Y107.422 E12.441
G1 X106.572 Y108.382 E12.51287
G1 X106.148 Y108.701 E12.53934
G1 X105.249 Y109.269 E12.5924
G1 X104.857 Y109.481 E12.61463
G1 X103.909 Y109.909 E12.66652
G1 X103.501 Y110.06 E12.68823
G1 X102.684 Y110.302 E12.73074
G1 X102.232 Y110.401 E12.75382
G1 X100.748 Y110.615 E12.82863
G1 X100.13 Y110.644 E12.85949
G1 X98.779 Y110.576 E12.92698
G1 X98.282 Y110.512 E12.95198
G1 X97.435 Y110.334 E12.99516
G1 X97.042 Y110.224 E13.01552
G1 X95.889 Y109.823 E13.07642
G1 X95.294 Y109.545 E13.10919
G1 X93.763 Y108.627 E13.19825
G1 X93.217 Y108.215 E13.23237
G1 X92.183 Y107.243 E13.30317
G1 X91.867 Y106.899 E13.32648
G1 X91.401 Y106.311 E13.36391
G1 X91.142 Y105.93 E13.38689
G1 X90.432 Y104.707 E13.45745
G1 X90.186 Y104.177 E13.4866
G1 X89.738 Y102.924 E13.55298
G1 X89.605 Y102.431 E13.57846
G1 X89.411 Y101.385 E13.63153
G1 X89.359 Y100.926 E13.65458
G1 X89.317 Y99.85 E13.7083
G1 X89.332 Y99.399 E13.73082
G1 X89.439 Y98.353 E13.78327
G1 X89.518 Y97.902 E13.80612
G1 X89.782 Y96.847 E13.86037
G1 X89.969 Y96.309 E13.88879
G1 X90.619 Y94.867 E13.9677
G1 X90.898 Y94.371 E13.99609
G1 X91.502 Y93.491 E14.04934
G1 X91.828 Y93.089 E14.07517
G1 X92.703 Y92.175 E14.13829
G1 F1500 E7.63829
G0 F3600 X94.399 Y94.034
G0 X95.256 Y94.963
G0 X95.22 Y95.131
G0 X95.15 Y95.06
;TYPE:WALL-INNER
G1 F1500 E14.13829
G1 F1800 X95.519 Y94.722 E14.16326
G1 X95.902 Y94.417 E14.18769
G1 X96.295 Y94.148 E14.21145
G1 X96.747 Y93.884 E14.23756
G1 X97.173 Y93.674 E14.26126
G1 X97.645 Y93.482 E14.28668
G1 X98.088 Y93.338 E14.30992
G1 X98.527 Y93.227 E14.33251
G1 X99.012 Y93.139 E14.3571
G1 X99.505 Y93.086 E14.38184
G1 X99.994 Y93.068 E14.40625
G1 X100.495 Y93.085 E14.43126
G1 X100.991 Y93.139 E14.45615
G1 X101.49 Y93.23 E14.48146
G1 X101.974 Y93.356 E14.50641
G1 X102.44 Y93.513 E14.53094
G1 X102.894 Y93.703 E14.5555
G1 X103.334 Y93.926 E14.58011
G1 X103.752 Y94.177 E14.60443
G1 X104.166 Y94.467 E14.62965
G1 X104.542 Y94.773 E14.65383
G1 X104.9 Y95.11 E14.67836
G1 X105.24 Y95.479 E14.7034
G1 X105.543 Y95.859 E14.72764
G1 X105.82 Y96.263 E14.75208
G1 X106.075 Y96.698 E14.77724
G1 X106.289 Y97.131 E14.80133
G1 X106.479 Y97.596 E14.8264
G1 X106.631 Y98.059 E14.85071
G1 X106.747 Y98.526 E14.87471
G1 X106.832 Y99.012 E14.89933
G1 X106.882 Y99.505 E14.92405
G1 X106.898 Y99.996 E14.94856
G1 X106.878 Y100.489 E14.97318
G1 X106.821 Y100.992 E14.99843
G1 X106.732 Y101.472 E15.02279
G1 X106.606 Y101.953 E15.04759
G1 X106.452 Y102.41 E15.07165
G1 X106.26 Y102.864 E15.09625
G1 X106.031 Y103.315 E15.12148
G1 X105.79 Y103.715 E15.14478
G1 X105.496 Y104.135 E15.17036
G1 X105.176 Y104.527 E15.1956
G1 X104.85 Y104.873 E15.21932
G1 X104.49 Y105.203 E15.24368
G1 X104.096 Y105.516 E15.26879
G1 X103.694 Y105.791 E15.29309
G1 X103.264 Y106.042 E15.31793
G1 X102.823 Y106.26 E15.34247
G1 X102.361 Y106.447 E15.36734
G1 X101.905 Y106.597 E15.39129
G1 X101.471 Y106.706 E15.41361
G1 X100.983 Y106.794 E15.43835
G1 X100.498 Y106.845 E15.46268
G1 X100.003 Y106.864 E15.48739
G1 X99.513 Y106.847 E15.51186
G1 X99.029 Y106.797 E15.53613
G1 X98.526 Y106.706 E15.56163
G1 X98.096 Y106.598 E15.58375
G1 X97.64 Y106.448 E15.6077
G1 X97.178 Y106.261 E15.63257
G1 X96.737 Y106.043 E15.65711
G1 X96.307 Y105.792 E15.68195
G1 X95.905 Y105.517 E15.70625
G1 X95.511 Y105.204 E15.73135
G1 X95.151 Y104.874 E15.75572
G1 X94.825 Y104.528 E15.77944
G1 X94.501 Y104.132 E15.80496
G1 X94.224 Y103.737 E15.82903
G1 X93.967 Y103.31 E15.8539
G1 X93.743 Y102.87 E15.87853
G1 X93.553 Y102.418 E15.90299
G1 X93.367 Y101.863 E15.93219
G1 X93.252 Y101.4 E15.95599
G1 X93.167 Y100.911 E15.98076
G1 X93.118 Y100.422 E16.00527
G1 X93.102 Y99.935 E16.02958
G1 X93.122 Y99.442 E16.0542
G1 X93.179 Y98.938 E16.0795
G1 X93.271 Y98.447 E16.10443
G1 X93.393 Y97.98 E16.12851
G1 X93.558 Y97.497 E16.15397
G1 X93.736 Y97.076 E16.17678
G1 X93.97 Y96.615 E16.20257
G1 X94.219 Y96.203 E16.22659
G1 X94.505 Y95.796 E16.2514
G1 X94.818 Y95.412 E16.27612
G1 X95.15 Y95.06 E16.30026
G0 F3600 X95.22 Y95.131
G0 X96.867 Y96.988
G0 X96.939 Y97.056
G1 F1800 X96.613 Y97.438 E16.32531
G1 X96.37 Y97.804 E16.34723
G1 X96.165 Y98.19 E16.36904
G1 X96.005 Y98.593 E16.39067
G1 X95.884 Y99.012 E16.41243
G1 X95.808 Y99.442 E16.43421
G1 X95.777 Y99.874 E16.45582
G1 X95.788 Y100.308 E16.47748
G1 X95.846 Y100.741 E16.49928
G1 X95.949 Y101.165 E16.52104
G1 X96.094 Y101.575 E16.54274
G1 X96.28 Y101.969 E16.56448
G1 X96.506 Y102.341 E16.58619
G1 X96.769 Y102.688 E16.60792
G1 X97.066 Y103.005 E16.62959
G1 X97.394 Y103.292 E16.65133
G1 X97.75 Y103.542 E16.67303
G1 X98.074 Y103.725 E16.6916
G1 X98.508 Y103.918 E16.7153
G1 X98.925 Y104.052 E16.73715
G1 X99.351 Y104.141 E16.75886
G1 X99.784 Y104.186 E16.78058
G1 X100.218 Y104.186 E16.80223
G1 X100.651 Y104.141 E16.82395
G1 X101.077 Y104.052 E16.84566
G1 X101.492 Y103.919 E16.8674
G1 X101.889 Y103.746 E16.88901
G1 X102.241 Y103.547 E16.90918
G1 X102.594 Y103.3 E16.93068
G1 X102.921 Y103.017 E16.95225
G1 X103.217 Y102.704 E16.97374
G1 X103.481 Y102.359 E16.99542
G1 X103.708 Y101.988 E17.01712
G1 X103.921 Y101.54 E17.04187
G1 X104.062 Y101.128 E17.06359
G1 X104.159 Y100.707 E17.08514
G1 X104.214 Y100.278 E17.10672
G1 X104.223 Y99.844 E17.12838
G1 X104.189 Y99.415 E17.14985
G1 X104.111 Y98.989 E17.17146
G1 X103.989 Y98.573 E17.19308
G1 X103.826 Y98.173 E17.21463
G1 X103.622 Y97.791 E17.23624
G1 X103.381 Y97.433 E17.25777
G1 X103.104 Y97.1 E17.27938
G1 X102.796 Y96.799 E17.30087
G1 X102.456 Y96.528 E17.32256
G1 X102.091 Y96.296 E17.34413
G1 X101.69 Y96.094 E17.36654
G1 X101.283 Y95.94 E17.38825
G1 X100.861 Y95.83 E17.41
G1 X100.432 Y95.764 E17.43166
G1 X100 Y95.74 E17.45324
G1 X99.566 Y95.764 E17.47493
G1 X99.137 Y95.83 E17.49658
G1 X98.715 Y95.94 E17.51834
G1 X98.309 Y96.094 E17.54
G1 X97.968 Y96.264 E17.55901
G1 X97.599 Y96.49 E17.5806
G1 X97.254 Y96.757 E17.60237
G1 X96.939 Y97.056 E17.62403
G0 F3600 X97.23 Y97.332
;TYPE:WALL-OUTER
G1 F1800 X96.933 Y97.68 E17.64686
G1 X96.714 Y98.009 E17.66658
G1 X96.529 Y98.358 E17.68628
G1 X96.384 Y98.723 E17.70588
G1 X96.274 Y99.103 E17.72561
G1 X96.205 Y99.491 E17.74528
G1 X96.177 Y99.883 E17.76488
G1 X96.187 Y100.276 E17.7845
G1 X96.24 Y100.667 E17.80418
G1 X96.333 Y101.051 E17.82389
G1 X96.464 Y101.422 E17.84352
G1 X96.633 Y101.779 E17.86323
G1 X96.837 Y102.116 E17.88288
G1 X97.075 Y102.43 E17.90254
G1 X97.344 Y102.717 E17.92216
G1 X97.641 Y102.977 E17.94186
G1 X97.964 Y103.203 E17.96152
G1 X98.254 Y103.367 E17.97814
G1 X98.651 Y103.544 E17.99983
G1 X99.027 Y103.665 E18.01954
G1 X99.413 Y103.745 E18.0392
G1 X99.805 Y103.786 E18.05887
G1 X100.197 Y103.786 E18.07842
G1 X100.589 Y103.745 E18.09809
G1 X100.975 Y103.665 E18.11775
G1 X101.35 Y103.544 E18.13741
G1 X101.71 Y103.387 E18.15701
G1 X102.028 Y103.208 E18.17521
G1 X102.348 Y102.984 E18.1947
G1 X102.644 Y102.728 E18.21423
G1 X102.912 Y102.444 E18.23371
G1 X103.151 Y102.132 E18.25331
G1 X103.356 Y101.797 E18.27291
G1 X103.55 Y101.389 E18.29545
G1 X103.677 Y101.018 E18.31501
G1 X103.765 Y100.636 E18.33457
G1 X103.815 Y100.248 E18.35409
G1 X103.823 Y99.856 E18.37365
G1 X103.792 Y99.467 E18.39312
G1 X103.721 Y99.082 E18.41265
G1 X103.611 Y98.705 E18.43224
G1 X103.463 Y98.343 E18.45175
