;FLAVOR:Marlin
;TIME:6522
;Filament used: 3.75455m
;Layer height: 0.1
;Generated with Cura_SteamEngine 3.0.4
M190 S60
M104 S200
M109 S200
M82 ; absolute extrusion mode
G21 ;metric values
G90 ;absolute positioning
M82 ;set extruder to absolute mode
M107 ;start with the fan off
G28 X0 Y0 ;move X/Y to min endstops
G28 Z0 ;move Z to min endstops
G1 Z15.0 F9000 ;move the platform down 15mm
G92 E0 ;zero the extruded length
G1 F200 E3 ;extrude 3mm of feed stock
G92 E0 ;zero the extruded length again
G1 F9000
;Put printing message on LCD screen
M117 Printing...
;LAYER_COUNT:28
;LAYER:0
M107
G0 F3600 X48.286 Y74.731 Z0.3
;TYPE:SKIRT
G1 F1800 X48.725 Y74.48 E0.02523
G1 X49.126 Y74.322 E0.04673
G1 X50.178 Y73.989 E0.10178
G1 X50.671 Y73.875 E0.12703
G1 X51.143 Y73.84 E0.15064
G1 X148.305 Y73.807 E4.99807
G1 X148.624 Y73.823 E5.01401
G1 X149.505 Y73.911 E5.05818
G1 X150.003 Y74.001 E5.08343
G1 X150.334 Y74.108 E5.10078
G1 X151.045 Y74.381 E5.13878
G1 X151.654 Y74.693 E5.17292
G1 X152.114 Y74.995 E5.20037
G1 X152.689 Y75.477 E5.2378
G1 X153.308 Y76.135 E5.28287
G1 X153.624 Y76.53 E5.30811
G1 X153.787 Y76.797 E5.32372
G1 X154.054 Y77.287 E5.35156
G1 X154.302 Y77.874 E5.38335
G1 X154.493 Y78.493 E5.41567
G1 X154.603 Y78.987 E5.44092
G1 X154.632 Y79.309 E5.45705
G1 X154.697 Y80.935 E5.53823
G1 X154.7 Y81.064 E5.54467
G1 X154.693 Y119.807 E7.47757
G1 X154.67 Y120.185 E7.49646
G1 X154.553 Y121.165 E7.5457
G1 X154.454 Y121.661 E7.57093
G1 X154.299 Y122.087 E7.59355
G1 X153.914 Y122.952 E7.64079
G1 X153.673 Y123.396 E7.66599
G1 X153.474 Y123.669 E7.68285
G1 X153.101 Y124.128 E7.71235
G1 X152.653 Y124.579 E7.74407
G1 X152.198 Y124.954 E7.77348
G1 X151.672 Y125.307 E7.80509
G1 X151.154 Y125.584 E7.83439
G1 X150.557 Y125.829 E7.86659
G1 X149.975 Y126.002 E7.89688
G1 X149.48 Y126.108 E7.92214
G1 X149.191 Y126.132 E7.9366
G1 X147.565 Y126.197 E8.01779
G1 X147.437 Y126.2 E8.02418
G1 X51.694 Y126.193 E12.80082
G1 X51.376 Y126.177 E12.8167
G1 X50.495 Y126.089 E12.86087
G1 X49.997 Y125.999 E12.88612
G1 X49.666 Y125.892 E12.90348
G1 X48.955 Y125.619 E12.94147
G1 X48.34 Y125.303 E12.97597
G1 X47.873 Y124.995 E13.00388
G1 X47.299 Y124.511 E13.04134
G1 X46.679 Y123.849 E13.08659
G1 X46.364 Y123.454 E13.11179
G1 X46.195 Y123.174 E13.12811
G1 X45.919 Y122.659 E13.15726
G1 X45.658 Y122.011 E13.19211
G1 X45.474 Y121.355 E13.2261
G1 X45.376 Y120.859 E13.25133
G1 X45.355 Y120.495 E13.26952
G1 X45.3 Y80.711 E15.25435
G1 X45.305 Y80.535 E15.26314
G1 X45.375 Y79.238 E15.32794
G1 X45.442 Y78.736 E15.3532
G1 X45.512 Y78.467 E15.36707
G1 X45.689 Y77.893 E15.39704
G1 X45.951 Y77.279 E15.43034
G1 X46.254 Y76.735 E15.46141
G1 X46.691 Y76.129 E15.49869
G1 X47.199 Y75.575 E15.53619
G1 X47.752 Y75.096 E15.57269
G1 X48.286 Y74.731 E15.60496
G1 F1500 E9.10496
G0 F3600 X49.578 Y76.889
G0 X50.184 Y78.019
G0 X50.228 Y78.086
G0 X50.173 Y78.003
;TYPE:WALL-INNER
G1 F1500 E15.60496
G1 F1800 X50.307 Y77.932 E15.61252
G1 X50.58 Y77.785 E15.62799
G1 X50.881 Y77.694 E15.64368
G1 X51.03 Y77.649 E15.65144
G1 X51.496 Y77.604 E15.6748
G1 X51.529 Y77.6 E15.67646
G1 X52.109 Y77.6 E15.7054
G1 X52.678 Y77.6 E15.73378
G1 X52.738 Y77.6 E15.73678
G1 X147.262 Y77.6 E20.4526
G1 X147.322 Y77.6 E20.45559
G1 X147.891 Y77.6 E20.48398
G1 X148.471 Y77.6 E20.51292
G1 X148.503 Y77.603 E20.51452
G1 X148.97 Y77.649 E20.53793
G1 X149.118 Y77.693 E20.54563
G1 X149.42 Y77.785 E20.56138
G1 X149.693 Y77.931 E20.57683
G1 X149.827 Y78.003 E20.58442
G1 X150.195 Y78.305 E20.60817
G1 X150.497 Y78.673 E20.63192
G1 X150.568 Y78.807 E20.63949
G1 X150.715 Y79.08 E20.65495
G1 X150.806 Y79.381 E20.67064
G1 X150.851 Y79.53 E20.67841
G1 X150.896 Y79.996 E20.70176
G1 X150.9 Y80.029 E20.70342
G1 X150.9 Y80.609 E20.73236
G1 X150.9 Y81.178 E20.76075
G1 X150.9 Y81.238 E20.76374
G1 X150.9 Y118.762 E22.63582
G1 X150.9 Y118.822 E22.63881
G1 X150.9 Y119.391 E22.6672
G1 X150.9 Y119.971 E22.69614
G1 X150.897 Y120.003 E22.69774
G1 X150.851 Y120.47 E22.72115
G1 X150.807 Y120.618 E22.72886
G1 X150.715 Y120.92 E22.74461
G1 X150.569 Y121.193 E22.76005
G1 X150.497 Y121.327 E22.76764
G1 X150.195 Y121.695 E22.79139
G1 X149.827 Y121.997 E22.81514
G1 X149.693 Y122.068 E22.82271
G1 X149.42 Y122.215 E22.83818
G1 X149.119 Y122.306 E22.85386
G1 X148.97 Y122.351 E22.86163
G1 X148.504 Y122.396 E22.88499
G1 X148.471 Y122.4 E22.88665
G1 X147.891 Y122.4 E22.91558
G1 X147.322 Y122.4 E22.94397
G1 X147.262 Y122.4 E22.94696
G1 X52.738 Y122.4 E27.66278
G1 X52.678 Y122.4 E27.66578
G1 X52.109 Y122.4 E27.69416
G1 X51.529 Y122.4 E27.7231
G1 X51.497 Y122.397 E27.7247
G1 X51.03 Y122.351 E27.74812
G1 X50.882 Y122.307 E27.75582
G1 X50.58 Y122.215 E27.77157
G1 X50.307 Y122.069 E27.78702
G1 X50.173 Y121.997 E27.7946
G1 X49.805 Y121.695 E27.81835
G1 X49.503 Y121.327 E27.84211
G1 X49.432 Y121.193 E27.84967
G1 X49.285 Y120.92 E27.86514
G1 X49.194 Y120.619 E27.88083
G1 X49.149 Y120.47 E27.88859
G1 X49.104 Y120.004 E27.91195
G1 X49.1 Y119.971 E27.91361
G1 X49.1 Y119.391 E27.94255
G1 X49.1 Y118.822 E27.97093
G1 X49.1 Y118.762 E27.97393
G1 X49.1 Y81.238 E29.84601
G1 X49.1 Y81.178 E29.849
G1 X49.1 Y80.609 E29.87739
G1 X49.1 Y80.029 E29.90632
G1 X49.103 Y79.997 E29.90793
G1 X49.149 Y79.53 E29.93134
G1 X49.193 Y79.382 E29.93904
G1 X49.285 Y79.08 E29.95479
G1 X49.431 Y78.807 E29.97024
G1 X49.503 Y78.673 E29.97783
G1 X49.805 Y78.305 E30.00158
G1 X50.173 Y78.003 E30.02533
G0 F3600 X50.322 Y77.959
G1 F1800 X50.208 Y78.047
G1 X49.835 Y78.335 E30.0281
G1 X49.548 Y78.707
G1 X49.459 Y78.822
G1 X49.344 Y79.103
G1 X49.225 Y79.391
G1 X49.206 Y79.536
G1 X49.144 Y80 E30.03094
G1 X49.146 Y80.021
G1 X49.225 Y80.609 E30.03758
G1 X49.459 Y81.178 E30.05683
G1 X49.495 Y81.225 E30.05964
G1 X49.835 Y81.665 E30.08738
G1 X50.322 Y82.041 E30.11808
G1 X50.891 Y82.275 E30.14877
G1 X51.5 Y82.356 E30.17942
G1 X52.109 Y82.275 E30.21007
G1 X52.678 Y82.041 E30.24077
G1 X53.165 Y81.665 E30.27146
G1 X53.541 Y81.178 E30.30216
G1 X53.775 Y80.609 E30.33285
G1 X53.856 Y80 E30.3635
G1 X53.775 Y79.391 E30.39415
G1 X53.541 Y78.822 E30.42485
G1 X53.165 Y78.335 E30.45554
G1 X52.725 Y77.995 E30.48328
G1 X52.678 Y77.959 E30.48609
G1 X52.109 Y77.725 E30.50534
G1 X51.523 Y77.648 E30.51127
G1 X51.5 Y77.644
G1 X51.038 Y77.705
G1 X50.891 Y77.725
G1 X50.605 Y77.842
G1 X50.322 Y77.959
G0 F3600 X50.272 Y77.873
G0 X50.881 Y77.687
G0 X51.5 Y77.604
G0 X52.119 Y77.687
G0 X52.698 Y77.925
G0 X53.193 Y78.307
G0 X77.291 Y106.156
G0 X77.364 Y106.223
G1 F1800 X76.795 Y106.959 E30.55769
G1 X76.358 Y107.779 E30.60404
G1 X76.06 Y108.66 E30.65044
G1 X75.914 Y109.579 E30.69687
G1 X75.921 Y110.508 E30.74322
G1 X76.082 Y111.424 E30.78962
G1 X76.392 Y112.3 E30.83598
G1 X76.843 Y113.114 E30.8824
G1 X77.423 Y113.841 E30.9288
G1 X78.114 Y114.463 E30.97518
G1 X78.899 Y114.961 E31.02156
G1 X79.756 Y115.323 E31.06798
G1 X80.15 Y115.417 E31.08819
G1 X80.15 Y117.1 E31.17215
G1 X82.85 Y117.1 E31.30686
G1 X82.85 Y115.417 E31.39082
G1 X83.244 Y115.323 E31.41103
G1 X84.101 Y114.961 E31.45744
G1 X84.886 Y114.463 E31.50382
G1 X85.577 Y113.841 E31.55021
G1 X86.157 Y113.114 E31.59661
G1 X86.608 Y112.3 E31.64303
G1 X86.918 Y111.424 E31.68939
G1 X87.079 Y110.508 E31.73579
G1 X87.086 Y109.579 E31.78214
G1 X86.94 Y108.66 E31.82857
G1 X86.642 Y107.779 E31.87497
G1 X86.205 Y106.959 E31.92132
G1 X85.636 Y106.223 E31.96773
G1 X84.956 Y105.59 E32.01408
G1 X84.179 Y105.08 E32.06045
G1 X83.327 Y104.705 E32.10689
G1 X82.427 Y104.475 E32.15324
G1 X81.5 Y104.398 E32.19965
G1 X80.573 Y104.475 E32.24605
G1 X79.673 Y104.705 E32.2924
G1 X78.821 Y105.08 E32.33884
G1 X78.044 Y105.59 E32.38521
G1 X77.364 Y106.223 E32.43156
G0 F3600 X77.291 Y106.156
G0 X51.5 Y117.544
G0 X51.5 Y117.644
G1 F1800 X50.891 Y117.725 E32.46221
G1 X50.322 Y117.959 E32.4929
G1 X49.835 Y118.335 E32.5236
G1 X49.495 Y118.775 E32.55134
G1 X49.459 Y118.822 E32.55415
G1 X49.225 Y119.391 E32.5734
G1 X49.148 Y119.977 E32.57933
G1 X49.144 Y120
G1 X49.205 Y120.462
G1 X49.225 Y120.609
G1 X49.342 Y120.895
G1 X49.459 Y121.178
G1 X49.547 Y121.292
G1 X49.835 Y121.665 E32.5821
G1 X50.207 Y121.952
G1 X50.322 Y122.041
G1 X50.603 Y122.156
G1 X50.891 Y122.275
G1 X51.036 Y122.294
G1 X51.5 Y122.356 E32.58494
G1 X51.521 Y122.354
G1 X52.109 Y122.275 E32.59158
G1 X52.678 Y122.041 E32.61083
G1 X52.725 Y122.005 E32.61364
G1 X53.165 Y121.665 E32.64138
G1 X53.541 Y121.178 E32.67208
G1 X53.775 Y120.609 E32.70277
G1 X53.856 Y120 E32.73342
G1 X53.775 Y119.391 E32.76407
G1 X53.541 Y118.822 E32.79477
G1 X53.165 Y118.335 E32.82546
G1 X52.678 Y117.959 E32.85616
G1 X52.109 Y117.725 E32.88685
G1 X51.5 Y117.644 E32.9175
G0 F3600 X51.5 Y117.544
G0 X79.66 Y104.668
G0 X127.83 Y84.33
G0 X127.9 Y84.4
G1 F1800 X127.9 Y115.6 E34.47408
G1 X141.1 Y115.6 E35.13263
G1 X141.1 Y84.4 E36.6892
G1 X127.9 Y84.4 E37.34775
G0 F3600 X127.83 Y84.33
G0 X146.044 Y80
G0 X146.144 Y80
G1 F1800 X146.225 Y80.609 E37.3784
G1 X146.459 Y81.178 E37.4091
G1 X146.835 Y81.665 E37.43979
G1 X147.322 Y82.041 E37.47049
G1 X147.891 Y82.275 E37.50118
G1 X148.5 Y82.356 E37.53183
G1 X149.109 Y82.275 E37.56249
G1 X149.678 Y82.041 E37.59318
G1 X150.165 Y81.665 E37.62387
G1 X150.505 Y81.225 E37.65162
G1 X150.541 Y81.178 E37.65443
G1 X150.775 Y80.609 E37.67368
G1 X150.852 Y80.023 E37.67961
G1 X150.856 Y80
G1 X150.795 Y79.538
G1 X150.775 Y79.391
G1 X150.658 Y79.105
G1 X150.541 Y78.822
G1 X150.453 Y78.708
G1 X150.165 Y78.335 E37.68238
G1 X149.793 Y78.048
G1 X149.678 Y77.959
G1 X149.397 Y77.844
G1 X149.109 Y77.725
G1 X148.964 Y77.706
G1 X148.5 Y77.644 E37.68522
G1 X148.479 Y77.646
G1 X147.891 Y77.725 E37.69186
G1 X147.322 Y77.959 E37.71111
G1 X147.275 Y77.995 E37.71392
G1 X146.835 Y78.335 E37.74166
G1 X146.459 Y78.822 E37.77235
G1 X146.225 Y79.391 E37.80305
G1 X146.144 Y80 E37.8337
G0 F3600 X146.044 Y80
G0 X146.373 Y118.772
G0 X146.459 Y118.822
G1 F1800 X146.225 Y119.391 E37.86439
G1 X146.144 Y120 E37.89504
G1 X146.225 Y120.609 E37.92569
G1 X146.459 Y121.178 E37.95639
G1 X146.835 Y121.665 E37.98708
G1 X147.275 Y122.005 E38.01483
G1 X147.322 Y122.041 E38.01764
G1 X147.891 Y122.275 E38.03689
G1 X148.477 Y122.352 E38.04282
G1 X148.5 Y122.356
G1 X148.962 Y122.295
G1 X149.109 Y122.275
G1 X149.395 Y122.158
G1 X149.678 Y122.041
G1 X149.792 Y121.953
G1 X150.165 Y121.665 E38.04559
G1 X150.452 Y121.293
G1 X150.541 Y121.178
G1 X150.656 Y120.897
G1 X150.775 Y120.609
G1 X150.794 Y120.464
G1 X150.856 Y120 E38.04843
G1 X150.854 Y119.979
G1 X150.775 Y119.391 E38.05507
G1 X150.541 Y118.822 E38.07432
G1 X150.505 Y118.775 E38.07713
G1 X150.165 Y118.335 E38.10487
G1 X149.678 Y117.959 E38.13556
G1 X149.109 Y117.725 E38.16626
G1 X148.5 Y117.644 E38.19691
G1 X147.891 Y117.725 E38.22756
G1 X147.322 Y117.959 E38.25825
G1 X146.835 Y118.335 E38.28895
G1 X146.459 Y118.822 E38.31964
G0 F3600 X146.373 Y118.772
G0 X146.807 Y118.307
G0 X147.302 Y117.925
G0 X147.929 Y117.619
G0 X147.995 Y118.115
;TYPE:WALL-OUTER
G1 F1800 X147.524 Y118.309 E38.34506
G1 X147.12 Y118.62 E38.37049
G1 X146.809 Y119.024 E38.39593
G1 X146.615 Y119.495 E38.42134
G1 X146.548 Y120 E38.44676
G1 X146.615 Y120.505 E38.47217
G1 X146.809 Y120.976 E38.49759
G1 X147.12 Y121.38 E38.52302
G1 X147.524 Y121.691 E38.54846
G1 X147.995 Y121.885 E38.57387
G1 X148.5 Y121.952 E38.59929
G1 X149.005 Y121.885 E38.6247
G1 X149.476 Y121.691 E38.65012
G1 X149.88 Y121.38 E38.67555
G1 X150.191 Y120.976 E38.70099
G1 X150.385 Y120.505 E38.7264
G1 X150.452 Y120 E38.75182
G1 X150.385 Y119.495 E38.77723
G1 X150.191 Y119.024 E38.80265
G1 X149.88 Y118.62 E38.82808
G1 X149.476 Y118.309 E38.85352
G1 X149.005 Y118.115 E38.87893
G1 X148.5 Y118.048 E38.90435
G1 X147.995 Y118.115 E38.92976
G0 F3600 X147.81 Y118.191
G0 X147.62 Y117.728
G0 X141.128 Y84.372
G0 X128.3 Y84.3
G0 X128.3 Y84.8
G1 F1800 X128.3 Y115.2 E40.44643
G1 X140.7 Y115.2 E41.06506
G1 X140.7 Y84.8 E42.58173
G1 X128.3 Y84.8 E43.20036
G0 F3600 X128.3 Y85
G0 X127.8 Y85
G0 X127.872 Y84.372
G0 X147.929 Y77.619
G0 X147.995 Y78.115
G1 F1800 X147.524 Y78.309 E43.22578
G1 X147.12 Y78.62 E43.25121
G1 X146.809 Y79.024 E43.27665
G1 X146.615 Y79.495 E43.30206
G1 X146.548 Y80 E43.32748
G1 X146.615 Y80.505 E43.35289
G1 X146.809 Y80.976 E43.37831
G1 X147.12 Y81.38 E43.40374
G1 X147.524 Y81.691 E43.42918
G1 X147.995 Y81.885 E43.45459
G1 X148.5 Y81.952 E43.48001
G1 X149.005 Y81.885 E43.50542
G1 X149.476 Y81.691 E43.53084
G1 X149.88 Y81.38 E43.55627
G1 X150.191 Y80.976 E43.58171
G1 X150.385 Y80.505 E43.60712
G1 X150.452 Y80 E43.63254
G1 X150.385 Y79.495 E43.65795
G1 X150.191 Y79.024 E43.68337
G1 X149.88 Y78.62 E43.7088
G1 X149.476 Y78.309 E43.73424
G1 X149.005 Y78.115 E43.75965
G1 X148.5 Y78.048 E43.78507
G1 X147.995 Y78.115 E43.81048
G0 F3600 X147.81 Y78.191
G0 X147.62 Y77.728
G0 X147.834 Y77.731
G0 X147.914 Y77.732
G0 X148.951 Y77.747
G0 X149.048 Y77.255
G1 F1800 X149.572 Y77.413 E43.83779
G1 X150.052 Y77.671 E43.86498
G1 X150.479 Y78.021 E43.89252
G1 X150.829 Y78.448 E43.92007
G1 X151.087 Y78.928 E43.94725
G1 X151.245 Y79.452 E43.97456
G1 X151.3 Y80.01 E44.00253
G1 X151.3 Y119.99 E45.99714
G1 X151.245 Y120.548 E46.02512
G1 X151.087 Y121.072 E46.05242
G1 X150.829 Y121.552 E46.07961
G1 X150.479 Y121.979 E46.10715
G1 X150.052 Y122.329 E46.1347
G1 X149.572 Y122.587 E46.16189
G1 X149.048 Y122.745 E46.18919
G1 X148.49 Y122.8 E46.21716
G1 X51.51 Y122.8 E51.05552
G1 X50.952 Y122.745 E51.08349
G1 X50.428 Y122.587 E51.11079
G1 X49.948 Y122.329 E51.13798
G1 X49.521 Y121.979 E51.16553
G1 X49.171 Y121.552 E51.19307
G1 X48.913 Y121.072 E51.22026
G1 X48.755 Y120.548 E51.24756
G1 X48.7 Y119.99 E51.27554
G1 X48.7 Y80.01 E53.27015
G1 X48.755 Y79.452 E53.29812
G1 X48.913 Y78.928 E53.32543
G1 X49.171 Y78.448 E53.35261
G1 X49.521 Y78.021 E53.38016
G1 X49.948 Y77.671 E53.4077
G1 X50.428 Y77.413 E53.43489
G1 X50.952 Y77.255 E53.4622
G1 X51.51 Y77.2 E53.49017
G1 X148.49 Y77.2 E58.32852
G1 X149.048 Y77.255 E58.3565
G0 F3600 X149.239 Y77.312
G0 X149.095 Y77.79
G0 X146.256 Y79.389
G0 X146.186 Y79.428
G0 X127.872 Y84.372
G0 X82.878 Y117.128
G0 X80.122 Y117.128
G0 X80.05 Y116.7
G0 X80.55 Y116.7
G1 F1800 X82.45 Y116.7 E58.45129
G1 X82.45 Y115.101 E58.53106
G1 X83.119 Y114.942 E58.56537
G1 X83.915 Y114.606 E58.60847
G1 X84.643 Y114.143 E58.65152
G1 X85.285 Y113.566 E58.69458
G1 X85.823 Y112.891 E58.73765
G1 X86.242 Y112.135 E58.78077
G1 X86.53 Y111.322 E58.8238
G1 X86.679 Y110.472 E58.86685
G1 X86.686 Y109.609 E58.90991
G1 X86.55 Y108.756 E58.953
G1 X86.274 Y107.938 E58.99607
G1 X85.868 Y107.177 E59.0391
G1 X85.34 Y106.494 E59.08217
G1 X84.708 Y105.906 E59.12524
G1 X83.987 Y105.433 E59.16826
G1 X83.196 Y105.084 E59.2114
G1 X82.36 Y104.871 E59.25444
G1 X81.5 Y104.799 E59.29749
G1 X80.64 Y104.871 E59.34055
G1 X79.804 Y105.084 E59.38359
G1 X79.013 Y105.433 E59.42672
G1 X78.292 Y105.906 E59.46974
G1 X77.66 Y106.494 E59.51281
G1 X77.132 Y107.177 E59.55588
G1 X76.726 Y107.938 E59.59891
G1 X76.45 Y108.756 E59.64198
G1 X76.314 Y109.609 E59.68508
G1 X76.321 Y110.472 E59.72813
G1 X76.47 Y111.322 E59.77119
G1 X76.758 Y112.135 E59.81422
G1 X77.177 Y112.891 E59.85734
G1 X77.715 Y113.566 E59.9004
G1 X78.357 Y114.143 E59.94347
G1 X79.085 Y114.606 E59.98651
G1 X79.881 Y114.942 E60.02962
G1 X80.55 Y115.101 E60.06392
G1 X80.55 Y116.7 E60.1437
G0 F3600 X80.75 Y116.7
G0 X80.75 Y117.2
G0 X50.929 Y117.619
G0 X50.995 Y118.115
G1 F1800 X50.524 Y118.309 E60.16911
G1 X50.12 Y118.62 E60.19455
G1 X49.809 Y119.024 E60.21998
G1 X49.615 Y119.495 E60.2454
G1 X49.548 Y120 E60.27081
G1 X49.615 Y120.505 E60.29623
G1 X49.809 Y120.976 E60.32164
G1 X50.12 Y121.38 E60.34708
G1 X50.524 Y121.691 E60.37251
G1 X50.995 Y121.885 E60.39793
G1 X51.5 Y121.952 E60.42334
G1 X52.005 Y121.885 E60.44876
G1 X52.476 Y121.691 E60.47417
G1 X52.88 Y121.38 E60.49961
G1 X53.191 Y120.976 E60.52504
G1 X53.385 Y120.505 E60.55045
G1 X53.452 Y120 E60.57587
G1 X53.385 Y119.495 E60.60129
G1 X53.191 Y119.024 E60.6267
G1 X52.88 Y118.62 E60.65213
G1 X52.476 Y118.309 E60.67757
G1 X52.005 Y118.115 E60.70298
G1 X51.5 Y118.048 E60.7284
G1 X50.995 Y118.115 E60.75382
G0 F3600 X50.81 Y118.191
G0 X50.62 Y117.728
G0 X49.104 Y80
G0 X49.187 Y79.381
G0 X49.425 Y78.802
G0 X49.807 Y78.307
G0 X50.302 Y77.925
G0 X50.881 Y77.687
G0 X50.929 Y77.619
G0 X50.995 Y78.115
G1 F1800 X50.524 Y78.309 E60.77923
G1 X50.12 Y78.62 E60.80466
