;FLAVOR:Marlin
;TIME:6524
;Filament used: 3.76656m
;Layer height: 0.1
;Generated with Cura_SteamEngine 3.0.4
M190 S60
M104 S200
M109 S200
M82 ; absolute extrusion mode
G21 ;metric values
G90 ;absolute positioning
M82 ;set extruder to absolute mode
M107 ;start with the fan off
G28 X0 Y0 ;move X/Y to min endstops
G28 Z0 ;move Z to min endstops
G1 Z15.0 F9000 ;move the platform down 15mm
G92 E0 ;zero the extruded length
G1 F200 E3 ;extrude 3mm of feed stock
G92 E0 ;zero the extruded length again
G1 F9000
;Put printing message on LCD screen
M117 Printing...
;LAYER_COUNT:28
;LAYER:0
M107
G0 F3600 X48.372 Y74.669 Z0.3
;TYPE:SKIRT
G1 F1800 X48.859 Y74.41 E0.02752
G1 X49.444 Y74.17 E0.05907
G1 X50.005 Y74.002 E0.08828
G1 X50.499 Y73.895 E0.1135
G1 X50.793 Y73.87 E0.12822
G1 X52.445 Y73.803 E0.21071
G1 X52.575 Y73.8 E0.21719
G1 X148.306 Y73.807 E4.99323
G1 X148.624 Y73.823 E5.00912
G1 X149.505 Y73.911 E5.05329
G1 X150.003 Y74.001 E5.07854
G1 X150.334 Y74.108 E5.09589
G1 X151.045 Y74.381 E5.13389
G1 X151.65 Y74.69 E5.16778
G1 X152.11 Y74.991 E5.19521
G1 X152.69 Y75.478 E5.23299
G1 X153.31 Y76.138 E5.27817
G1 X153.626 Y76.533 E5.30341
G1 X153.79 Y76.802 E5.31912
G1 X154.062 Y77.303 E5.34757
G1 X154.311 Y77.897 E5.3797
G1 X154.496 Y78.504 E5.41136
G1 X154.605 Y78.998 E5.4366
G1 X154.632 Y79.309 E5.45217
G1 X154.697 Y80.935 E5.53336
G1 X154.7 Y81.064 E5.53979
G1 X154.693 Y119.801 E7.47239
G1 X154.671 Y120.177 E7.49118
G1 X154.554 Y121.163 E7.54072
G1 X154.455 Y121.659 E7.56595
G1 X154.299 Y122.087 E7.58868
G1 X153.914 Y122.952 E7.63592
G1 X153.673 Y123.396 E7.66112
G1 X153.468 Y123.677 E7.67847
G1 X153.091 Y124.138 E7.70818
G1 X152.649 Y124.582 E7.73944
G1 X152.195 Y124.956 E7.76879
G1 X151.672 Y125.306 E7.80018
G1 X151.157 Y125.582 E7.82933
G1 X150.573 Y125.824 E7.86087
G1 X150.022 Y125.991 E7.8896
G1 X149.528 Y126.099 E7.91482
G1 X149.096 Y126.129 E7.93643
G1 X51.696 Y126.193 E12.79573
G1 X51.376 Y126.177 E12.81172
G1 X50.495 Y126.089 E12.85589
G1 X49.997 Y125.999 E12.88114
G1 X49.666 Y125.892 E12.89849
G1 X48.955 Y125.619 E12.93649
G1 X48.499 Y125.401 E12.96171
G1 X48.216 Y125.217 E12.97855
G1 X47.484 Y124.683 E13.02375
G1 X47.1 Y124.354 E13.04898
G1 X46.802 Y124.007 E13.0718
G1 X46.347 Y123.395 E13.10985
G1 X45.989 Y122.783 E13.14522
G1 X45.747 Y122.237 E13.17502
G1 X45.539 Y121.585 E13.20916
G1 X45.396 Y120.89 E13.24456
G1 X45.33 Y120.247 E13.27681
G1 X45.308 Y80.152 E15.27715
G1 X45.333 Y79.747 E15.2974
G1 X45.454 Y78.794 E15.34533
G1 X45.558 Y78.299 E15.37056
G1 X45.72 Y77.863 E15.39377
G1 X46.12 Y76.991 E15.44163
G1 X46.367 Y76.549 E15.46689
G1 X46.547 Y76.305 E15.48202
G1 X46.888 Y75.886 E15.50897
G1 X47.347 Y75.426 E15.54139
G1 X47.852 Y75.014 E15.5739
G1 X48.372 Y74.669 E15.60504
G1 F1500 E9.10504
G0 F3600 X49.578 Y76.89
G0 X50.184 Y78.02
G0 X50.228 Y78.087
G0 X50.173 Y78.004
;TYPE:WALL-INNER
G1 F1500 E15.60504
G1 F1800 X50.578 Y77.786 E15.62799
G1 X51.031 Y77.649 E15.6516
G1 X51.529 Y77.6 E15.67656
G1 X148.471 Y77.6 E20.51302
G1 X148.97 Y77.649 E20.53803
G1 X149.42 Y77.785 E20.56149
G1 X149.827 Y78.003 E20.58452
G1 X150.195 Y78.305 E20.60827
G1 X150.497 Y78.673 E20.63202
G1 X150.715 Y79.08 E20.65506
G1 X150.851 Y79.53 E20.67851
G1 X150.9 Y80.029 E20.70352
G1 X150.9 Y119.971 E22.69624
G1 X150.851 Y120.468 E22.72115
G1 X150.716 Y120.915 E22.74445
G1 X150.493 Y121.33 E22.76795
G1 X150.195 Y121.695 E22.79146
G1 X149.827 Y121.997 E22.81521
G1 X149.42 Y122.215 E22.83825
G1 X148.97 Y122.351 E22.8617
G1 X148.471 Y122.4 E22.88672
G1 X51.529 Y122.4 E27.72317
G1 X51.03 Y122.351 E27.74819
G1 X50.58 Y122.215 E27.77164
G1 X50.174 Y121.997 E27.79463
G1 X49.804 Y121.695 E27.81846
G1 X49.502 Y121.325 E27.84229
G1 X49.294 Y120.937 E27.86425
G1 X49.147 Y120.456 E27.88934
G1 X49.1 Y119.974 E27.9135
G1 X49.1 Y80.026 E29.90652
G1 X49.146 Y79.542 E29.93077
G1 X49.278 Y79.1 E29.95379
G1 X49.489 Y78.699 E29.97639
G1 X49.808 Y78.303 E30.00176
G1 X50.173 Y78.004 E30.0253
G0 F3600 X50.228 Y78.087
G0 X51.272 Y78.873
G0 X51.322 Y78.959
G1 F1800 X50.835 Y79.335 E30.056
G1 X50.459 Y79.822 E30.08669
G1 X50.225 Y80.391 E30.11739
G1 X50.144 Y81 E30.14804
G1 X50.225 Y81.609 E30.17869
G1 X50.459 Y82.178 E30.20938
G1 X50.835 Y82.665 E30.24008
G1 X51.322 Y83.041 E30.27078
G1 X51.891 Y83.275 E30.30147
G1 X52.5 Y83.356 E30.33212
G1 X53.109 Y83.275 E30.36277
G1 X53.678 Y83.041 E30.39347
G1 X54.165 Y82.665 E30.42416
G1 X54.541 Y82.178 E30.45486
G1 X54.775 Y81.609 E30.48555
G1 X54.856 Y81 E30.5162
G1 X54.775 Y80.391 E30.54685
G1 X54.541 Y79.822 E30.57755
G1 X54.165 Y79.335 E30.60824
G1 X53.678 Y78.959 E30.63894
G1 X53.109 Y78.725 E30.66963
G1 X52.5 Y78.644 E30.70028
G1 X51.891 Y78.725 E30.73093
G1 X51.322 Y78.959 E30.76163
G0 F3600 X51.272 Y78.873
G0 X51.881 Y78.687
G0 X52.5 Y78.604
G0 X53.119 Y78.687
G0 X53.698 Y78.925
G0 X54.193 Y79.307
G0 X77.291 Y106.156
G0 X77.364 Y106.223
G1 F1800 X76.795 Y106.959 E30.80804
G1 X76.358 Y107.779 E30.8544
G1 X76.06 Y108.66 E30.9008
G1 X75.914 Y109.579 E30.94722
G1 X75.921 Y110.508 E30.99357
G1 X76.082 Y111.424 E31.03997
G1 X76.392 Y112.3 E31.08633
G1 X76.843 Y113.114 E31.13276
G1 X77.423 Y113.841 E31.17916
G1 X78.114 Y114.463 E31.22554
G1 X78.899 Y114.961 E31.27192
G1 X79.756 Y115.323 E31.31833
G1 X80.15 Y115.417 E31.33854
G1 X80.15 Y117.1 E31.42251
G1 X82.85 Y117.1 E31.55721
G1 X82.85 Y115.417 E31.64118
G1 X83.244 Y115.323 E31.66138
G1 X84.101 Y114.961 E31.7078
G1 X84.886 Y114.463 E31.75418
G1 X85.577 Y113.841 E31.80056
G1 X86.157 Y113.114 E31.84696
G1 X86.608 Y112.3 E31.89339
G1 X86.918 Y111.424 E31.93975
G1 X87.079 Y110.508 E31.98615
G1 X87.086 Y109.579 E32.0325
G1 X86.94 Y108.66 E32.07892
G1 X86.642 Y107.779 E32.12532
G1 X86.205 Y106.959 E32.17168
G1 X85.636 Y106.223 E32.21809
G1 X84.956 Y105.59 E32.26444
G1 X84.179 Y105.08 E32.31081
G1 X83.327 Y104.705 E32.35725
G1 X82.427 Y104.475 E32.40359
G1 X81.5 Y104.398 E32.45
G1 X80.573 Y104.475 E32.49641
G1 X79.673 Y104.705 E32.54275
G1 X78.821 Y105.08 E32.58919
G1 X78.044 Y105.59 E32.63556
G1 X77.364 Y106.223 E32.68191
G0 F3600 X77.291 Y106.156
G0 X52.5 Y116.544
G0 X52.5 Y116.644
G1 F1800 X51.891 Y116.725 E32.71256
G1 X51.322 Y116.959 E32.74326
G1 X50.835 Y117.335 E32.77395
G1 X50.459 Y117.822 E32.80465
G1 X50.225 Y118.391 E32.83534
G1 X50.144 Y119 E32.86599
G1 X50.225 Y119.609 E32.89664
G1 X50.459 Y120.178 E32.92734
G1 X50.835 Y120.665 E32.95803
G1 X51.322 Y121.041 E32.98873
G1 X51.891 Y121.275 E33.01942
G1 X52.5 Y121.356 E33.05007
G1 X53.109 Y121.275 E33.08073
G1 X53.678 Y121.041 E33.11142
G1 X54.165 Y120.665 E33.14211
G1 X54.541 Y120.178 E33.17281
G1 X54.775 Y119.609 E33.2035
G1 X54.856 Y119 E33.23416
G1 X54.775 Y118.391 E33.26481
G1 X54.541 Y117.822 E33.2955
G1 X54.165 Y117.335 E33.3262
G1 X53.678 Y116.959 E33.35689
G1 X53.109 Y116.725 E33.38759
G1 X52.5 Y116.644 E33.41824
G0 F3600 X52.5 Y116.544
G0 X79.66 Y104.668
G0 X127.83 Y84.33
G0 X127.9 Y84.4
G1 F1800 X127.9 Y115.6 E34.97481
G1 X141.1 Y115.6 E35.63336
G1 X141.1 Y84.4 E37.18994
G1 X127.9 Y84.4 E37.84849
G0 F3600 X127.83 Y84.33
G0 X145.044 Y81
G0 X145.144 Y81
G1 F1800 X145.225 Y81.609 E37.87914
G1 X145.459 Y82.178 E37.90983
G1 X145.835 Y82.665 E37.94053
G1 X146.322 Y83.041 E37.97122
G1 X146.891 Y83.275 E38.00192
G1 X147.5 Y83.356 E38.03257
G1 X148.109 Y83.275 E38.06322
G1 X148.678 Y83.041 E38.09391
G1 X149.165 Y82.665 E38.12461
G1 X149.541 Y82.178 E38.1553
G1 X149.775 Y81.609 E38.186
G1 X149.856 Y81 E38.21665
G1 X149.775 Y80.391 E38.2473
G1 X149.541 Y79.822 E38.27799
G1 X149.165 Y79.335 E38.30869
G1 X148.678 Y78.959 E38.33938
G1 X148.109 Y78.725 E38.37008
G1 X147.5 Y78.644 E38.40073
G1 X146.891 Y78.725 E38.43138
G1 X146.322 Y78.959 E38.46207
G1 X145.835 Y79.335 E38.49277
G1 X145.459 Y79.822 E38.52346
G1 X145.225 Y80.391 E38.55416
G1 X145.144 Y81 E38.58481
G0 F3600 X145.044 Y81
G0 X145.373 Y117.772
G0 X145.459 Y117.822
G1 F1800 X145.225 Y118.391 E38.6155
G1 X145.144 Y119 E38.64615
G1 X145.225 Y119.609 E38.67681
G1 X145.459 Y120.178 E38.7075
G1 X145.835 Y120.665 E38.7382
G1 X146.322 Y121.041 E38.76889
G1 X146.891 Y121.275 E38.79959
G1 X147.5 Y121.356 E38.83024
G1 X148.109 Y121.275 E38.86089
G1 X148.678 Y121.041 E38.89158
G1 X149.165 Y120.665 E38.92228
G1 X149.541 Y120.178 E38.95297
G1 X149.775 Y119.609 E38.98367
G1 X149.856 Y119 E39.01432
G1 X149.775 Y118.391 E39.04497
G1 X149.541 Y117.822 E39.07566
G1 X149.165 Y117.335 E39.10636
G1 X148.678 Y116.959 E39.13705
G1 X148.109 Y116.725 E39.16775
G1 X147.5 Y116.644 E39.1984
G1 X146.891 Y116.725 E39.22905
G1 X146.322 Y116.959 E39.25974
G1 X145.835 Y117.335 E39.29044
G1 X145.459 Y117.822 E39.32113
G0 F3600 X145.373 Y117.772
G0 X145.807 Y117.307
G0 X146.302 Y116.925
G0 X146.929 Y116.619
G0 X146.995 Y117.115
;TYPE:WALL-OUTER
G1 F1800 X146.524 Y117.309 E39.34655
G1 X146.12 Y117.62 E39.37198
G1 X145.809 Y118.024 E39.39742
G1 X145.615 Y118.495 E39.42283
G1 X145.548 Y119 E39.44825
G1 X145.615 Y119.505 E39.47366
G1 X145.809 Y119.976 E39.49908
G1 X146.12 Y120.38 E39.52451
G1 X146.524 Y120.691 E39.54995
G1 X146.995 Y120.885 E39.57536
G1 X147.5 Y120.952 E39.60078
G1 X148.005 Y120.885 E39.62619
G1 X148.476 Y120.691 E39.65161
G1 X148.88 Y120.38 E39.67704
G1 X149.191 Y119.976 E39.70248
G1 X149.385 Y119.505 E39.72789
G1 X149.452 Y119 E39.75331
G1 X149.385 Y118.495 E39.77872
G1 X149.191 Y118.024 E39.80414
G1 X148.88 Y117.62 E39.82957
G1 X148.476 Y117.309 E39.85501
G1 X148.005 Y117.115 E39.88042
G1 X147.5 Y117.048 E39.90584
G1 X146.995 Y117.115 E39.93125
G0 F3600 X146.81 Y117.191
G0 X146.62 Y116.728
G0 X141.128 Y84.372
G0 X128.3 Y84.3
G0 X128.3 Y84.8
G1 F1800 X128.3 Y115.2 E41.44791
G1 X140.7 Y115.2 E42.06655
G1 X140.7 Y84.8 E43.58322
G1 X128.3 Y84.8 E44.20185
G0 F3600 X128.3 Y85
G0 X127.8 Y85
G0 X127.872 Y84.372
G0 X146.929 Y78.619
G0 X146.995 Y79.115
G1 F1800 X146.524 Y79.309 E44.22727
G1 X146.12 Y79.62 E44.2527
G1 X145.809 Y80.024 E44.27814
G1 X145.615 Y80.495 E44.30355
G1 X145.548 Y81 E44.32897
G1 X145.615 Y81.505 E44.35438
G1 X145.809 Y81.976 E44.3798
G1 X146.12 Y82.38 E44.40523
G1 X146.524 Y82.691 E44.43067
G1 X146.995 Y82.885 E44.45608
G1 X147.5 Y82.952 E44.4815
G1 X148.005 Y82.885 E44.50691
G1 X148.476 Y82.691 E44.53233
G1 X148.88 Y82.38 E44.55776
G1 X149.191 Y81.976 E44.5832
G1 X149.385 Y81.505 E44.60861
G1 X149.452 Y81 E44.63403
G1 X149.385 Y80.495 E44.65944
G1 X149.191 Y80.024 E44.68486
G1 X148.88 Y79.62 E44.71029
G1 X148.476 Y79.309 E44.73573
G1 X148.005 Y79.115 E44.76114
G1 X147.5 Y79.048 E44.78656
G1 X146.995 Y79.115 E44.81197
G0 F3600 X146.81 Y79.191
G0 X146.62 Y78.728
G0 X148.951 Y77.747
G0 X149.048 Y77.255
G1 F1800 X149.572 Y77.413 E44.83928
G1 X150.052 Y77.671 E44.86647
G1 X150.479 Y78.021 E44.89401
G1 X150.829 Y78.448 E44.92156
G1 X151.087 Y78.928 E44.94874
G1 X151.245 Y79.452 E44.97605
G1 X151.3 Y80.01 E45.00402
G1 X151.3 Y119.99 E46.99863
G1 X151.245 Y120.548 E47.02661
G1 X151.087 Y121.07 E47.05381
G1 X150.829 Y121.552 E47.08109
G1 X150.479 Y121.979 E47.10864
G1 X150.052 Y122.329 E47.13618
G1 X149.572 Y122.587 E47.16337
G1 X149.048 Y122.745 E47.19067
G1 X148.49 Y122.8 E47.21865
G1 X51.51 Y122.8 E52.057
G1 X50.952 Y122.745 E52.08497
G1 X50.428 Y122.587 E52.11228
G1 X49.948 Y122.329 E52.13946
G1 X49.52 Y121.979 E52.16705
G1 X49.17 Y121.551 E52.19463
G1 X48.921 Y121.087 E52.2209
G1 X48.753 Y120.537 E52.24959
G1 X48.7 Y119.992 E52.27691
G1 X48.7 Y80.009 E54.27167
G1 X48.752 Y79.466 E54.29889
G1 X48.907 Y78.947 E54.32591
G1 X49.154 Y78.476 E54.35244
G1 X49.522 Y78.021 E54.38164
G1 X49.947 Y77.672 E54.40908
G1 X50.427 Y77.414 E54.43626
G1 X50.951 Y77.255 E54.46358
G1 X51.51 Y77.2 E54.49161
G1 X148.49 Y77.2 E59.32996
G1 X149.048 Y77.255 E59.35793
G0 F3600 X149.239 Y77.312
G0 X149.095 Y77.79
G0 X127.872 Y84.372
G0 X82.878 Y117.128
G0 X80.122 Y117.128
G0 X80.05 Y116.7
G0 X80.55 Y116.7
G1 F1800 X82.45 Y116.7 E59.45272
G1 X82.45 Y115.101 E59.5325
G1 X83.119 Y114.942 E59.5668
G1 X83.915 Y114.606 E59.60991
G1 X84.643 Y114.143 E59.65295
G1 X85.285 Y113.566 E59.69602
G1 X85.823 Y112.891 E59.73908
G1 X86.242 Y112.135 E59.7822
G1 X86.53 Y111.322 E59.82523
G1 X86.679 Y110.472 E59.86829
G1 X86.686 Y109.609 E59.91134
G1 X86.55 Y108.756 E59.95444
G1 X86.274 Y107.938 E59.99751
G1 X85.868 Y107.177 E60.04054
G1 X85.34 Y106.494 E60.08361
G1 X84.708 Y105.906 E60.12668
G1 X83.987 Y105.433 E60.1697
G1 X83.196 Y105.084 E60.21283
G1 X82.36 Y104.871 E60.25587
G1 X81.5 Y104.799 E60.29893
G1 X80.64 Y104.871 E60.34198
G1 X79.804 Y105.084 E60.38502
G1 X79.013 Y105.433 E60.42816
G1 X78.292 Y105.906 E60.47118
G1 X77.66 Y106.494 E60.51424
G1 X77.132 Y107.177 E60.55731
G1 X76.726 Y107.938 E60.60035
G1 X76.45 Y108.756 E60.64342
G1 X76.314 Y109.609 E60.68651
G1 X76.321 Y110.472 E60.72957
G1 X76.47 Y111.322 E60.77262
G1 X76.758 Y112.135 E60.81565
G1 X77.177 Y112.891 E60.85877
G1 X77.715 Y113.566 E60.90184
G1 X78.357 Y114.143 E60.9449
G1 X79.085 Y114.606 E60.98794
G1 X79.881 Y114.942 E61.03105
G1 X80.55 Y115.101 E61.06536
G1 X80.55 Y116.7 E61.14513
G0 F3600 X80.75 Y116.7
G0 X80.75 Y117.2
G0 X51.929 Y116.619
G0 X51.995 Y117.115
G1 F1800 X51.524 Y117.309 E61.17054
G1 X51.12 Y117.62 E61.19598
G1 X50.809 Y118.024 E61.22142
G1 X50.615 Y118.495 E61.24683
G1 X50.548 Y119 E61.27224
G1 X50.615 Y119.505 E61.29766
G1 X50.809 Y119.976 E61.32307
G1 X51.12 Y120.38 E61.34851
G1 X51.524 Y120.691 E61.37395
G1 X51.995 Y120.885 E61.39936
G1 X52.5 Y120.952 E61.42477
G1 X53.005 Y120.885 E61.45019
G1 X53.476 Y120.691 E61.4756
G1 X53.88 Y120.38 E61.50104
G1 X54.191 Y119.976 E61.52648
G1 X54.385 Y119.505 E61.55189
G1 X54.452 Y119 E61.5773
G1 X54.385 Y118.495 E61.60272
G1 X54.191 Y118.024 E61.62813
G1 X53.88 Y117.62 E61.65357
G1 X53.476 Y117.309 E61.67901
G1 X53.005 Y117.115 E61.70442
G1 X52.5 Y117.048 E61.72983
G1 X51.995 Y117.115 E61.75525
G0 F3600 X51.81 Y117.191
G0 X51.62 Y116.728
G0 X50.104 Y81
G0 X50.187 Y80.381
G0 X50.425 Y79.802
G0 X50.807 Y79.307
G0 X51.302 Y78.925
G0 X51.929 Y78.619
G0 X51.995 Y79.115
G1 F1800 X51.524 Y79.309 E61.78066
G1 X51.12 Y79.62 E61.8061
G1 X50.809 Y80.024 E61.83154
G1 X50.615 Y80.495 E61.85695
G1 X50.548 Y81 E61.88236
G1 X50.615 Y81.505 E61.90778
G1 X50.809 Y81.976 E61.93319
G1 X51.12 Y82.38 E61.95863
G1 X51.524 Y82.691 E61.98406
G1 X51.995 Y82.885 E62.00948
G1 X52.5 Y82.952 E62.03489
G1 X53.005 Y82.885 E62.06031
G1 X53.476 Y82.691 E62.08572
G1 X53.88 Y82.38 E62.11116
G1 X54.191 Y81.976 E62.13659
G1 X54.385 Y81.505 E62.16201
G1 X54.452 Y81 E62.18742
G1 X54.385 Y80.495 E62.21284
G1 X54.191 Y80.024 E62.23825
G1 X53.88 Y79.62 E62.26369
G1 X53.476 Y79.309 E62.28912
G1 X53.005 Y79.115 E62.31454
G1 X52.5 Y79.048 E62.33995
G1 X51.995 Y79.115 E62.36537
G0 F3600 X51.81 Y79.191
G0 X51.62 Y78.728
G0 X51.787 Y78.335
;TYPE:WALL-INNER
G1 F1800 X51.12 Y78.609 E62.40134
G1 X50.549 Y79.049 E62.43731
G1 X50.109 Y79.62 E62.47327
G1 X49.835 Y80.287 E62.50925
G1 X49.74 Y81 E62.54513
G1 X49.835 Y81.713 E62.58102
G1 X50.109 Y82.38 E62.61699
G1 X50.549 Y82.951 E62.65296
G1 X51.12 Y83.391 E62.68892
G1 X51.787 Y83.665 E62.7249
G1 X52.5 Y83.76 E62.76078
G1 X53.213 Y83.665 E62.79667
G1 X53.88 Y83.391 E62.83264
G1 X54.451 Y82.951 E62.86861
G1 X54.891 Y82.38 E62.90457
G1 X55.165 Y81.713 E62.94055
G1 X55.26 Y81 E62.97643
G1 X55.165 Y80.287 E63.01232
G1 X54.891 Y79.62 E63.04829
G1 X54.451 Y79.049 E63.08426
G1 X53.88 Y78.609 E63.12022
G1 X53.213 Y78.335 E63.1562
G1 X52.5 Y78.24 E63.19208
G1 X51.787 Y78.335 E63.22797
G0 F3600 X51.548 Y78
G1 F1800 X148.452 Y78 E68.06253
G1 X148.896 Y78.043 E68.08478
G1 X149.265 Y78.155 E68.10402
G1 X149.599 Y78.334 E68.12293
G1 X149.911 Y78.589 E68.14303
G1 X150.166 Y78.901 E68.16314
G1 X150.345 Y79.235 E68.18204
G1 X150.456 Y79.601 E68.20112
G1 X150.5 Y80.048 E68.22353
G1 X150.5 Y119.952 E70.21435
G1 X150.457 Y120.393 E70.23646
G1 X150.346 Y120.757 E70.25544
G1 X150.157 Y121.11 E70.27542
G1 X149.915 Y121.407 E70.29453
G1 X149.6 Y121.665 E70.31484
G1 X149.265 Y121.845 E70.33382
G1 X148.896 Y121.957 E70.35306
G1 X148.452 Y122 E70.37531
G1 X51.548 Y122 E75.20987
G1 X51.105 Y121.957 E75.23208
G1 X50.736 Y121.845 E75.25132
G1 X50.396 Y121.663 E75.27056
G1 X50.09 Y121.413 E75.29027
G1 X49.833 Y121.098 E75.31055
G1 X49.663 Y120.781 E75.3285
G1 X49.541 Y120.38 E75.34941
