;FLAVOR:Marlin
;TIME:5435
;Filament used: 3.04649m
;Layer height: 0.1
;Generated with Cura_SteamEngine 3.0.4
M190 S60
M104 S200
M109 S200
M82 ; absolute extrusion mode
G21 ;metric values
G90 ;absolute positioning
M82 ;set extruder to absolute mode
M107 ;start with the fan off
G28 X0 Y0 ;move X/Y to min endstops
G28 Z0 ;move Z to min endstops
G1 Z15.0 F9000 ;move the platform down 15mm
G92 E0 ;zero the extruded length
G1 F200 E3 ;extrude 3mm of feed stock
G92 E0 ;zero the extruded length again
G1 F9000
;Put printing message on LCD screen
M117 Printing...
;LAYER_COUNT:18
;LAYER:0
M107
G0 F3600 X49.286 Y75.731 Z0.3
;TYPE:SKIRT
G1 F1800 X49.725 Y75.48 E0.02523
G1 X50.126 Y75.322 E0.04673
G1 X51.178 Y74.989 E0.10178
G1 X51.671 Y74.875 E0.12703
G1 X52.143 Y74.84 E0.15064
G1 X147.305 Y74.807 E4.89829
G1 X147.624 Y74.823 E4.91423
G1 X148.505 Y74.911 E4.9584
G1 X149.003 Y75.001 E4.98365
G1 X149.334 Y75.108 E5.001
G1 X150.045 Y75.381 E5.039
G1 X150.654 Y75.693 E5.07314
G1 X151.114 Y75.995 E5.10059
G1 X151.689 Y76.477 E5.13802
G1 X152.308 Y77.135 E5.18309
G1 X152.624 Y77.53 E5.20833
G1 X152.787 Y77.797 E5.22394
G1 X153.054 Y78.287 E5.25178
G1 X153.302 Y78.874 E5.28357
G1 X153.493 Y79.493 E5.31589
G1 X153.603 Y79.987 E5.34114
G1 X153.632 Y80.309 E5.35727
G1 X153.697 Y81.935 E5.43845
G1 X153.7 Y82.064 E5.44489
G1 X153.693 Y118.807 E7.27801
G1 X153.67 Y119.185 E7.2969
G1 X153.553 Y120.165 E7.34614
G1 X153.454 Y120.661 E7.37137
G1 X153.299 Y121.087 E7.39399
G1 X152.914 Y121.952 E7.44123
G1 X152.673 Y122.396 E7.46643
G1 X152.474 Y122.669 E7.48328
G1 X152.101 Y123.128 E7.51279
G1 X151.653 Y123.579 E7.54451
G1 X151.198 Y123.954 E7.57392
G1 X150.672 Y124.307 E7.60553
G1 X150.154 Y124.584 E7.63483
G1 X149.557 Y124.829 E7.66703
G1 X148.975 Y125.002 E7.69732
G1 X148.48 Y125.108 E7.72258
G1 X148.191 Y125.132 E7.73704
G1 X146.565 Y125.197 E7.81823
G1 X146.437 Y125.2 E7.82462
G1 X52.694 Y125.193 E12.50147
G1 X52.376 Y125.177 E12.51736
G1 X51.495 Y125.089 E12.56153
G1 X50.997 Y124.999 E12.58678
G1 X50.666 Y124.892 E12.60413
G1 X49.955 Y124.619 E12.64213
G1 X49.34 Y124.303 E12.67663
G1 X48.873 Y123.995 E12.70454
G1 X48.299 Y123.511 E12.742
G1 X47.679 Y122.849 E12.78725
G1 X47.364 Y122.454 E12.81245
G1 X47.195 Y122.174 E12.82877
G1 X46.919 Y121.659 E12.85792
G1 X46.658 Y121.011 E12.89277
G1 X46.474 Y120.355 E12.92676
G1 X46.376 Y119.859 E12.95199
G1 X46.355 Y119.496 E12.97013
G1 X46.3 Y81.712 E14.85518
G1 X46.305 Y81.535 E14.86401
G1 X46.375 Y80.238 E14.92882
G1 X46.442 Y79.736 E14.95408
G1 X46.512 Y79.467 E14.96795
G1 X46.689 Y78.893 E14.99792
G1 X46.951 Y78.279 E15.03122
G1 X47.254 Y77.735 E15.06229
G1 X47.691 Y77.129 E15.09956
G1 X48.199 Y76.575 E15.13706
G1 X48.752 Y76.096 E15.17356
G1 X49.286 Y75.731 E15.20583
G1 F1500 E8.70583
G0 F3600 X50.578 Y77.889
G0 X51.184 Y79.019
G0 X51.228 Y79.086
G0 X51.173 Y79.003
;TYPE:WALL-INNER
G1 F1500 E15.20583
G1 F1800 X51.58 Y78.785 E15.22887
G1 X52.03 Y78.649 E15.25232
G1 X52.529 Y78.6 E15.27734
G1 X147.471 Y78.6 E20.01401
G1 X147.97 Y78.649 E20.03903
G1 X148.42 Y78.785 E20.06248
G1 X148.827 Y79.003 E20.08552
G1 X149.195 Y79.305 E20.10927
G1 X149.497 Y79.673 E20.13302
G1 X149.715 Y80.08 E20.15605
G1 X149.851 Y80.53 E20.1795
G1 X149.9 Y81.029 E20.20452
G1 X149.9 Y118.971 E22.09745
G1 X149.851 Y119.47 E22.12247
G1 X149.715 Y119.92 E22.14592
G1 X149.497 Y120.327 E22.16896
G1 X149.195 Y120.695 E22.19271
G1 X148.827 Y120.997 E22.21646
G1 X148.42 Y121.215 E22.23949
G1 X147.97 Y121.351 E22.26295
G1 X147.471 Y121.4 E22.28796
G1 X52.529 Y121.4 E27.02464
G1 X52.03 Y121.351 E27.04965
G1 X51.58 Y121.215 E27.0731
G1 X51.173 Y120.997 E27.09614
G1 X50.805 Y120.695 E27.11989
G1 X50.503 Y120.327 E27.14364
G1 X50.285 Y119.92 E27.16668
G1 X50.149 Y119.47 E27.19013
G1 X50.1 Y118.971 E27.21514
G1 X50.1 Y81.029 E29.10808
G1 X50.149 Y80.53 E29.13309
G1 X50.285 Y80.08 E29.15655
G1 X50.503 Y79.673 E29.17958
G1 X50.805 Y79.305 E29.20333
G1 X51.173 Y79.003 E29.22708
G0 F3600 X51.228 Y79.086
G0 X52.824 Y80.46
G0 X52.873 Y80.546
G1 F1800 X52.405 Y80.905 E29.25651
G1 X52.046 Y81.373 E29.28594
G1 X51.821 Y81.917 E29.31531
G1 X51.745 Y82.5 E29.34464
G1 X51.821 Y83.083 E29.37397
G1 X52.046 Y83.627 E29.40334
G1 X52.405 Y84.095 E29.43277
G1 X52.873 Y84.454 E29.46219
G1 X53.417 Y84.679 E29.49156
G1 X54 Y84.755 E29.5209
G1 X54.583 Y84.679 E29.55023
G1 X55.127 Y84.454 E29.5796
G1 X55.595 Y84.095 E29.60903
G1 X55.954 Y83.627 E29.63845
G1 X56.179 Y83.083 E29.66782
G1 X56.255 Y82.5 E29.69715
G1 X56.179 Y81.917 E29.72649
G1 X55.954 Y81.373 E29.75586
G1 X55.595 Y80.905 E29.78528
G1 X55.127 Y80.546 E29.81471
G1 X54.583 Y80.321 E29.84408
G1 X54 Y80.245 E29.87341
G1 X53.417 Y80.321 E29.90274
G1 X52.873 Y80.546 E29.93211
G0 F3600 X52.824 Y80.46
G0 X52.377 Y80.877
G0 X52.012 Y81.354
G0 X51.783 Y81.907
G0 X51.705 Y82.5
G0 X54 Y115.145
G0 X54 Y115.245
G1 F1800 X53.417 Y115.321 E29.96145
G1 X52.873 Y115.546 E29.99082
G1 X52.405 Y115.905 E30.02024
G1 X52.046 Y116.373 E30.04967
G1 X51.821 Y116.917 E30.07904
G1 X51.745 Y117.5 E30.10837
G1 X51.821 Y118.083 E30.13771
G1 X52.046 Y118.627 E30.16708
G1 X52.405 Y119.095 E30.1965
G1 X52.873 Y119.454 E30.22593
G1 X53.417 Y119.679 E30.2553
G1 X54 Y119.755 E30.28463
G1 X54.583 Y119.679 E30.31396
G1 X55.127 Y119.454 E30.34333
G1 X55.595 Y119.095 E30.37276
G1 X55.954 Y118.627 E30.40219
G1 X56.179 Y118.083 E30.43156
G1 X56.255 Y117.5 E30.46089
G1 X56.179 Y116.917 E30.49022
G1 X55.954 Y116.373 E30.51959
G1 X55.595 Y115.905 E30.54902
G1 X55.127 Y115.546 E30.57845
G1 X54.583 Y115.321 E30.60782
G1 X54 Y115.245 E30.63715
G0 F3600 X54 Y115.145
G0 X77.291 Y106.156
G0 X77.364 Y106.223
G1 F1800 X76.795 Y106.959 E30.68356
G1 X76.358 Y107.779 E30.72992
G1 X76.06 Y108.66 E30.77632
G1 X75.914 Y109.579 E30.82274
G1 X75.921 Y110.508 E30.86909
G1 X76.082 Y111.424 E30.91549
G1 X76.392 Y112.3 E30.96185
G1 X76.843 Y113.114 E31.00828
G1 X77.423 Y113.841 E31.05468
G1 X78.114 Y114.463 E31.10106
G1 X78.899 Y114.961 E31.14744
G1 X79.756 Y115.323 E31.19385
G1 X80.15 Y115.417 E31.21406
G1 X80.15 Y117.1 E31.29803
G1 X82.85 Y117.1 E31.43273
G1 X82.85 Y115.417 E31.5167
G1 X83.244 Y115.323 E31.5369
G1 X84.101 Y114.961 E31.58332
G1 X84.886 Y114.463 E31.6297
G1 X85.577 Y113.841 E31.67608
G1 X86.157 Y113.114 E31.72248
G1 X86.608 Y112.3 E31.76891
G1 X86.918 Y111.424 E31.81527
G1 X87.079 Y110.508 E31.86167
G1 X87.086 Y109.579 E31.90802
G1 X86.94 Y108.66 E31.95444
G1 X86.642 Y107.779 E32.00084
G1 X86.205 Y106.959 E32.0472
G1 X85.636 Y106.223 E32.09361
G1 X84.956 Y105.59 E32.13996
G1 X84.179 Y105.08 E32.18633
G1 X83.327 Y104.705 E32.23277
G1 X82.427 Y104.475 E32.27911
G1 X81.5 Y104.398 E32.32552
G1 X80.573 Y104.475 E32.37193
G1 X79.673 Y104.705 E32.41827
G1 X78.821 Y105.08 E32.46471
G1 X78.044 Y105.59 E32.51108
G1 X77.364 Y106.223 E32.55743
G0 F3600 X77.291 Y106.156
G0 X78.02 Y105.559
G0 X78.802 Y105.045
G0 X127.83 Y84.33
G0 X127.9 Y84.4
G1 F1800 X127.9 Y115.6 E34.11401
G1 X141.1 Y115.6 E34.77256
G1 X141.1 Y84.4 E36.32913
G1 X127.9 Y84.4 E36.98768
G0 F3600 X127.83 Y84.33
G0 X143.645 Y82.5
G0 X143.745 Y82.5
G1 F1800 X143.821 Y83.083 E37.01702
G1 X144.046 Y83.627 E37.04639
G1 X144.405 Y84.095 E37.07581
G1 X144.873 Y84.454 E37.10524
G1 X145.417 Y84.679 E37.13461
G1 X146 Y84.755 E37.16394
G1 X146.583 Y84.679 E37.19327
G1 X147.127 Y84.454 E37.22264
G1 X147.595 Y84.095 E37.25207
G1 X147.954 Y83.627 E37.2815
G1 X148.179 Y83.083 E37.31087
G1 X148.255 Y82.5 E37.3402
G1 X148.179 Y81.917 E37.36953
G1 X147.954 Y81.373 E37.3989
G1 X147.595 Y80.905 E37.42833
G1 X147.127 Y80.546 E37.45776
G1 X146.583 Y80.321 E37.48713
G1 X146 Y80.245 E37.51646
G1 X145.417 Y80.321 E37.54579
G1 X144.873 Y80.546 E37.57516
G1 X144.405 Y80.905 E37.60459
G1 X144.046 Y81.373 E37.63401
G1 X143.821 Y81.917 E37.66338
G1 X143.745 Y82.5 E37.69272
G0 F3600 X143.645 Y82.5
G0 X143.96 Y116.324
G0 X144.046 Y116.373
G1 F1800 X143.821 Y116.917 E37.72209
G1 X143.745 Y117.5 E37.75142
G1 X143.821 Y118.083 E37.78075
G1 X144.046 Y118.627 E37.81012
G1 X144.405 Y119.095 E37.83955
G1 X144.873 Y119.454 E37.86897
G1 X145.417 Y119.679 E37.89834
G1 X146 Y119.755 E37.92768
G1 X146.583 Y119.679 E37.95701
G1 X147.127 Y119.454 E37.98638
G1 X147.595 Y119.095 E38.01581
G1 X147.954 Y118.627 E38.04523
G1 X148.179 Y118.083 E38.0746
G1 X148.255 Y117.5 E38.10393
G1 X148.179 Y116.917 E38.13327
G1 X147.954 Y116.373 E38.16264
G1 X147.595 Y115.905 E38.19206
G1 X147.127 Y115.546 E38.22149
G1 X146.583 Y115.321 E38.25086
G1 X146 Y115.245 E38.28019
G1 X145.417 Y115.321 E38.30953
G1 X144.873 Y115.546 E38.3389
G1 X144.405 Y115.905 E38.36832
G1 X144.046 Y116.373 E38.39775
G0 F3600 X143.96 Y116.324
G0 X144.377 Y115.877
G0 X144.854 Y115.512
G0 X145.33 Y115.249
G0 X145.521 Y115.711
;TYPE:WALL-OUTER
G1 F1800 X145.074 Y115.896 E38.42188
G1 X144.69 Y116.19 E38.44601
G1 X144.396 Y116.574 E38.47014
G1 X144.211 Y117.021 E38.49428
G1 X144.148 Y117.5 E38.51838
G1 X144.211 Y117.979 E38.54248
G1 X144.396 Y118.426 E38.56662
G1 X144.69 Y118.81 E38.59075
G1 X145.074 Y119.104 E38.61487
G1 X145.521 Y119.289 E38.63901
G1 X146 Y119.352 E38.66311
G1 X146.479 Y119.289 E38.68722
G1 X146.926 Y119.104 E38.71135
G1 X147.31 Y118.81 E38.73548
G1 X147.604 Y118.426 E38.75961
G1 X147.789 Y117.979 E38.78374
G1 X147.852 Y117.5 E38.80785
G1 X147.789 Y117.021 E38.83195
G1 X147.604 Y116.574 E38.85609
G1 X147.31 Y116.19 E38.88021
G1 X146.926 Y115.896 E38.90434
G1 X146.479 Y115.711 E38.92848
G1 X146 Y115.648 E38.95258
G1 X145.521 Y115.711 E38.97668
G0 F3600 X145.336 Y115.787
G0 X145.145 Y115.325
G0 X143.705 Y82.5
G0 X143.783 Y81.907
G0 X144.012 Y81.354
G0 X144.377 Y80.877
G0 X144.854 Y80.512
G0 X145.33 Y80.249
G0 X145.521 Y80.711
G1 F1800 X145.074 Y80.896 E39.00082
G1 X144.69 Y81.19 E39.02495
G1 X144.396 Y81.574 E39.04907
G1 X144.211 Y82.021 E39.07321
G1 X144.148 Y82.5 E39.09731
G1 X144.211 Y82.979 E39.12142
G1 X144.396 Y83.426 E39.14555
G1 X144.69 Y83.81 E39.16968
G1 X145.074 Y84.104 E39.19381
G1 X145.521 Y84.289 E39.21794
G1 X146 Y84.352 E39.24205
G1 X146.479 Y84.289 E39.26615
G1 X146.926 Y84.104 E39.29029
G1 X147.31 Y83.81 E39.31441
G1 X147.604 Y83.426 E39.33854
G1 X147.789 Y82.979 E39.36268
G1 X147.852 Y82.5 E39.38678
G1 X147.789 Y82.021 E39.41088
G1 X147.604 Y81.574 E39.43502
G1 X147.31 Y81.19 E39.45915
G1 X146.926 Y80.896 E39.48328
G1 X146.479 Y80.711 E39.50741
G1 X146 Y80.648 E39.53151
G1 X145.521 Y80.711 E39.55562
G0 F3600 X145.336 Y80.787
G0 X145.145 Y80.325
G0 X147.951 Y78.747
G0 X148.048 Y78.255
G1 F1800 X148.572 Y78.413 E39.58292
G1 X149.052 Y78.671 E39.61011
G1 X149.479 Y79.021 E39.63765
G1 X149.829 Y79.448 E39.6652
G1 X150.087 Y79.928 E39.69239
G1 X150.245 Y80.452 E39.71969
G1 X150.3 Y81.01 E39.74767
G1 X150.3 Y118.99 E41.6425
G1 X150.245 Y119.548 E41.67047
G1 X150.087 Y120.072 E41.69777
G1 X149.829 Y120.552 E41.72496
G1 X149.479 Y120.979 E41.75251
G1 X149.052 Y121.329 E41.78005
G1 X148.572 Y121.587 E41.80724
G1 X148.048 Y121.745 E41.83454
G1 X147.49 Y121.8 E41.86252
G1 X52.51 Y121.8 E46.60109
G1 X51.952 Y121.745 E46.62906
G1 X51.428 Y121.587 E46.65637
G1 X50.948 Y121.329 E46.68355
G1 X50.521 Y120.979 E46.7111
G1 X50.171 Y120.552 E46.73864
G1 X49.913 Y120.072 E46.76583
G1 X49.755 Y119.548 E46.79314
G1 X49.7 Y118.99 E46.82111
G1 X49.7 Y81.01 E48.71594
G1 X49.755 Y80.452 E48.74391
G1 X49.913 Y79.928 E48.77122
G1 X50.171 Y79.448 E48.79841
G1 X50.521 Y79.021 E48.82595
G1 X50.948 Y78.671 E48.8535
G1 X51.428 Y78.413 E48.88068
G1 X51.952 Y78.255 E48.90799
G1 X52.51 Y78.2 E48.93596
G1 X147.49 Y78.2 E53.67453
G1 X148.048 Y78.255 E53.70251
G0 F3600 X148.239 Y78.312
G0 X148.095 Y78.79
G0 X128.3 Y84.3
G0 X128.3 Y84.8
G1 F1800 X128.3 Y115.2 E55.21917
G1 X140.7 Y115.2 E55.83781
G1 X140.7 Y84.8 E57.35447
G1 X128.3 Y84.8 E57.97311
G0 F3600 X128.3 Y85
G0 X127.8 Y85
G0 X82.878 Y117.128
G0 X80.122 Y117.128
G0 X80.05 Y116.7
G0 X80.55 Y116.7
G1 F1800 X82.45 Y116.7 E58.0679
G1 X82.45 Y115.101 E58.14768
G1 X83.119 Y114.942 E58.18198
G1 X83.915 Y114.606 E58.22509
G1 X84.643 Y114.143 E58.26813
G1 X85.285 Y113.566 E58.31119
G1 X85.823 Y112.891 E58.35426
G1 X86.242 Y112.135 E58.39738
G1 X86.53 Y111.322 E58.44041
G1 X86.679 Y110.472 E58.48347
G1 X86.686 Y109.609 E58.52652
G1 X86.55 Y108.756 E58.56962
G1 X86.274 Y107.938 E58.61269
G1 X85.868 Y107.177 E58.65572
G1 X85.34 Y106.494 E58.69879
G1 X84.708 Y105.906 E58.74185
G1 X83.987 Y105.433 E58.78488
G1 X83.196 Y105.084 E58.82801
G1 X82.36 Y104.871 E58.87105
G1 X81.5 Y104.799 E58.91411
G1 X80.64 Y104.871 E58.95716
G1 X79.804 Y105.084 E59.0002
G1 X79.013 Y105.433 E59.04334
G1 X78.292 Y105.906 E59.08636
G1 X77.66 Y106.494 E59.12942
G1 X77.132 Y107.177 E59.17249
G1 X76.726 Y107.938 E59.21552
G1 X76.45 Y108.756 E59.25859
G1 X76.314 Y109.609 E59.30169
G1 X76.321 Y110.472 E59.34475
G1 X76.47 Y111.322 E59.3878
G1 X76.758 Y112.135 E59.43083
G1 X77.177 Y112.891 E59.47395
G1 X77.715 Y113.566 E59.51702
G1 X78.357 Y114.143 E59.56008
G1 X79.085 Y114.606 E59.60312
G1 X79.881 Y114.942 E59.64623
G1 X80.55 Y115.101 E59.68053
G1 X80.55 Y116.7 E59.76031
G0 F3600 X80.75 Y116.7
G0 X80.75 Y117.2
G0 X54 Y115.205
G0 X53.33 Y115.249
G0 X53.521 Y115.711
G1 F1800 X53.074 Y115.896 E59.78444
G1 X52.69 Y116.19 E59.80857
G1 X52.396 Y116.574 E59.8327
G1 X52.211 Y117.021 E59.85684
G1 X52.148 Y117.5 E59.88094
G1 X52.211 Y117.979 E59.90504
G1 X52.396 Y118.426 E59.92918
G1 X52.69 Y118.81 E59.95331
G1 X53.074 Y119.104 E59.97743
G1 X53.521 Y119.289 E60.00157
G1 X54 Y119.352 E60.02567
G1 X54.479 Y119.289 E60.04978
G1 X54.926 Y119.104 E60.07391
G1 X55.31 Y118.81 E60.09804
G1 X55.604 Y118.426 E60.12217
G1 X55.789 Y117.979 E60.1463
G1 X55.852 Y117.5 E60.17041
G1 X55.789 Y117.021 E60.19451
G1 X55.604 Y116.574 E60.21865
G1 X55.31 Y116.19 E60.24277
G1 X54.926 Y115.896 E60.2669
G1 X54.479 Y115.711 E60.29104
G1 X54 Y115.648 E60.31514
G1 X53.521 Y115.711 E60.33924
G0 F3600 X53.336 Y115.787
G0 X53.145 Y115.325
G0 X51.705 Y82.5
G0 X51.783 Y81.907
G0 X52.012 Y81.354
G0 X52.377 Y80.877
G0 X52.854 Y80.512
G0 X53.33 Y80.249
G0 X53.521 Y80.711
G1 F1800 X53.074 Y80.896 E60.36338
G1 X52.69 Y81.19 E60.38751
G1 X52.396 Y81.574 E60.41163
G1 X52.211 Y82.021 E60.43577
G1 X52.148 Y82.5 E60.45987
G1 X52.211 Y82.979 E60.48398
G1 X52.396 Y83.426 E60.50811
G1 X52.69 Y83.81 E60.53224
G1 X53.074 Y84.104 E60.55637
G1 X53.521 Y84.289 E60.5805
G1 X54 Y84.352 E60.60461
G1 X54.479 Y84.289 E60.62871
G1 X54.926 Y84.104 E60.65285
G1 X55.31 Y83.81 E60.67697
G1 X55.604 Y83.426 E60.7011
G1 X55.789 Y82.979 E60.72524
G1 X55.852 Y82.5 E60.74934
G1 X55.789 Y82.021 E60.77344
G1 X55.604 Y81.574 E60.79758
G1 X55.31 Y81.19 E60.82171
G1 X54.926 Y80.896 E60.84584
G1 X54.479 Y80.711 E60.86997
G1 X54 Y80.648 E60.89407
G1 X53.521 Y80.711 E60.91818
G0 F3600 X53.336 Y80.787
G0 X53.145 Y80.325
G0 X53.313 Y79.931
;TYPE:WALL-INNER
G1 F1800 X52.671 Y80.196 E60.95283
G1 X52.119 Y80.619 E60.98752
G1 X51.696 Y81.171 E61.02222
G1 X51.431 Y81.813 E61.05687
G1 X51.341 Y82.5 E61.09144
G1 X51.431 Y83.187 E61.126
G1 X51.696 Y83.829 E61.16066
G1 X52.119 Y84.381 E61.19535
G1 X52.671 Y84.804 E61.23005
G1 X53.313 Y85.069 E61.2647
G1 X54 Y85.159 E61.29926
G1 X54.687 Y85.069 E61.33383
G1 X55.329 Y84.804 E61.36848
G1 X55.881 Y84.381 E61.40318
G1 X56.304 Y83.829 E61.43787
G1 X56.569 Y83.187 E61.47252
G1 X56.659 Y82.5 E61.50709
G1 X56.569 Y81.813 E61.54166
G1 X56.304 Y81.171 E61.57631
G1 X55.881 Y80.619 E61.61101
G1 X55.329 Y80.196 E61.6457
G1 X54.687 Y79.931 E61.68035
G1 X54 Y79.841 E61.71492
G1 X53.313 Y79.931 E61.74949
G0 F3600 X52.548 Y79
G1 F1800 X147.452 Y79 E66.48427
G1 X147.896 Y79.043 E66.50652
G1 X148.265 Y79.155 E66.52576
G1 X148.599 Y79.334 E66.54467
G1 X148.911 Y79.589 E66.56477
G1 X149.166 Y79.901 E66.58487
G1 X149.345 Y80.235 E66.60378
G1 X149.457 Y80.604 E66.62302
G1 X149.5 Y81.048 E66.64527
G1 X149.5 Y118.952 E68.53631
G1 X149.457 Y119.396 E68.55857
G1 X149.345 Y119.765 E68.5778
G1 X149.166 Y120.099 E68.59671
G1 X148.911 Y120.411 E68.61681
G1 X148.599 Y120.666 E68.63692
G1 X148.265 Y120.845 E68.65582
G1 X147.896 Y120.957 E68.67506
G1 X147.452 Y121 E68.69732
G1 X52.548 Y121 E73.43209
G1 X52.104 Y120.957 E73.45435
G1 X51.735 Y120.845 E73.47359
G1 X51.401 Y120.666 E73.49249
G1 X51.089 Y120.411 E73.5126
