;FLAVOR:Marlin
;TIME:5648
;Filament used: 3.35395m
;Layer height: 0.1
;Generated with Cura_SteamEngine 3.0.4
M190 S60
M104 S200
M109 S200
M82 ; absolute extrusion mode
G21 ;metric values
G90 ;absolute positioning
M82 ;set extruder to absolute mode
M107 ;start with the fan off
G28 X0 Y0 ;move X/Y to min endstops
G28 Z0 ;move Z to min endstops
G1 Z15.0 F9000 ;move the platform down 15mm
G92 E0 ;zero the extruded length
G1 F200 E3 ;extrude 3mm of feed stock
G92 E0 ;zero the extruded length again
G1 F9000
;Put printing message on LCD screen
M117 Printing...
;LAYER_COUNT:18
;LAYER:0
M107
G0 F3600 X45.37 Y71.383 Z0.3
;TYPE:SKIRT
G1 F1800 X46.061 Y70.999 E0.03944
G1 X46.786 Y70.687 E0.07882
G1 X47.539 Y70.45 E0.1182
G1 X48.313 Y70.291 E0.15762
G1 X49.098 Y70.21 E0.19699
G1 X49.5 Y70.2 E0.21706
G1 X150.5 Y70.2 E5.25597
G1 X151.289 Y70.24 E5.29538
G1 X152.069 Y70.359 E5.33475
G1 X152.834 Y70.557 E5.37417
G1 X153.574 Y70.831 E5.41354
G1 X154.283 Y71.179 E5.45294
G1 X154.954 Y71.597 E5.49238
G1 X155.578 Y72.08 E5.53175
G1 X156.151 Y72.623 E5.57113
G1 X156.666 Y73.222 E5.61054
G1 X157.117 Y73.87 E5.64993
G1 X157.501 Y74.561 E5.68937
G1 X157.813 Y75.286 E5.72875
G1 X158.05 Y76.039 E5.76813
G1 X158.209 Y76.813 E5.80756
G1 X158.29 Y77.598 E5.84693
G1 X158.3 Y78 E5.86699
G1 X158.3 Y122 E8.06216
G1 X158.26 Y122.789 E8.10157
G1 X158.141 Y123.569 E8.14094
G1 X157.943 Y124.334 E8.18036
G1 X157.669 Y125.074 E8.21973
G1 X157.321 Y125.783 E8.25913
G1 X156.903 Y126.454 E8.29857
G1 X156.42 Y127.078 E8.33794
G1 X155.877 Y127.651 E8.37732
G1 X155.278 Y128.166 E8.41674
G1 X154.63 Y128.617 E8.45612
G1 X153.939 Y129.001 E8.49556
G1 X153.214 Y129.313 E8.53494
G1 X152.461 Y129.55 E8.57432
G1 X151.687 Y129.709 E8.61375
G1 X150.902 Y129.79 E8.65312
G1 X150.5 Y129.8 E8.67318
G1 X49.5 Y129.8 E13.71209
G1 X48.711 Y129.76 E13.7515
G1 X47.931 Y129.641 E13.79087
G1 X47.166 Y129.443 E13.83029
G1 X46.426 Y129.169 E13.86966
G1 X45.717 Y128.821 E13.90906
G1 X45.046 Y128.403 E13.9485
G1 X44.422 Y127.92 E13.98787
G1 X43.849 Y127.377 E14.02726
G1 X43.334 Y126.778 E14.06667
G1 X42.883 Y126.13 E14.10606
G1 X42.499 Y125.439 E14.1455
G1 X42.187 Y124.714 E14.18487
G1 X41.95 Y123.961 E14.22426
G1 X41.791 Y123.187 E14.26368
G1 X41.71 Y122.402 E14.30305
G1 X41.7 Y122 E14.32311
G1 X41.7 Y78 E16.51828
G1 X41.74 Y77.211 E16.5577
G1 X41.859 Y76.431 E16.59706
G1 X42.057 Y75.666 E16.63648
G1 X42.331 Y74.926 E16.67585
G1 X42.679 Y74.217 E16.71526
G1 X43.097 Y73.546 E16.7547
G1 X43.58 Y72.922 E16.79406
G1 X44.123 Y72.349 E16.83345
G1 X44.722 Y71.834 E16.87286
G1 X45.37 Y71.383 E16.91225
G0 F3600 X45.753 Y71.619
G1 F1800 X46.436 Y71.264 E16.95065
G1 X47.151 Y70.983 E16.98898
G1 X47.893 Y70.777 E17.0274
G1 X48.651 Y70.649 E17.06575
G1 X49.5 Y70.6 E17.10818
G1 X150.5 Y70.6 E22.14709
G1 X151.268 Y70.64 E22.18545
G1 X152.028 Y70.759 E22.22383
G1 X152.771 Y70.957 E22.26219
G1 X153.49 Y71.231 E22.30058
G1 X154.176 Y71.578 E22.33894
G1 X154.823 Y71.994 E22.37731
G1 X155.423 Y72.475 E22.41568
G1 X155.97 Y73.016 E22.45406
G1 X156.458 Y73.611 E22.49245
G1 X156.881 Y74.253 E22.53081
G1 X157.236 Y74.936 E22.56921
G1 X157.517 Y75.651 E22.60754
G1 X157.723 Y76.393 E22.64596
G1 X157.851 Y77.151 E22.68431
G1 X157.9 Y78 E22.72674
G1 X157.9 Y122 E24.92191
G1 X157.86 Y122.768 E24.96027
G1 X157.741 Y123.528 E24.99865
G1 X157.543 Y124.271 E25.03701
G1 X157.269 Y124.99 E25.0754
G1 X156.922 Y125.676 E25.11375
G1 X156.506 Y126.323 E25.15213
G1 X156.025 Y126.923 E25.1905
G1 X155.484 Y127.47 E25.22888
G1 X154.889 Y127.958 E25.26727
G1 X154.247 Y128.381 E25.30563
G1 X153.564 Y128.736 E25.34403
G1 X152.849 Y129.017 E25.38236
G1 X152.107 Y129.223 E25.42078
G1 X151.349 Y129.351 E25.45913
G1 X150.5 Y129.4 E25.50156
G1 X49.5 Y129.4 E30.54047
G1 X48.732 Y129.36 E30.57883
G1 X47.972 Y129.241 E30.61721
G1 X47.229 Y129.043 E30.65557
G1 X46.51 Y128.769 E30.69396
G1 X45.824 Y128.422 E30.73232
G1 X45.177 Y128.006 E30.77069
G1 X44.577 Y127.525 E30.80906
G1 X44.03 Y126.984 E30.84744
G1 X43.542 Y126.389 E30.88583
G1 X43.119 Y125.747 E30.92419
G1 X42.764 Y125.064 E30.96259
G1 X42.483 Y124.349 E31.00092
G1 X42.277 Y123.607 E31.03934
G1 X42.149 Y122.849 E31.07769
G1 X42.1 Y122 E31.12012
G1 X42.1 Y78 E33.31529
G1 X42.14 Y77.232 E33.35365
G1 X42.259 Y76.472 E33.39203
G1 X42.457 Y75.729 E33.43039
G1 X42.731 Y75.01 E33.46878
G1 X43.078 Y74.324 E33.50714
G1 X43.494 Y73.677 E33.54551
G1 X43.975 Y73.077 E33.58388
G1 X44.516 Y72.53 E33.62226
G1 X45.111 Y72.042 E33.66065
G1 X45.753 Y71.619 E33.69901
G0 F3600 X45.498 Y72.257
G1 F1800 X46.134 Y71.862 E33.73636
G1 X46.808 Y71.538 E33.77367
G1 X47.513 Y71.288 E33.81099
G1 X48.241 Y71.114 E33.84833
G1 X48.983 Y71.019 E33.88565
G1 X49.5 Y71 E33.91146
G1 X150.5 Y71 E38.95037
G1 X151.247 Y71.04 E38.98769
G1 X151.985 Y71.159 E39.02499
G1 X152.707 Y71.357 E39.06234
G1 X153.403 Y71.63 E39.09964
G1 X154.066 Y71.977 E39.13697
G1 X154.689 Y72.392 E39.17432
G1 X155.263 Y72.871 E39.21162
G1 X155.784 Y73.408 E39.24894
G1 X156.243 Y73.998 E39.28624
G1 X156.638 Y74.634 E39.32359
G1 X156.962 Y75.308 E39.3609
G1 X157.212 Y76.013 E39.39822
G1 X157.386 Y76.741 E39.43556
G1 X157.481 Y77.483 E39.47288
G1 X157.5 Y78 E39.49869
G1 X157.5 Y122 E41.69386
G1 X157.46 Y122.747 E41.73118
G1 X157.341 Y123.485 E41.76848
G1 X157.143 Y124.207 E41.80583
G1 X156.87 Y124.903 E41.84313
G1 X156.523 Y125.566 E41.88046
G1 X156.108 Y126.189 E41.91781
G1 X155.629 Y126.763 E41.95511
G1 X155.092 Y127.284 E41.99243
G1 X154.502 Y127.743 E42.02973
G1 X153.866 Y128.138 E42.06708
G1 X153.192 Y128.462 E42.10439
G1 X152.487 Y128.712 E42.14171
G1 X151.759 Y128.886 E42.17905
G1 X151.017 Y128.981 E42.21637
G1 X150.5 Y129 E42.24218
G1 X49.5 Y129 E47.28109
G1 X48.753 Y128.96 E47.31841
G1 X48.015 Y128.841 E47.35571
G1 X47.293 Y128.643 E47.39306
G1 X46.597 Y128.37 E47.43036
G1 X45.934 Y128.023 E47.46769
G1 X45.311 Y127.608 E47.50504
G1 X44.737 Y127.129 E47.54234
G1 X44.216 Y126.592 E47.57966
G1 X43.757 Y126.002 E47.61696
G1 X43.362 Y125.366 E47.65431
G1 X43.038 Y124.692 E47.69162
G1 X42.788 Y123.987 E47.72894
G1 X42.614 Y123.259 E47.76628
G1 X42.519 Y122.517 E47.8036
G1 X42.5 Y122 E47.82941
G1 X42.5 Y78 E50.02458
G1 X42.54 Y77.253 E50.0619
G1 X42.659 Y76.515 E50.0992
G1 X42.857 Y75.793 E50.13655
G1 X43.13 Y75.097 E50.17385
G1 X43.477 Y74.434 E50.21118
G1 X43.892 Y73.811 E50.24853
G1 X44.371 Y73.237 E50.28583
G1 X44.908 Y72.716 E50.32315
G1 X45.498 Y72.257 E50.36045
G0 F3600 X45.884 Y72.479
G1 F1800 X46.513 Y72.115 E50.3967
G1 X47.178 Y71.822 E50.43296
G1 X47.871 Y71.604 E50.4692
G1 X48.583 Y71.464 E50.5054
G1 X49.5 Y71.4 E50.55126
G1 X150.5 Y71.4 E55.59018
G1 X151.225 Y71.44 E55.6264
G1 X151.942 Y71.559 E55.66266
G1 X152.641 Y71.757 E55.69891
G1 X153.314 Y72.03 E55.73514
G1 X153.953 Y72.375 E55.77137
G1 X154.55 Y72.789 E55.80762
G1 X155.098 Y73.265 E55.84383
G1 X155.591 Y73.799 E55.88009
G1 X156.021 Y74.384 E55.91631
G1 X156.385 Y75.013 E55.95257
G1 X156.678 Y75.678 E55.98882
G1 X156.896 Y76.371 E56.02507
G1 X157.036 Y77.083 E56.06127
G1 X157.1 Y78 E56.10713
G1 X157.1 Y122 E58.3023
G1 X157.06 Y122.725 E58.33852
G1 X156.941 Y123.442 E58.37478
G1 X156.743 Y124.141 E58.41103
G1 X156.47 Y124.814 E58.44726
G1 X156.125 Y125.453 E58.48349
G1 X155.711 Y126.05 E58.51974
G1 X155.235 Y126.598 E58.55595
G1 X154.701 Y127.091 E58.59221
G1 X154.116 Y127.521 E58.62843
G1 X153.487 Y127.885 E58.66469
G1 X152.822 Y128.178 E58.70094
G1 X152.129 Y128.396 E58.73719
G1 X151.417 Y128.536 E58.77339
G1 X150.5 Y128.6 E58.81925
G1 X49.5 Y128.6 E63.85816
G1 X48.775 Y128.56 E63.89438
G1 X48.058 Y128.441 E63.93065
G1 X47.359 Y128.243 E63.96689
G1 X46.686 Y127.97 E64.00312
G1 X46.047 Y127.625 E64.03935
G1 X45.45 Y127.211 E64.0756
G1 X44.902 Y126.735 E64.11181
G1 X44.409 Y126.201 E64.14807
G1 X43.979 Y125.616 E64.18429
G1 X43.615 Y124.987 E64.22055
G1 X43.322 Y124.322 E64.2568
G1 X43.104 Y123.629 E64.29305
G1 X42.964 Y122.917 E64.32925
G1 X42.9 Y122 E64.37511
G1 X42.9 Y78 E66.57028
G1 X42.94 Y77.275 E66.60651
G1 X43.059 Y76.558 E66.64277
G1 X43.257 Y75.859 E66.67901
G1 X43.53 Y75.186 E66.71525
G1 X43.875 Y74.547 E66.75148
G1 X44.289 Y73.95 E66.78772
G1 X44.765 Y73.402 E66.82393
G1 X45.299 Y72.909 E66.86019
G1 X45.884 Y72.479 E66.89641
G0 F3600 X46.268 Y72.709
G1 F1800 X46.889 Y72.377 E66.93155
G1 X47.543 Y72.117 E66.96666
G1 X48.223 Y71.933 E67.0018
G1 X48.919 Y71.827 E67.03693
G1 X49.5 Y71.8 E67.06595
G1 X150.5 Y71.8 E72.10486
G1 X151.203 Y71.84 E72.13999
G1 X151.897 Y71.959 E72.17511
G1 X152.572 Y72.157 E72.21021
G1 X153.221 Y72.429 E72.24532
G1 X153.835 Y72.774 E72.28045
G1 X154.406 Y73.185 E72.31555
G1 X154.927 Y73.659 E72.35069
G1 X155.391 Y74.189 E72.38584
G1 X155.791 Y74.768 E72.42095
G1 X156.123 Y75.389 E72.45608
G1 X156.383 Y76.043 E72.49119
G1 X156.567 Y76.723 E72.52634
G1 X156.673 Y77.419 E72.56146
G1 X156.7 Y78 E72.59048
G1 X156.7 Y122 E74.78565
G1 X156.66 Y122.703 E74.82078
G1 X156.541 Y123.397 E74.8559
G1 X156.343 Y124.072 E74.891
G1 X156.071 Y124.721 E74.92611
G1 X155.726 Y125.335 E74.96124
G1 X155.315 Y125.906 E74.99634
G1 X154.841 Y126.427 E75.03148
G1 X154.311 Y126.891 E75.06663
G1 X153.732 Y127.291 E75.10174
G1 X153.111 Y127.623 E75.13687
G1 X152.457 Y127.883 E75.17198
G1 X151.777 Y128.067 E75.20713
G1 X151.081 Y128.173 E75.24225
G1 X150.5 Y128.2 E75.27127
G1 X49.5 Y128.2 E80.31018
G1 X48.797 Y128.16 E80.34531
G1 X48.103 Y128.041 E80.38044
G1 X47.428 Y127.843 E80.41553
G1 X46.779 Y127.571 E80.45064
G1 X46.165 Y127.226 E80.48578
G1 X45.594 Y126.815 E80.52087
G1 X45.073 Y126.341 E80.55602
G1 X44.609 Y125.811 E80.59116
G1 X44.209 Y125.232 E80.62627
G1 X43.877 Y124.611 E80.6614
G1 X43.617 Y123.957 E80.69651
G1 X43.433 Y123.277 E80.73166
G1 X43.327 Y122.581 E80.76678
G1 X43.3 Y122 E80.7958
G1 X43.3 Y78 E82.99097
G1 X43.34 Y77.297 E83.0261
G1 X43.459 Y76.603 E83.06123
G1 X43.657 Y75.928 E83.09632
G1 X43.929 Y75.279 E83.13143
G1 X44.274 Y74.665 E83.16657
G1 X44.685 Y74.094 E83.20166
G1 X45.159 Y73.573 E83.23681
G1 X45.689 Y73.109 E83.27195
G1 X46.268 Y72.709 E83.30706
G0 F3600 X46.65 Y72.948
G1 F1800 X47.262 Y72.649 E83.34104
G1 X47.904 Y72.424 E83.37498
G1 X48.569 Y72.275 E83.40898
G1 X49.5 Y72.2 E83.45558
G1 X150.5 Y72.2 E88.49449
G1 X151.18 Y72.24 E88.52847
G1 X151.85 Y72.359 E88.56242
G1 X152.502 Y72.556 E88.5964
G1 X153.126 Y72.828 E88.63036
G1 X153.714 Y73.172 E88.66435
G1 X154.258 Y73.582 E88.69833
G1 X154.749 Y74.053 E88.73228
G1 X155.183 Y74.578 E88.76626
G1 X155.552 Y75.15 E88.80022
G1 X155.851 Y75.762 E88.8342
G1 X156.076 Y76.404 E88.86814
G1 X156.225 Y77.069 E88.90214
G1 X156.3 Y78 E88.94874
G1 X156.3 Y122 E91.14391
G1 X156.26 Y122.68 E91.17789
G1 X156.141 Y123.35 E91.21184
G1 X155.944 Y124.002 E91.24583
G1 X155.672 Y124.626 E91.27979
G1 X155.328 Y125.214 E91.31377
G1 X154.918 Y125.758 E91.34776
G1 X154.447 Y126.249 E91.3817
G1 X153.922 Y126.683 E91.41569
G1 X153.35 Y127.052 E91.44965
G1 X152.738 Y127.351 E91.48363
G1 X152.096 Y127.576 E91.51757
G1 X151.431 Y127.725 E91.55157
G1 X150.5 Y127.8 E91.59817
G1 X49.5 Y127.8 E96.63708
G1 X48.82 Y127.76 E96.67106
G1 X48.15 Y127.641 E96.70501
G1 X47.498 Y127.444 E96.73899
G1 X46.874 Y127.172 E96.77295
G1 X46.286 Y126.828 E96.80694
G1 X45.742 Y126.418 E96.84092
G1 X45.251 Y125.947 E96.87487
G1 X44.817 Y125.422 E96.90885
G1 X44.448 Y124.85 E96.94281
G1 X44.149 Y124.238 E96.97679
G1 X43.924 Y123.596 E97.01073
G1 X43.775 Y122.931 E97.04473
G1 X43.7 Y122 E97.09133
G1 X43.7 Y78 E99.2865
G1 X43.74 Y77.32 E99.32048
G1 X43.859 Y76.65 E99.35443
G1 X44.056 Y75.998 E99.38841
G1 X44.328 Y75.374 E99.42237
G1 X44.672 Y74.786 E99.45636
G1 X45.082 Y74.242 E99.49035
G1 X45.553 Y73.751 E99.52429
G1 X46.078 Y73.317 E99.55827
G1 X46.65 Y72.948 E99.59223
G0 F3600 X46.465 Y73.534
G1 F1800 X47.029 Y73.198 E99.62499
G1 X47.631 Y72.934 E99.65778
G1 X48.26 Y72.744 E99.69056
G1 X48.907 Y72.633 E99.72331
G1 X49.5 Y72.6 E99.75294
G1 X150.5 Y72.6 E104.79185
G1 X151.156 Y72.64 E104.82464
G1 X151.802 Y72.759 E104.85741
G1 X152.429 Y72.956 E104.8902
G1 X153.027 Y73.228 E104.92298
G1 X153.588 Y73.57 E104.95576
G1 X154.103 Y73.978 E104.98854
G1 X154.565 Y74.445 E105.02131
G1 X154.966 Y74.965 E105.05407
G1 X155.302 Y75.529 E105.08682
G1 X155.566 Y76.131 E105.11962
G1 X155.756 Y76.76 E105.1524
G1 X155.867 Y77.407 E105.18515
G1 X155.9 Y78 E105.21478
G1 X155.9 Y122 E107.40995
G1 X155.86 Y122.656 E107.44274
G1 X155.741 Y123.302 E107.47551
G1 X155.544 Y123.929 E107.5083
G1 X155.272 Y124.527 E107.54108
G1 X154.93 Y125.088 E107.57385
G1 X154.522 Y125.603 E107.60663
G1 X154.055 Y126.065 E107.63941
G1 X153.535 Y126.466 E107.67217
G1 X152.971 Y126.802 E107.70492
G1 X152.369 Y127.066 E107.73772
G1 X151.74 Y127.256 E107.7705
G1 X151.093 Y127.367 E107.80325
G1 X150.5 Y127.4 E107.83288
G1 X49.5 Y127.4 E112.87179
G1 X48.844 Y127.36 E112.90458
G1 X48.198 Y127.241 E112.93735
G1 X47.571 Y127.044 E112.97014
G1 X46.973 Y126.772 E113.00291
G1 X46.412 Y126.43 E113.03569
G1 X45.897 Y126.022 E113.06847
G1 X45.435 Y125.555 E113.10125
G1 X45.034 Y125.035 E113.13401
G1 X44.698 Y124.471 E113.16676
G1 X44.434 Y123.869 E113.19955
G1 X44.244 Y123.24 E113.23234
G1 X44.133 Y122.593 E113.26509
G1 X44.1 Y122 E113.29472
G1 X44.1 Y78 E115.48989
G1 X44.14 Y77.344 E115.52268
G1 X44.259 Y76.698 E115.55545
G1 X44.456 Y76.071 E115.58824
G1 X44.728 Y75.473 E115.62101
G1 X45.07 Y74.912 E115.65379
G1 X45.478 Y74.397 E115.68657
G1 X45.945 Y73.935 E115.71934
G1 X46.465 Y73.534 E115.7521
G0 F3600 X46.85 Y73.76
G1 F1800 X47.406 Y73.46 E115.78362
G1 X47.995 Y73.232 E115.81513
G1 X48.609 Y73.08 E115.84669
G1 X49.5 Y73 E115.89132
G1 X150.5 Y73 E120.93023
G1 X151.131 Y73.04 E120.96178
G1 X151.752 Y73.159 E120.99332
G1 X152.352 Y73.356 E121.02483
G1 X152.924 Y73.627 E121.05641
G1 X153.456 Y73.967 E121.0879
G1 X153.941 Y74.373 E121.11946
G1 X154.371 Y74.836 E121.15098
G1 X154.74 Y75.35 E121.18255
G1 X155.04 Y75.906 E121.21407
G1 X155.268 Y76.495 E121.24558
G1 X155.42 Y77.109 E121.27714
G1 X155.5 Y78 E121.32177
G1 X155.5 Y122 E123.51694
G1 X155.46 Y122.631 E123.54848
G1 X155.341 Y123.252 E123.58003
G1 X155.144 Y123.852 E123.61153
G1 X154.873 Y124.424 E123.64311
G1 X154.533 Y124.956 E123.67461
G1 X154.127 Y125.441 E123.70617
G1 X153.664 Y125.871 E123.73769
G1 X153.15 Y126.24 E123.76926
G1 X152.594 Y126.54 E123.80078
G1 X152.005 Y126.768 E123.83229
G1 X151.391 Y126.92 E123.86385
G1 X150.5 Y127 E123.90848
G1 X49.5 Y127 E128.94739
G1 X48.869 Y126.96 E128.97893
G1 X48.248 Y126.841 E129.01048
G1 X47.648 Y126.644 E129.04198
G1 X47.076 Y126.373 E129.07356
G1 X46.544 Y126.033 E129.10506
G1 X46.059 Y125.627 E129.13662
G1 X45.629 Y125.164 E129.16814
G1 X45.26 Y124.65 E129.19971
G1 X44.96 Y124.094 E129.23123
G1 X44.732 Y123.505 E129.26274
G1 X44.58 Y122.891 E129.29429
G1 X44.5 Y122 E129.33893
G1 X44.5 Y78 E131.53409
G1 X44.54 Y77.369 E131.56564
G1 X44.659 Y76.748 E131.59718
G1 X44.856 Y76.148 E131.62869
G1 X45.127 Y75.576 E131.66027
G1 X45.467 Y75.044 E131.69177
G1 X45.873 Y74.559 E131.72332
G1 X46.336 Y74.129 E131.75485
G1 X46.85 Y73.76 E131.78641
G0 F3600 X47.232 Y73.998
G1 F1800 X47.778 Y73.734 E131.81667
G1 X48.354 Y73.545 E131.84692
G1 X48.95 Y73.433 E131.87717
G1 X49.5 Y73.4 E131.90466
G1 X150.5 Y73.4 E136.94357
G1 X151.105 Y73.44 E136.97382
G1 X151.699 Y73.559 E137.00404
G1 X152.273 Y73.755 E137.0343
G1 X152.816 Y74.026 E137.06458
G1 X153.319 Y74.365 E137.09484
G1 X153.772 Y74.767 E137.12506
G1 X154.169 Y75.225 E137.1553
G1 X154.502 Y75.732 E137.18556
G1 X154.766 Y76.278 E137.21582
G1 X154.955 Y76.854 E137.24606
G1 X155.067 Y77.45 E137.27632
G1 X155.1 Y78 E137.30381
G1 X155.1 Y122 E139.49897
G1 X155.06 Y122.605 E139.52922
G1 X154.941 Y123.199 E139.55945
G1 X154.745 Y123.773 E139.58971
G1 X154.474 Y124.316 E139.61998
G1 X154.135 Y124.819 E139.65025
G1 X153.733 Y125.272 E139.68046
G1 X153.275 Y125.669 E139.7107
G1 X152.768 Y126.002 E139.74096
G1 X152.222 Y126.266 E139.77122
G1 X151.646 Y126.455 E139.80147
G1 X151.05 Y126.567 E139.83172
G1 X150.5 Y126.6 E139.85921
G1 X49.5 Y126.6 E144.89812
G1 X48.895 Y126.56 E144.92837
G1 X48.301 Y126.441 E144.95859
G1 X47.727 Y126.245 E144.98885
G1 X47.184 Y125.974 E145.01913
G1 X46.681 Y125.635 E145.04939
G1 X46.228 Y125.233 E145.07961
