;FLAVOR:Marlin
;TIME:6739
;Filament used: 3.87507m
;Layer height: 0.1
;Generated with Cura_SteamEngine 3.0.4
M190 S60
M104 S200
M109 S200
M82 ; absolute extrusion mode
G21 ;metric values
G90 ;absolute positioning
M82 ;set extruder to absolute mode
M107 ;start with the fan off
G28 X0 Y0 ;move X/Y to min endstops
G28 Z0 ;move Z to min endstops
G1 Z15.0 F9000 ;move the platform down 15mm
G92 E0 ;zero the extruded length
G1 F200 E3 ;extrude 3mm of feed stock
G92 E0 ;zero the extruded length again
G1 F9000
;Put printing message on LCD screen
M117 Printing...
;LAYER_COUNT:28
;LAYER:0
M107
G0 F3600 X48.106 Y74.83 Z0.3
;TYPE:SKIRT
G1 F1800 X48.581 Y74.562 E0.02721
G1 X49.271 Y74.247 E0.06505
G1 X49.924 Y74.03 E0.09938
G1 X50.475 Y73.911 E0.1275
G1 X51.15 Y73.839 E0.16137
G1 X148.305 Y73.807 E5.00845
G1 X148.624 Y73.823 E5.02439
G1 X149.505 Y73.911 E5.06856
G1 X150.003 Y74.001 E5.09381
G1 X150.334 Y74.108 E5.11116
G1 X151.045 Y74.381 E5.14916
G1 X151.657 Y74.695 E5.18348
G1 X152.116 Y74.997 E5.21089
G1 X152.686 Y75.476 E5.24804
G1 X153.306 Y76.134 E5.29314
G1 X153.623 Y76.528 E5.31837
G1 X153.787 Y76.797 E5.33409
G1 X154.061 Y77.3 E5.36266
G1 X154.313 Y77.9 E5.39513
G1 X154.497 Y78.505 E5.42668
G1 X154.605 Y78.999 E5.45191
G1 X154.632 Y79.308 E5.46738
G1 X154.697 Y80.935 E5.54862
G1 X154.7 Y81.064 E5.55506
G1 X154.693 Y119.807 E7.48795
G1 X154.683 Y120.056 E7.50038
G1 X154.622 Y120.835 E7.53937
G1 X154.494 Y121.513 E7.57379
G1 X154.324 Y122.074 E7.60304
G1 X154.07 Y122.68 E7.63582
G1 X153.775 Y123.22 E7.66652
G1 X153.499 Y123.643 E7.69172
G1 X153.332 Y123.841 E7.70464
G1 X152.809 Y124.415 E7.74338
G1 X152.252 Y124.9 E7.78023
G1 X151.716 Y125.267 E7.81264
G1 X151.277 Y125.519 E7.83789
G1 X151.004 Y125.634 E7.85267
G1 X150.159 Y125.942 E7.89754
G1 X149.672 Y126.077 E7.92275
G1 X149.191 Y126.132 E7.9469
G1 X147.565 Y126.197 E8.02809
G1 X147.437 Y126.2 E8.03448
G1 X51.645 Y126.192 E12.81356
G1 X51.384 Y126.181 E12.82659
G1 X50.651 Y126.121 E12.86329
G1 X49.994 Y125.997 E12.89664
G1 X49.45 Y125.834 E12.92497
G1 X48.856 Y125.589 E12.95703
G1 X48.332 Y125.308 E12.9867
G1 X47.906 Y125.035 E13.01194
G1 X47.539 Y124.708 E13.03646
G1 X46.657 Y123.792 E13.0999
G1 X46.336 Y123.401 E13.12514
G1 X46.036 Y122.867 E13.1557
G1 X45.723 Y122.16 E13.19427
G1 X45.523 Y121.549 E13.22635
G1 X45.416 Y121.06 E13.25132
G1 X45.342 Y120.379 E13.2855
G1 X45.3 Y80.708 E15.26469
G1 X45.304 Y80.541 E15.27303
G1 X45.369 Y79.271 E15.33647
G1 X45.435 Y78.77 E15.36168
G1 X45.5 Y78.515 E15.37481
G1 X45.673 Y77.939 E15.40481
G1 X45.947 Y77.294 E15.43978
G1 X46.279 Y76.702 E15.47364
G1 X46.56 Y76.282 E15.49885
G1 X46.872 Y75.941 E15.52191
G1 X47.712 Y75.147 E15.57958
G1 X48.106 Y74.83 E15.60481
G1 F1500 E9.10481
G0 F3600 X49.582 Y76.886
G0 X50.186 Y78.018
G0 X50.23 Y78.085
G0 X50.175 Y78.002
;TYPE:WALL-INNER
G1 F1500 E15.60481
G1 F1800 X50.307 Y77.932 E15.61226
G1 X50.586 Y77.784 E15.62802
G1 X50.881 Y77.695 E15.64339
G1 X51.038 Y77.648 E15.65156
G1 X51.496 Y77.604 E15.67452
G1 X51.528 Y77.6 E15.67613
G1 X52.109 Y77.6 E15.70511
G1 X52.678 Y77.6 E15.7335
G1 X52.738 Y77.6 E15.7365
G1 X147.262 Y77.6 E20.45232
G1 X147.322 Y77.6 E20.45531
G1 X147.891 Y77.6 E20.4837
G1 X148.471 Y77.6 E20.51263
G1 X148.503 Y77.603 E20.51424
G1 X148.97 Y77.649 E20.53765
G1 X149.118 Y77.693 E20.54535
G1 X149.42 Y77.785 E20.5611
G1 X149.693 Y77.931 E20.57655
G1 X149.827 Y78.003 E20.58414
G1 X150.195 Y78.305 E20.60789
G1 X150.497 Y78.673 E20.63164
G1 X150.568 Y78.807 E20.6392
G1 X150.715 Y79.08 E20.65467
G1 X150.806 Y79.381 E20.67036
G1 X150.851 Y79.53 E20.67813
G1 X150.896 Y79.996 E20.70148
G1 X150.9 Y80.029 E20.70314
G1 X150.9 Y80.609 E20.73208
G1 X150.9 Y81.178 E20.76047
G1 X150.9 Y81.238 E20.76346
G1 X150.9 Y118.762 E22.63554
G1 X150.9 Y118.822 E22.63853
G1 X150.9 Y119.391 E22.66692
G1 X150.9 Y119.971 E22.69586
G1 X150.897 Y120.003 E22.69746
G1 X150.851 Y120.47 E22.72087
G1 X150.807 Y120.618 E22.72857
G1 X150.715 Y120.92 E22.74433
G1 X150.569 Y121.193 E22.75977
G1 X150.497 Y121.327 E22.76736
G1 X150.195 Y121.695 E22.79111
G1 X149.827 Y121.997 E22.81486
G1 X149.693 Y122.068 E22.82243
G1 X149.42 Y122.215 E22.8379
G1 X149.119 Y122.306 E22.85358
G1 X148.97 Y122.351 E22.86135
G1 X148.504 Y122.396 E22.88471
G1 X148.471 Y122.4 E22.88636
G1 X147.891 Y122.4 E22.9153
G1 X147.322 Y122.4 E22.94369
G1 X147.262 Y122.4 E22.94668
G1 X52.738 Y122.4 E27.6625
G1 X52.678 Y122.4 E27.6655
G1 X52.109 Y122.4 E27.69388
G1 X51.526 Y122.4 E27.72297
G1 X51.497 Y122.398 E27.72442
G1 X51.038 Y122.353 E27.74743
G1 X50.882 Y122.307 E27.75554
G1 X50.585 Y122.217 E27.77103
G1 X50.307 Y122.07 E27.78672
G1 X50.178 Y122.001 E27.79401
G1 X49.818 Y121.707 E27.8172
G1 X49.805 Y121.691 E27.81823
G1 X49.494 Y121.31 E27.84277
G1 X49.432 Y121.193 E27.84937
G1 X49.287 Y120.922 E27.86471
G1 X49.195 Y120.619 E27.88051
G1 X49.15 Y120.471 E27.88822
G1 X49.104 Y120.004 E27.91164
G1 X49.1 Y119.972 E27.91324
G1 X49.1 Y119.391 E27.94223
G1 X49.1 Y118.822 E27.97062
G1 X49.1 Y118.762 E27.97361
G1 X49.1 Y81.238 E29.84569
G1 X49.1 Y81.178 E29.84869
G1 X49.1 Y80.609 E29.87707
G1 X49.1 Y80.023 E29.90631
G1 X49.102 Y79.998 E29.90756
G1 X49.143 Y79.563 E29.92936
G1 X49.196 Y79.383 E29.93872
G1 X49.29 Y79.07 E29.95502
G1 X49.431 Y78.808 E29.96987
G1 X49.502 Y78.678 E29.97726
G1 X49.803 Y78.31 E30.00098
G1 X49.814 Y78.296 E30.00187
G1 X50.175 Y78.002 E30.02509
G0 F3600 X50.322 Y77.959
G1 F1800 X50.21 Y78.045
G1 X49.835 Y78.335 E30.02781
G1 X49.545 Y78.711
G1 X49.459 Y78.822
G1 X49.348 Y79.093
G1 X49.225 Y79.391
G1 X49.202 Y79.57
G1 X49.144 Y80 E30.03045
G1 X49.146 Y80.016
G1 X49.225 Y80.609 E30.03713
G1 X49.459 Y81.178 E30.05638
G1 X49.495 Y81.225 E30.05919
G1 X49.835 Y81.665 E30.08693
G1 X50.322 Y82.041 E30.11762
G1 X50.891 Y82.275 E30.14832
G1 X51.5 Y82.356 E30.17897
G1 X52.109 Y82.275 E30.20962
G1 X52.678 Y82.041 E30.24031
G1 X53.165 Y81.665 E30.27101
G1 X53.541 Y81.178 E30.3017
G1 X53.775 Y80.609 E30.3324
G1 X53.856 Y80 E30.36305
G1 X53.775 Y79.391 E30.3937
G1 X53.541 Y78.822 E30.42439
G1 X53.165 Y78.335 E30.45509
G1 X52.725 Y77.995 E30.48283
G1 X52.678 Y77.959 E30.48564
G1 X52.109 Y77.725 E30.50489
G1 X51.522 Y77.647 E30.51082
G1 X51.5 Y77.644
G1 X51.046 Y77.704
G1 X50.891 Y77.725
G1 X50.61 Y77.84
G1 X50.322 Y77.959
G0 F3600 X50.272 Y77.873
G0 X50.881 Y77.687
G0 X51.5 Y77.604
G0 X52.119 Y77.687
G0 X52.698 Y77.925
G0 X53.193 Y78.307
G0 X68.483 Y96.786
G0 X68.553 Y96.856
G1 F1800 X68.553 Y109.347 E31.134
G1 X87.972 Y109.364 E32.10281
G1 X92.047 Y109.344 E32.30612
G1 X92.047 Y96.853 E32.9293
G1 X73.034 Y96.836 E33.87786
G1 X68.553 Y96.856 E34.10142
G0 F3600 X68.483 Y96.786
G0 X60.581 Y110.931
G0 X60.609 Y111.026
G1 F1800 X59.947 Y111.312 E34.1374
G1 X59.37 Y111.743 E34.17333
G1 X58.907 Y112.294 E34.20923
G1 X58.584 Y112.938 E34.24518
G1 X58.417 Y113.64 E34.28118
G1 X58.417 Y114.36 E34.3171
G1 X58.584 Y115.062 E34.3531
G1 X58.907 Y115.706 E34.38904
G1 X59.37 Y116.257 E34.42495
G1 X59.947 Y116.688 E34.46088
G1 X60.609 Y116.974 E34.49686
G1 X61.32 Y117.099 E34.53288
G1 X62.039 Y117.057 E34.56881
G1 X62.73 Y116.851 E34.60478
G1 X63.354 Y116.489 E34.64077
G1 X63.877 Y115.995 E34.67666
G1 X64.274 Y115.393 E34.71264
G1 X64.521 Y114.716 E34.74859
G1 X64.604 Y114 E34.78455
G1 X64.521 Y113.284 E34.82051
G1 X64.274 Y112.607 E34.85647
G1 X63.877 Y112.005 E34.89245
G1 X63.354 Y111.511 E34.92834
G1 X62.73 Y111.149 E34.96433
G1 X62.039 Y110.943 E35.0003
G1 X61.32 Y110.901 E35.03623
G1 X60.609 Y111.026 E35.07225
G0 F3600 X60.581 Y110.931
G0 X59.927 Y111.278
G0 X51.5 Y117.544
G0 X51.5 Y117.644
G1 F1800 X50.891 Y117.725 E35.1029
G1 X50.322 Y117.959 E35.13359
G1 X49.835 Y118.335 E35.16429
G1 X49.495 Y118.775 E35.19203
G1 X49.459 Y118.822 E35.19484
G1 X49.225 Y119.391 E35.21409
G1 X49.147 Y119.978 E35.22002
G1 X49.144 Y120
G1 X49.205 Y120.463
G1 X49.225 Y120.609
G1 X49.344 Y120.898
G1 X49.459 Y121.178
G1 X49.535 Y121.276
G1 X49.835 Y121.665 E35.22288
G1 X49.844 Y121.672
G1 X50.212 Y121.956 E35.22305
G1 X50.322 Y122.041
G1 X50.608 Y122.158
G1 X50.891 Y122.275
G1 X51.045 Y122.295
G1 X51.5 Y122.356 E35.22523
G1 X51.518 Y122.354
G1 X52.109 Y122.275 E35.23191
G1 X52.678 Y122.041 E35.25116
G1 X52.725 Y122.005 E35.25397
G1 X53.165 Y121.665 E35.28171
G1 X53.541 Y121.178 E35.3124
G1 X53.775 Y120.609 E35.3431
G1 X53.856 Y120 E35.37375
G1 X53.775 Y119.391 E35.4044
G1 X53.541 Y118.822 E35.43509
G1 X53.165 Y118.335 E35.46579
G1 X52.678 Y117.959 E35.49648
G1 X52.109 Y117.725 E35.52718
G1 X51.5 Y117.644 E35.55783
G0 F3600 X51.5 Y117.544
G0 X62.045 Y117.096
G0 X92.075 Y109.372
G0 X100.39 Y106.899
G0 X100.476 Y106.948
G1 F1800 X100.266 Y107.456 E35.58525
G1 X100.195 Y108 E35.61262
G1 X100.266 Y108.544 E35.63999
G1 X100.476 Y109.052 E35.66742
G1 X100.811 Y109.489 E35.69489
G1 X101.248 Y109.824 E35.72236
G1 X101.756 Y110.034 E35.74978
G1 X102.3 Y110.105 E35.77716
G1 X102.844 Y110.034 E35.80453
G1 X103.352 Y109.824 E35.83195
G1 X103.789 Y109.489 E35.85942
G1 X104.124 Y109.052 E35.88689
G1 X104.334 Y108.544 E35.91432
G1 X104.405 Y108 E35.94169
G1 X104.334 Y107.456 E35.96906
G1 X104.124 Y106.948 E35.99648
G1 X103.789 Y106.511 E36.02395
G1 X103.352 Y106.176 E36.05142
G1 X102.844 Y105.966 E36.07885
G1 X102.3 Y105.895 E36.10622
G1 X101.756 Y105.966 E36.13359
G1 X101.248 Y106.176 E36.16101
G1 X100.811 Y106.511 E36.18848
G1 X100.476 Y106.948 E36.21596
G0 F3600 X100.39 Y106.899
G0 X100.783 Y106.483
G0 X101.229 Y106.142
G0 X139.37 Y92.231
G0 X139.466 Y92.256
G1 F1800 X139.395 Y92.8 E36.24333
G1 X139.466 Y93.344 E36.2707
G1 X139.676 Y93.852 E36.29812
G1 X140.011 Y94.289 E36.32559
G1 X140.448 Y94.624 E36.35306
G1 X140.956 Y94.834 E36.38049
G1 X141.5 Y94.905 E36.40786
G1 X142.044 Y94.834 E36.43523
G1 X142.552 Y94.624 E36.46265
G1 X142.989 Y94.289 E36.49012
G1 X143.324 Y93.852 E36.51759
G1 X143.534 Y93.344 E36.54502
G1 X143.605 Y92.8 E36.57239
G1 X143.534 Y92.256 E36.59976
G1 X143.324 Y91.748 E36.62718
G1 X142.989 Y91.311 E36.65466
G1 X142.552 Y90.976 E36.68213
G1 X142.044 Y90.766 E36.70955
G1 X141.5 Y90.695 E36.73692
G1 X140.956 Y90.766 E36.76429
G1 X140.448 Y90.976 E36.79172
G1 X140.011 Y91.311 E36.81919
G1 X139.676 Y91.748 E36.84666
G1 X139.466 Y92.256 E36.87408
G0 F3600 X139.37 Y92.231
G0 X146.044 Y80
G0 X146.144 Y80
G1 F1800 X146.225 Y80.609 E36.90473
G1 X146.459 Y81.178 E36.93543
G1 X146.835 Y81.665 E36.96612
G1 X147.322 Y82.041 E36.99682
G1 X147.891 Y82.275 E37.02751
G1 X148.5 Y82.356 E37.05816
G1 X149.109 Y82.275 E37.08881
G1 X149.678 Y82.041 E37.11951
G1 X150.165 Y81.665 E37.1502
G1 X150.505 Y81.225 E37.17795
G1 X150.541 Y81.178 E37.18076
G1 X150.775 Y80.609 E37.20001
G1 X150.852 Y80.023 E37.20594
G1 X150.856 Y80
G1 X150.795 Y79.538
G1 X150.775 Y79.391
G1 X150.658 Y79.105
G1 X150.541 Y78.822
G1 X150.453 Y78.708
G1 X150.165 Y78.335 E37.20871
G1 X149.793 Y78.048
G1 X149.678 Y77.959
G1 X149.397 Y77.844
G1 X149.109 Y77.725
G1 X148.964 Y77.706
G1 X148.5 Y77.644 E37.21154
G1 X148.479 Y77.646
G1 X147.891 Y77.725 E37.21819
G1 X147.322 Y77.959 E37.23744
G1 X147.275 Y77.995 E37.24025
G1 X146.835 Y78.335 E37.26799
G1 X146.459 Y78.822 E37.29868
G1 X146.225 Y79.391 E37.32938
G1 X146.144 Y80 E37.36003
G0 F3600 X146.044 Y80
G0 X146.373 Y118.772
G0 X146.459 Y118.822
G1 F1800 X146.225 Y119.391 E37.39072
G1 X146.144 Y120 E37.42137
G1 X146.225 Y120.609 E37.45202
G1 X146.459 Y121.178 E37.48272
G1 X146.835 Y121.665 E37.51341
G1 X147.275 Y122.005 E37.54116
G1 X147.322 Y122.041 E37.54397
G1 X147.891 Y122.275 E37.56322
G1 X148.477 Y122.352 E37.56914
G1 X148.5 Y122.356
G1 X148.962 Y122.295
G1 X149.109 Y122.275
G1 X149.395 Y122.158
G1 X149.678 Y122.041
G1 X149.792 Y121.953
G1 X150.165 Y121.665 E37.57192
G1 X150.452 Y121.293
G1 X150.541 Y121.178
G1 X150.656 Y120.897
G1 X150.775 Y120.609
G1 X150.794 Y120.464
G1 X150.856 Y120 E37.57475
G1 X150.854 Y119.979
G1 X150.775 Y119.391 E37.5814
G1 X150.541 Y118.822 E37.60065
G1 X150.505 Y118.775 E37.60346
G1 X150.165 Y118.335 E37.6312
G1 X149.678 Y117.959 E37.66189
G1 X149.109 Y117.725 E37.69259
G1 X148.5 Y117.644 E37.72324
G1 X147.891 Y117.725 E37.75389
G1 X147.322 Y117.959 E37.78458
G1 X146.835 Y118.335 E37.81528
G1 X146.459 Y118.822 E37.84597
G0 F3600 X146.373 Y118.772
G0 X146.807 Y118.307
G0 X147.302 Y117.925
G0 X147.929 Y117.619
G0 X147.995 Y118.115
;TYPE:WALL-OUTER
G1 F1800 X147.524 Y118.309 E37.87139
G1 X147.12 Y118.62 E37.89682
G1 X146.809 Y119.024 E37.92226
G1 X146.615 Y119.495 E37.94767
G1 X146.548 Y120 E37.97309
G1 X146.615 Y120.505 E37.9985
G1 X146.809 Y120.976 E38.02392
G1 X147.12 Y121.38 E38.04935
G1 X147.524 Y121.691 E38.07479
G1 X147.995 Y121.885 E38.1002
G1 X148.5 Y121.952 E38.12562
G1 X149.005 Y121.885 E38.15103
G1 X149.476 Y121.691 E38.17645
G1 X149.88 Y121.38 E38.20188
G1 X150.191 Y120.976 E38.22732
G1 X150.385 Y120.505 E38.25273
G1 X150.452 Y120 E38.27815
G1 X150.385 Y119.495 E38.30356
G1 X150.191 Y119.024 E38.32898
G1 X149.88 Y118.62 E38.35441
G1 X149.476 Y118.309 E38.37985
G1 X149.005 Y118.115 E38.40526
G1 X148.5 Y118.048 E38.43068
G1 X147.995 Y118.115 E38.45609
G0 F3600 X147.81 Y118.191
G0 X147.62 Y117.728
G0 X139.428 Y93.354
G0 X139.355 Y92.8
G0 X139.428 Y92.246
G0 X139.642 Y91.729
G0 X139.983 Y91.283
G0 X140.429 Y90.942
G0 X140.996 Y90.66
G0 X141.06 Y91.156
G1 F1800 X140.649 Y91.326 E38.47828
G1 X140.296 Y91.596 E38.50045
G1 X140.026 Y91.949 E38.52263
G1 X139.856 Y92.36 E38.54482
G1 X139.798 Y92.8 E38.56696
G1 X139.856 Y93.24 E38.5891
G1 X140.026 Y93.651 E38.61129
G1 X140.296 Y94.004 E38.63346
G1 X140.649 Y94.274 E38.65563
G1 X141.06 Y94.444 E38.67782
G1 X141.5 Y94.502 E38.69996
G1 X141.94 Y94.444 E38.72211
G1 X142.351 Y94.274 E38.7443
G1 X142.704 Y94.004 E38.76647
G1 X142.974 Y93.651 E38.78864
G1 X143.144 Y93.24 E38.81083
G1 X143.202 Y92.8 E38.83297
G1 X143.144 Y92.36 E38.85511
G1 X142.974 Y91.949 E38.8773
G1 X142.704 Y91.596 E38.89948
G1 X142.351 Y91.326 E38.92165
G1 X141.94 Y91.156 E38.94384
G1 X141.5 Y91.098 E38.96598
G1 X141.06 Y91.156 E38.98812
G0 F3600 X140.875 Y91.232
G0 X140.684 Y90.77
G0 X146.425 Y78.802
G0 X146.807 Y78.307
G0 X147.302 Y77.925
G0 X147.929 Y77.619
G0 X147.995 Y78.115
G1 F1800 X147.524 Y78.309 E39.01353
G1 X147.12 Y78.62 E39.03897
G1 X146.809 Y79.024 E39.06441
G1 X146.615 Y79.495 E39.08982
G1 X146.548 Y80 E39.11523
G1 X146.615 Y80.505 E39.14065
G1 X146.809 Y80.976 E39.16606
G1 X147.12 Y81.38 E39.1915
G1 X147.524 Y81.691 E39.21694
G1 X147.995 Y81.885 E39.24235
G1 X148.5 Y81.952 E39.26776
G1 X149.005 Y81.885 E39.29318
G1 X149.476 Y81.691 E39.31859
G1 X149.88 Y81.38 E39.34403
G1 X150.191 Y80.976 E39.36947
G1 X150.385 Y80.505 E39.39488
G1 X150.452 Y80 E39.42029
G1 X150.385 Y79.495 E39.44571
G1 X150.191 Y79.024 E39.47112
G1 X149.88 Y78.62 E39.49656
G1 X149.476 Y78.309 E39.52199
G1 X149.005 Y78.115 E39.54741
G1 X148.5 Y78.048 E39.57282
G1 X147.995 Y78.115 E39.59824
G0 F3600 X147.81 Y78.191
G0 X147.62 Y77.728
G0 X147.834 Y77.731
G0 X147.914 Y77.732
G0 X148.951 Y77.747
G0 X149.048 Y77.255
G1 F1800 X149.572 Y77.413 E39.62554
G1 X150.052 Y77.671 E39.65273
G1 X150.479 Y78.021 E39.68028
G1 X150.829 Y78.448 E39.70782
G1 X151.087 Y78.928 E39.73501
G1 X151.245 Y79.452 E39.76231
G1 X151.3 Y80.01 E39.79029
G1 X151.3 Y119.99 E41.7849
G1 X151.245 Y120.548 E41.81287
G1 X151.087 Y121.072 E41.84018
G1 X150.829 Y121.552 E41.86736
G1 X150.479 Y121.979 E41.89491
G1 X150.052 Y122.329 E41.92245
G1 X149.572 Y122.587 E41.94964
G1 X149.048 Y122.745 E41.97695
G1 X148.49 Y122.8 E42.00492
G1 X51.509 Y122.8 E46.84332
G1 X50.96 Y122.747 E46.87084
G1 X50.432 Y122.589 E46.89834
G1 X49.955 Y122.335 E46.9253
G1 X49.534 Y121.992 E46.95239
G1 X49.16 Y121.534 E46.98189
G1 X48.915 Y121.075 E47.00785
G1 X48.756 Y120.551 E47.03517
G1 X48.7 Y119.992 E47.06319
G1 X48.7 Y80.007 E49.05805
G1 X48.749 Y79.485 E49.08421
G1 X48.919 Y78.916 E49.11384
G1 X49.166 Y78.457 E49.13984
G1 X49.533 Y78.009 E49.16874
G1 X49.95 Y77.669 E49.19558
G1 X50.435 Y77.412 E49.22296
G1 X50.96 Y77.254 E49.25032
G1 X51.509 Y77.2 E49.27784
G1 X148.49 Y77.2 E54.11624
G1 X149.048 Y77.255 E54.14421
G0 F3600 X149.239 Y77.312
G0 X149.095 Y77.79
G0 X146.243 Y79.481
G0 X146.174 Y79.521
G0 X101.796 Y105.86
G0 X101.86 Y106.356
G1 F1800 X101.449 Y106.526 E54.1664
