;FLAVOR:Marlin
;TIME:6229
;Filament used: 3.59903m
;Layer height: 0.1
;Generated with Cura_SteamEngine 3.0.4
M190 S60
M104 S200
M109 S200
M82 ; absolute extrusion mode
G21 ;metric values
G90 ;absolute positioning
M82 ;set extruder to absolute mode
M107 ;start with the fan off
G28 X0 Y0 ;move X/Y to min endstops
G28 Z0 ;move Z to min endstops
G1 Z15.0 F9000 ;move the platform down 15mm
G92 E0 ;zero the extruded length
G1 F200 E3 ;extrude 3mm of feed stock
G92 E0 ;zero the extruded length again
G1 F9000
;Put printing message on LCD screen
M117 Printing...
;LAYER_COUNT:28
;LAYER:0
M107
G0 F3600 X49.286 Y75.731 Z0.3
;TYPE:SKIRT
G1 F1800 X49.725 Y75.48 E0.02523
G1 X50.126 Y75.322 E0.04673
G1 X51.178 Y74.989 E0.10178
G1 X51.671 Y74.875 E0.12703
G1 X52.143 Y74.84 E0.15064
G1 X147.305 Y74.807 E4.89829
G1 X147.624 Y74.823 E4.91423
G1 X148.505 Y74.911 E4.9584
G1 X149.003 Y75.001 E4.98365
G1 X149.334 Y75.108 E5.001
G1 X150.045 Y75.381 E5.039
G1 X150.654 Y75.693 E5.07314
G1 X151.114 Y75.995 E5.10059
G1 X151.689 Y76.477 E5.13802
G1 X152.308 Y77.135 E5.18309
G1 X152.624 Y77.53 E5.20833
G1 X152.787 Y77.797 E5.22394
G1 X153.054 Y78.287 E5.25178
G1 X153.302 Y78.874 E5.28357
G1 X153.493 Y79.493 E5.31589
G1 X153.603 Y79.987 E5.34114
G1 X153.632 Y80.309 E5.35727
G1 X153.697 Y81.935 E5.43845
G1 X153.7 Y82.064 E5.44489
G1 X153.693 Y118.807 E7.27801
G1 X153.67 Y119.185 E7.2969
G1 X153.553 Y120.165 E7.34614
G1 X153.454 Y120.661 E7.37137
G1 X153.299 Y121.087 E7.39399
G1 X152.914 Y121.952 E7.44123
G1 X152.673 Y122.396 E7.46643
G1 X152.474 Y122.669 E7.48328
G1 X152.101 Y123.128 E7.51279
G1 X151.653 Y123.579 E7.54451
G1 X151.198 Y123.954 E7.57392
G1 X150.672 Y124.307 E7.60553
G1 X150.154 Y124.584 E7.63483
G1 X149.557 Y124.829 E7.66703
G1 X148.975 Y125.002 E7.69732
G1 X148.48 Y125.108 E7.72258
G1 X148.191 Y125.132 E7.73704
G1 X146.565 Y125.197 E7.81823
G1 X146.437 Y125.2 E7.82462
G1 X52.694 Y125.193 E12.50147
G1 X52.376 Y125.177 E12.51736
G1 X51.495 Y125.089 E12.56153
G1 X50.997 Y124.999 E12.58678
G1 X50.666 Y124.892 E12.60413
G1 X49.955 Y124.619 E12.64213
G1 X49.34 Y124.303 E12.67663
G1 X48.873 Y123.995 E12.70454
G1 X48.299 Y123.511 E12.742
G1 X47.679 Y122.849 E12.78725
G1 X47.364 Y122.454 E12.81245
G1 X47.195 Y122.174 E12.82877
G1 X46.919 Y121.659 E12.85792
G1 X46.658 Y121.011 E12.89277
G1 X46.474 Y120.355 E12.92676
G1 X46.376 Y119.859 E12.95199
G1 X46.355 Y119.496 E12.97013
G1 X46.3 Y81.712 E14.85518
G1 X46.305 Y81.535 E14.86401
G1 X46.375 Y80.238 E14.92882
G1 X46.442 Y79.736 E14.95408
G1 X46.512 Y79.467 E14.96795
G1 X46.689 Y78.893 E14.99792
G1 X46.951 Y78.279 E15.03122
G1 X47.254 Y77.735 E15.06229
G1 X47.691 Y77.129 E15.09956
G1 X48.199 Y76.575 E15.13706
G1 X48.752 Y76.096 E15.17356
G1 X49.286 Y75.731 E15.20583
G1 F1500 E8.70583
G0 F3600 X50.578 Y77.889
G0 X51.184 Y79.019
G0 X51.228 Y79.086
G0 X51.173 Y79.003
;TYPE:WALL-INNER
G1 F1500 E15.20583
G1 F1800 X51.58 Y78.785 E15.22887
G1 X52.03 Y78.649 E15.25232
G1 X52.529 Y78.6 E15.27734
G1 X147.471 Y78.6 E20.01401
G1 X147.97 Y78.649 E20.03903
G1 X148.42 Y78.785 E20.06248
G1 X148.827 Y79.003 E20.08552
G1 X149.195 Y79.305 E20.10927
G1 X149.497 Y79.673 E20.13302
G1 X149.715 Y80.08 E20.15605
G1 X149.851 Y80.53 E20.1795
G1 X149.9 Y81.029 E20.20452
G1 X149.9 Y118.971 E22.09745
G1 X149.851 Y119.47 E22.12247
G1 X149.715 Y119.92 E22.14592
G1 X149.497 Y120.327 E22.16896
G1 X149.195 Y120.695 E22.19271
G1 X148.827 Y120.997 E22.21646
G1 X148.42 Y121.215 E22.23949
G1 X147.97 Y121.351 E22.26295
G1 X147.471 Y121.4 E22.28796
G1 X52.529 Y121.4 E27.02464
G1 X52.03 Y121.351 E27.04965
G1 X51.58 Y121.215 E27.0731
G1 X51.173 Y120.997 E27.09614
G1 X50.805 Y120.695 E27.11989
G1 X50.503 Y120.327 E27.14364
G1 X50.285 Y119.92 E27.16668
G1 X50.149 Y119.47 E27.19013
G1 X50.1 Y118.971 E27.21514
G1 X50.1 Y81.029 E29.10808
G1 X50.149 Y80.53 E29.13309
G1 X50.285 Y80.08 E29.15655
G1 X50.503 Y79.673 E29.17958
G1 X50.805 Y79.305 E29.20333
G1 X51.173 Y79.003 E29.22708
G0 F3600 X51.228 Y79.086
G0 X52.824 Y80.46
G0 X52.873 Y80.546
G1 F1800 X52.405 Y80.905 E29.25651
G1 X52.046 Y81.373 E29.28594
G1 X51.821 Y81.917 E29.31531
G1 X51.745 Y82.5 E29.34464
G1 X51.821 Y83.083 E29.37397
G1 X52.046 Y83.627 E29.40334
G1 X52.405 Y84.095 E29.43277
G1 X52.873 Y84.454 E29.46219
G1 X53.417 Y84.679 E29.49156
G1 X54 Y84.755 E29.5209
G1 X54.583 Y84.679 E29.55023
G1 X55.127 Y84.454 E29.5796
G1 X55.595 Y84.095 E29.60903
G1 X55.954 Y83.627 E29.63845
G1 X56.179 Y83.083 E29.66782
G1 X56.255 Y82.5 E29.69715
G1 X56.179 Y81.917 E29.72649
G1 X55.954 Y81.373 E29.75586
G1 X55.595 Y80.905 E29.78528
G1 X55.127 Y80.546 E29.81471
G1 X54.583 Y80.321 E29.84408
G1 X54 Y80.245 E29.87341
G1 X53.417 Y80.321 E29.90274
G1 X52.873 Y80.546 E29.93211
G0 F3600 X52.824 Y80.46
G0 X53.407 Y80.283
G0 X54 Y80.205
G0 X54.593 Y80.283
G0 X55.146 Y80.512
G0 X55.623 Y80.877
G0 X68.483 Y96.786
G0 X68.553 Y96.856
G1 F1800 X68.553 Y109.347 E30.55529
G1 X87.972 Y109.364 E31.52411
G1 X92.047 Y109.344 E31.72742
G1 X92.047 Y96.853 E32.3506
G1 X73.034 Y96.836 E33.29916
G1 X68.553 Y96.856 E33.52272
G0 F3600 X68.483 Y96.786
G0 X60.581 Y110.931
G0 X60.609 Y111.026
G1 F1800 X59.947 Y111.312 E33.5587
G1 X59.37 Y111.743 E33.59463
G1 X58.907 Y112.294 E33.63053
G1 X58.584 Y112.938 E33.66648
G1 X58.417 Y113.64 E33.70248
G1 X58.417 Y114.36 E33.7384
G1 X58.584 Y115.062 E33.7744
G1 X58.907 Y115.706 E33.81034
G1 X59.37 Y116.257 E33.84625
G1 X59.947 Y116.688 E33.88218
G1 X60.609 Y116.974 E33.91816
G1 X61.32 Y117.099 E33.95417
G1 X62.039 Y117.057 E33.99011
G1 X62.73 Y116.851 E34.02608
G1 X63.354 Y116.489 E34.06207
G1 X63.877 Y115.995 E34.09796
G1 X64.274 Y115.393 E34.13394
G1 X64.521 Y114.716 E34.16989
G1 X64.604 Y114 E34.20585
G1 X64.521 Y113.284 E34.24181
G1 X64.274 Y112.607 E34.27777
G1 X63.877 Y112.005 E34.31374
G1 X63.354 Y111.511 E34.34964
G1 X62.73 Y111.149 E34.38563
G1 X62.039 Y110.943 E34.4216
G1 X61.32 Y110.901 E34.45753
G1 X60.609 Y111.026 E34.49355
G0 F3600 X60.581 Y110.931
G0 X59.927 Y111.278
G0 X54 Y115.145
G0 X54 Y115.245
G1 F1800 X53.417 Y115.321 E34.52288
G1 X52.873 Y115.546 E34.55225
G1 X52.405 Y115.905 E34.58168
G1 X52.046 Y116.373 E34.6111
G1 X51.821 Y116.917 E34.64047
G1 X51.745 Y117.5 E34.66981
G1 X51.821 Y118.083 E34.69914
G1 X52.046 Y118.627 E34.72851
G1 X52.405 Y119.095 E34.75794
G1 X52.873 Y119.454 E34.78736
G1 X53.417 Y119.679 E34.81673
G1 X54 Y119.755 E34.84606
G1 X54.583 Y119.679 E34.8754
G1 X55.127 Y119.454 E34.90477
G1 X55.595 Y119.095 E34.93419
G1 X55.954 Y118.627 E34.96362
G1 X56.179 Y118.083 E34.99299
G1 X56.255 Y117.5 E35.02232
G1 X56.179 Y116.917 E35.05165
G1 X55.954 Y116.373 E35.08102
G1 X55.595 Y115.905 E35.11045
G1 X55.127 Y115.546 E35.13988
G1 X54.583 Y115.321 E35.16925
G1 X54 Y115.245 E35.19858
G0 F3600 X54 Y115.145
G0 X59.927 Y111.278
G0 X60.598 Y110.988
G0 X61.318 Y110.862
G0 X92.075 Y109.372
G0 X100.39 Y106.899
G0 X100.476 Y106.948
G1 F1800 X100.266 Y107.456 E35.22601
G1 X100.195 Y108 E35.25338
G1 X100.266 Y108.544 E35.28075
G1 X100.476 Y109.052 E35.30817
G1 X100.811 Y109.489 E35.33564
G1 X101.248 Y109.824 E35.36311
G1 X101.756 Y110.034 E35.39054
G1 X102.3 Y110.105 E35.41791
G1 X102.844 Y110.034 E35.44528
G1 X103.352 Y109.824 E35.4727
G1 X103.789 Y109.489 E35.50017
G1 X104.124 Y109.052 E35.52764
G1 X104.334 Y108.544 E35.55507
G1 X104.405 Y108 E35.58244
G1 X104.334 Y107.456 E35.60981
G1 X104.124 Y106.948 E35.63723
G1 X103.789 Y106.511 E35.66471
G1 X103.352 Y106.176 E35.69218
G1 X102.844 Y105.966 E35.7196
G1 X102.3 Y105.895 E35.74697
G1 X101.756 Y105.966 E35.77434
G1 X101.248 Y106.176 E35.80177
G1 X100.811 Y106.511 E35.82924
G1 X100.476 Y106.948 E35.85671
G0 F3600 X100.39 Y106.899
G0 X100.783 Y106.483
G0 X101.229 Y106.142
G0 X139.37 Y92.231
G0 X139.466 Y92.256
G1 F1800 X139.395 Y92.8 E35.88408
G1 X139.466 Y93.344 E35.91145
G1 X139.676 Y93.852 E35.93887
G1 X140.011 Y94.289 E35.96634
G1 X140.448 Y94.624 E35.99382
G1 X140.956 Y94.834 E36.02124
G1 X141.5 Y94.905 E36.04861
G1 X142.044 Y94.834 E36.07598
G1 X142.552 Y94.624 E36.1034
G1 X142.989 Y94.289 E36.13088
G1 X143.324 Y93.852 E36.15835
G1 X143.534 Y93.344 E36.18577
G1 X143.605 Y92.8 E36.21314
G1 X143.534 Y92.256 E36.24051
G1 X143.324 Y91.748 E36.26794
G1 X142.989 Y91.311 E36.29541
G1 X142.552 Y90.976 E36.32288
G1 X142.044 Y90.766 E36.3503
G1 X141.5 Y90.695 E36.37767
G1 X140.956 Y90.766 E36.40504
G1 X140.448 Y90.976 E36.43247
G1 X140.011 Y91.311 E36.45994
G1 X139.676 Y91.748 E36.48741
G1 X139.466 Y92.256 E36.51484
G0 F3600 X139.37 Y92.231
G0 X143.645 Y82.5
G0 X143.745 Y82.5
G1 F1800 X143.821 Y83.083 E36.54417
G1 X144.046 Y83.627 E36.57354
G1 X144.405 Y84.095 E36.60296
G1 X144.873 Y84.454 E36.63239
G1 X145.417 Y84.679 E36.66176
G1 X146 Y84.755 E36.69109
G1 X146.583 Y84.679 E36.72043
G1 X147.127 Y84.454 E36.7498
G1 X147.595 Y84.095 E36.77922
G1 X147.954 Y83.627 E36.80865
G1 X148.179 Y83.083 E36.83802
G1 X148.255 Y82.5 E36.86735
G1 X148.179 Y81.917 E36.89668
G1 X147.954 Y81.373 E36.92605
G1 X147.595 Y80.905 E36.95548
G1 X147.127 Y80.546 E36.98491
G1 X146.583 Y80.321 E37.01428
G1 X146 Y80.245 E37.04361
G1 X145.417 Y80.321 E37.07294
G1 X144.873 Y80.546 E37.10231
G1 X144.405 Y80.905 E37.13174
G1 X144.046 Y81.373 E37.16117
G1 X143.821 Y81.917 E37.19054
G1 X143.745 Y82.5 E37.21987
G0 F3600 X143.645 Y82.5
G0 X143.96 Y116.324
G0 X144.046 Y116.373
G1 F1800 X143.821 Y116.917 E37.24924
G1 X143.745 Y117.5 E37.27857
G1 X143.821 Y118.083 E37.3079
G1 X144.046 Y118.627 E37.33727
G1 X144.405 Y119.095 E37.3667
G1 X144.873 Y119.454 E37.39613
G1 X145.417 Y119.679 E37.4255
G1 X146 Y119.755 E37.45483
G1 X146.583 Y119.679 E37.48416
G1 X147.127 Y119.454 E37.51353
G1 X147.595 Y119.095 E37.54296
G1 X147.954 Y118.627 E37.57238
G1 X148.179 Y118.083 E37.60175
G1 X148.255 Y117.5 E37.63109
G1 X148.179 Y116.917 E37.66042
G1 X147.954 Y116.373 E37.68979
G1 X147.595 Y115.905 E37.71922
G1 X147.127 Y115.546 E37.74864
G1 X146.583 Y115.321 E37.77801
G1 X146 Y115.245 E37.80735
G1 X145.417 Y115.321 E37.83668
G1 X144.873 Y115.546 E37.86605
G1 X144.405 Y115.905 E37.89547
G1 X144.046 Y116.373 E37.9249
G0 F3600 X143.96 Y116.324
G0 X144.377 Y115.877
G0 X144.854 Y115.512
G0 X145.33 Y115.249
G0 X145.521 Y115.711
;TYPE:WALL-OUTER
G1 F1800 X145.074 Y115.896 E37.94904
G1 X144.69 Y116.19 E37.97316
G1 X144.396 Y116.574 E37.99729
G1 X144.211 Y117.021 E38.02143
G1 X144.148 Y117.5 E38.04553
G1 X144.211 Y117.979 E38.06963
G1 X144.396 Y118.426 E38.09377
G1 X144.69 Y118.81 E38.1179
G1 X145.074 Y119.104 E38.14203
G1 X145.521 Y119.289 E38.16616
G1 X146 Y119.352 E38.19026
G1 X146.479 Y119.289 E38.21437
G1 X146.926 Y119.104 E38.2385
G1 X147.31 Y118.81 E38.26263
G1 X147.604 Y118.426 E38.28676
G1 X147.789 Y117.979 E38.3109
G1 X147.852 Y117.5 E38.335
G1 X147.789 Y117.021 E38.3591
G1 X147.604 Y116.574 E38.38324
G1 X147.31 Y116.19 E38.40737
G1 X146.926 Y115.896 E38.43149
G1 X146.479 Y115.711 E38.45563
G1 X146 Y115.648 E38.47973
G1 X145.521 Y115.711 E38.50384
G0 F3600 X145.336 Y115.787
G0 X145.145 Y115.325
G0 X139.428 Y93.354
G0 X139.355 Y92.8
G0 X139.428 Y92.246
G0 X139.642 Y91.729
G0 X139.983 Y91.283
G0 X140.429 Y90.942
G0 X140.996 Y90.66
G0 X141.06 Y91.156
G1 F1800 X140.649 Y91.326 E38.52602
G1 X140.296 Y91.596 E38.5482
G1 X140.026 Y91.949 E38.57037
G1 X139.856 Y92.36 E38.59256
G1 X139.798 Y92.8 E38.6147
G1 X139.856 Y93.24 E38.63684
G1 X140.026 Y93.651 E38.65903
G1 X140.296 Y94.004 E38.6812
G1 X140.649 Y94.274 E38.70338
G1 X141.06 Y94.444 E38.72557
G1 X141.5 Y94.502 E38.74771
G1 X141.94 Y94.444 E38.76985
G1 X142.351 Y94.274 E38.79204
G1 X142.704 Y94.004 E38.81421
G1 X142.974 Y93.651 E38.83638
G1 X143.144 Y93.24 E38.85857
G1 X143.202 Y92.8 E38.88071
G1 X143.144 Y92.36 E38.90286
G1 X142.974 Y91.949 E38.92505
G1 X142.704 Y91.596 E38.94722
G1 X142.351 Y91.326 E38.96939
G1 X141.94 Y91.156 E38.99158
G1 X141.5 Y91.098 E39.01372
G1 X141.06 Y91.156 E39.03586
G0 F3600 X140.875 Y91.232
G0 X140.684 Y90.77
G0 X144.012 Y81.354
G0 X144.377 Y80.877
G0 X144.854 Y80.512
G0 X145.33 Y80.249
G0 X145.521 Y80.711
G1 F1800 X145.074 Y80.896 E39.06
G1 X144.69 Y81.19 E39.08413
G1 X144.396 Y81.574 E39.10825
G1 X144.211 Y82.021 E39.13239
G1 X144.148 Y82.5 E39.15649
G1 X144.211 Y82.979 E39.1806
G1 X144.396 Y83.426 E39.20473
G1 X144.69 Y83.81 E39.22886
G1 X145.074 Y84.104 E39.25299
G1 X145.521 Y84.289 E39.27712
G1 X146 Y84.352 E39.30123
G1 X146.479 Y84.289 E39.32533
G1 X146.926 Y84.104 E39.34947
G1 X147.31 Y83.81 E39.37359
G1 X147.604 Y83.426 E39.39772
G1 X147.789 Y82.979 E39.42186
G1 X147.852 Y82.5 E39.44596
G1 X147.789 Y82.021 E39.47006
G1 X147.604 Y81.574 E39.4942
G1 X147.31 Y81.19 E39.51833
G1 X146.926 Y80.896 E39.54245
G1 X146.479 Y80.711 E39.56659
G1 X146 Y80.648 E39.59069
G1 X145.521 Y80.711 E39.6148
G0 F3600 X145.336 Y80.787
G0 X145.145 Y80.325
G0 X147.951 Y78.747
G0 X148.048 Y78.255
G1 F1800 X148.572 Y78.413 E39.6421
G1 X149.052 Y78.671 E39.66929
G1 X149.479 Y79.021 E39.69683
G1 X149.829 Y79.448 E39.72438
G1 X150.087 Y79.928 E39.75157
G1 X150.245 Y80.452 E39.77887
G1 X150.3 Y81.01 E39.80685
G1 X150.3 Y118.99 E41.70168
G1 X150.245 Y119.548 E41.72965
G1 X150.087 Y120.072 E41.75695
G1 X149.829 Y120.552 E41.78414
G1 X149.479 Y120.979 E41.81169
G1 X149.052 Y121.329 E41.83923
G1 X148.572 Y121.587 E41.86642
G1 X148.048 Y121.745 E41.89372
G1 X147.49 Y121.8 E41.9217
G1 X52.51 Y121.8 E46.66027
G1 X51.952 Y121.745 E46.68824
G1 X51.428 Y121.587 E46.71555
G1 X50.948 Y121.329 E46.74273
G1 X50.521 Y120.979 E46.77028
G1 X50.171 Y120.552 E46.79782
G1 X49.913 Y120.072 E46.82501
G1 X49.755 Y119.548 E46.85232
G1 X49.7 Y118.99 E46.88029
G1 X49.7 Y81.01 E48.77512
G1 X49.755 Y80.452 E48.80309
G1 X49.913 Y79.928 E48.8304
G1 X50.171 Y79.448 E48.85759
G1 X50.521 Y79.021 E48.88513
G1 X50.948 Y78.671 E48.91268
G1 X51.428 Y78.413 E48.93986
G1 X51.952 Y78.255 E48.96717
G1 X52.51 Y78.2 E48.99514
G1 X147.49 Y78.2 E53.73371
G1 X148.048 Y78.255 E53.76169
G0 F3600 X148.239 Y78.312
G0 X148.095 Y78.79
G0 X144.854 Y80.512
G0 X101.796 Y105.86
G0 X101.86 Y106.356
G1 F1800 X101.449 Y106.526 E53.78388
G1 X101.096 Y106.796 E53.80605
G1 X100.826 Y107.149 E53.82822
G1 X100.656 Y107.56 E53.85041
G1 X100.598 Y108 E53.87255
G1 X100.656 Y108.44 E53.89469
G1 X100.826 Y108.851 E53.91688
G1 X101.096 Y109.204 E53.93906
G1 X101.449 Y109.474 E53.96123
G1 X101.86 Y109.644 E53.98342
G1 X102.3 Y109.702 E54.00556
G1 X102.74 Y109.644 E54.0277
G1 X103.151 Y109.474 E54.04989
G1 X103.504 Y109.204 E54.07206
G1 X103.774 Y108.851 E54.09424
G1 X103.944 Y108.44 E54.11643
G1 X104.002 Y108 E54.13857
G1 X103.944 Y107.56 E54.16071
G1 X103.774 Y107.149 E54.1829
G1 X103.504 Y106.796 E54.20507
G1 X103.151 Y106.526 E54.22724
G1 X102.74 Y106.356 E54.24943
G1 X102.3 Y106.298 E54.27157
G1 X101.86 Y106.356 E54.29372
G0 F3600 X101.675 Y106.432
G0 X101.484 Y105.97
G0 X92.075 Y109.372
G0 X68.525 Y109.375
G0 X68.453 Y97.254
G0 X68.953 Y97.254
G1 F1800 X68.953 Y108.947 E54.87708
G1 X87.971 Y108.964 E55.82589
G1 X91.647 Y108.946 E56.00929
G1 X91.647 Y97.253 E56.59266
G1 X73.035 Y97.236 E57.52122
G1 X68.953 Y97.254 E57.72487
G0 F3600 X68.953 Y97.454
G0 X68.453 Y97.454
G0 X60.638 Y110.92
G0 X60.725 Y111.412
G1 F1800 X60.149 Y111.661 E57.75618
G1 X59.646 Y112.036 E57.78748
G1 X59.243 Y112.515 E57.81871
G1 X58.962 Y113.076 E57.85001
G1 X58.817 Y113.687 E57.88134
G1 X58.817 Y114.313 E57.91257
G1 X58.962 Y114.924 E57.9439
G1 X59.243 Y115.485 E57.9752
G1 X59.646 Y115.964 E58.00643
G1 X60.149 Y116.339 E58.03774
G1 X60.725 Y116.588 E58.06904
G1 X61.343 Y116.697 E58.10035
G1 X61.969 Y116.66 E58.13164
G1 X62.57 Y116.481 E58.16292
G1 X63.113 Y116.166 E58.19424
G1 X63.569 Y115.736 E58.22551
G1 X63.914 Y115.212 E58.25681
G1 X64.129 Y114.623 E58.28809
G1 X64.201 Y114 E58.31938
G1 X64.129 Y113.377 E58.35067
G1 X63.914 Y112.788 E58.38195
G1 X63.569 Y112.264 E58.41325
G1 X63.113 Y111.834 E58.44452
G1 X62.57 Y111.519 E58.47584
G1 X61.969 Y111.34 E58.50713
G1 X61.343 Y111.303 E58.53841
G1 X60.725 Y111.412 E58.56972
G0 F3600 X60.542 Y111.491
G0 X60.346 Y111.032
G0 X53.33 Y115.249
G0 X53.521 Y115.711
G1 F1800 X53.074 Y115.896 E58.59385
G1 X52.69 Y116.19 E58.61798
G1 X52.396 Y116.574 E58.64211
G1 X52.211 Y117.021 E58.66625
G1 X52.148 Y117.5 E58.69035
G1 X52.211 Y117.979 E58.71445
