;FLAVOR:Marlin
;TIME:5788
;Filament used: 3.42625m
;Layer height: 0.1
;Generated with Cura_SteamEngine 3.0.4
M190 S60
M104 S200
M109 S200
M82 ; absolute extrusion mode
G21 ;metric values
G90 ;absolute positioning
M82 ;set extruder to absolute mode
M107 ;start with the fan off
G28 X0 Y0 ;move X/Y to min endstops
G28 Z0 ;move Z to min endstops
G1 Z15.0 F9000 ;move the platform down 15mm
G92 E0 ;zero the extruded length
G1 F200 E3 ;extrude 3mm of feed stock
G92 E0 ;zero the extruded length again
G1 F9000
;Put printing message on LCD screen
M117 Printing...
;LAYER_COUNT:18
;LAYER:0
M107
G0 F3600 X46.507 Y72.015 Z0.3
;TYPE:SKIRT
G1 F1800 X47.144 Y71.633 E0.03706
G1 X47.666 Y71.353 E0.06661
G1 X48.38 Y71.016 E0.106
G1 X49.103 Y70.759 E0.14428
G1 X49.664 Y70.59 E0.17351
G1 X50.431 Y70.4 E0.21293
G1 X51.147 Y70.296 E0.24903
G1 X51.734 Y70.238 E0.27846
G1 X52.501 Y70.2 E0.31677
G1 X147.499 Y70.2 E5.05624
G1 X148.266 Y70.238 E5.09455
G1 X148.853 Y70.296 E5.12398
G1 X149.634 Y70.413 E5.16338
G1 X150.336 Y70.59 E5.1995
G1 X150.897 Y70.759 E5.22873
G1 X151.64 Y71.024 E5.26809
G1 X152.334 Y71.353 E5.3064
G1 X152.856 Y71.633 E5.33596
G1 X153.532 Y72.041 E5.37535
G1 X154.124 Y72.483 E5.41221
G1 X154.575 Y72.854 E5.44134
G1 X155.159 Y73.386 E5.48076
G1 X155.641 Y73.92 E5.51664
G1 X156.014 Y74.373 E5.54592
G1 X156.485 Y75.007 E5.58532
G1 X156.867 Y75.644 E5.62238
G1 X157.147 Y76.166 E5.65193
G1 X157.484 Y76.88 E5.69132
G1 X157.74 Y77.599 E5.7294
G1 X157.909 Y78.159 E5.75858
G1 X158.099 Y78.926 E5.79801
G1 X158.204 Y79.645 E5.83426
G1 X158.262 Y80.231 E5.86364
G1 X158.3 Y80.999 E5.902
G1 X158.3 Y118.999 E7.79783
G1 X158.262 Y119.766 E7.83614
G1 X158.204 Y120.353 E7.86557
G1 X158.087 Y121.134 E7.90497
G1 X157.91 Y121.836 E7.94108
G1 X157.741 Y122.397 E7.97032
G1 X157.476 Y123.14 E8.00967
G1 X157.149 Y123.829 E8.04772
G1 X156.87 Y124.35 E8.07721
G1 X156.463 Y125.027 E8.11661
G1 X156.017 Y125.625 E8.15383
G1 X155.645 Y126.077 E8.18304
G1 X155.113 Y126.66 E8.22241
G1 X154.58 Y127.141 E8.25823
G1 X154.127 Y127.514 E8.28751
G1 X153.493 Y127.985 E8.32691
G1 X152.856 Y128.367 E8.36397
G1 X152.334 Y128.647 E8.39352
G1 X151.62 Y128.984 E8.43291
G1 X150.897 Y129.241 E8.47119
G1 X150.336 Y129.41 E8.50042
G1 X149.569 Y129.6 E8.53985
G1 X148.853 Y129.704 E8.57594
G1 X148.266 Y129.762 E8.60537
G1 X147.499 Y129.8 E8.64368
G1 X52.501 Y129.8 E13.38315
G1 X51.734 Y129.762 E13.42147
G1 X51.147 Y129.704 E13.45089
G1 X50.366 Y129.587 E13.49029
G1 X49.664 Y129.41 E13.52641
G1 X49.103 Y129.241 E13.55564
G1 X48.36 Y128.976 E13.595
G1 X47.666 Y128.647 E13.63332
G1 X47.144 Y128.367 E13.66287
G1 X46.468 Y127.959 E13.70226
G1 X45.873 Y127.514 E13.73933
G1 X45.42 Y127.141 E13.76861
G1 X44.837 Y126.609 E13.80798
G1 X44.355 Y126.077 E13.8438
G1 X43.983 Y125.625 E13.873
G1 X43.513 Y124.99 E13.91242
G1 X43.13 Y124.35 E13.94963
G1 X42.851 Y123.829 E13.97911
G1 X42.514 Y123.115 E14.0185
G1 X42.259 Y122.397 E14.05651
G1 X42.09 Y121.836 E14.08575
G1 X41.9 Y121.069 E14.12517
G1 X41.796 Y120.356 E14.16112
G1 X41.738 Y119.771 E14.19044
G1 X41.7 Y119.001 E14.22891
G1 X41.7 Y81.001 E16.12473
G1 X41.738 Y80.235 E16.163
G1 X41.796 Y79.647 E16.19248
G1 X41.913 Y78.866 E16.23187
G1 X42.091 Y78.159 E16.26825
G1 X42.26 Y77.599 E16.29743
G1 X42.526 Y76.856 E16.3368
G1 X42.853 Y76.166 E16.3749
G1 X43.133 Y75.644 E16.40445
G1 X43.541 Y74.968 E16.44384
G1 X43.983 Y74.376 E16.4807
G1 X44.354 Y73.925 E16.50984
G1 X44.886 Y73.341 E16.54925
G1 X45.42 Y72.859 E16.58514
G1 X45.873 Y72.486 E16.61441
G1 X46.507 Y72.015 E16.65382
G0 F3600 X46.746 Y72.337
G1 F1800 X47.333 Y71.986 E16.68794
G1 X47.855 Y71.706 E16.71749
G1 X48.551 Y71.378 E16.75588
G1 X49.219 Y71.142 E16.79122
G1 X49.78 Y70.973 E16.82045
G1 X50.527 Y70.789 E16.85884
G1 X51.186 Y70.694 E16.89205
G1 X51.773 Y70.636 E16.92148
G1 X52.501 Y70.6 E16.95785
G1 X147.499 Y70.6 E21.69732
G1 X148.227 Y70.636 E21.73368
G1 X148.814 Y70.694 E21.76311
G1 X149.574 Y70.809 E21.80146
G1 X150.22 Y70.973 E21.83471
G1 X150.781 Y71.142 E21.86394
G1 X151.505 Y71.401 E21.9023
G1 X152.145 Y71.706 E21.93767
G1 X152.667 Y71.986 E21.96722
G1 X153.325 Y72.384 E22.00559
G1 X153.87 Y72.792 E22.03955
G1 X154.321 Y73.163 E22.06869
G1 X154.889 Y73.682 E22.10708
G1 X155.333 Y74.174 E22.14014
G1 X155.706 Y74.627 E22.16942
G1 X156.163 Y75.246 E22.2078
G1 X156.514 Y75.833 E22.24192
G1 X156.794 Y76.355 E22.27148
G1 X157.122 Y77.051 E22.30986
G1 X157.357 Y77.715 E22.345
G1 X157.526 Y78.275 E22.37419
G1 X157.71 Y79.022 E22.41257
G1 X157.806 Y79.684 E22.44594
G1 X157.864 Y80.27 E22.47532
G1 X157.9 Y80.999 E22.51173
G1 X157.9 Y118.999 E24.40756
G1 X157.864 Y119.727 E24.44393
G1 X157.806 Y120.314 E24.47335
G1 X157.691 Y121.074 E24.5117
G1 X157.527 Y121.72 E24.54495
G1 X157.358 Y122.281 E24.57418
G1 X157.099 Y123.005 E24.61255
G1 X156.797 Y123.64 E24.64763
G1 X156.518 Y124.161 E24.67711
G1 X156.12 Y124.82 E24.71552
G1 X155.708 Y125.37 E24.74981
G1 X155.336 Y125.822 E24.77901
G1 X154.817 Y126.39 E24.8174
G1 X154.326 Y126.833 E24.85039
G1 X153.873 Y127.206 E24.87967
G1 X153.254 Y127.663 E24.91805
G1 X152.667 Y128.014 E24.95217
G1 X152.145 Y128.294 E24.98173
G1 X151.449 Y128.622 E25.02011
G1 X150.781 Y128.858 E25.05546
G1 X150.22 Y129.027 E25.08469
G1 X149.473 Y129.211 E25.12307
G1 X148.814 Y129.306 E25.15629
G1 X148.227 Y129.364 E25.18572
G1 X147.499 Y129.4 E25.22208
G1 X52.501 Y129.4 E29.96155
G1 X51.773 Y129.364 E29.99791
G1 X51.186 Y129.306 E30.02734
G1 X50.426 Y129.191 E30.06569
G1 X49.78 Y129.027 E30.09894
G1 X49.219 Y128.858 E30.12817
G1 X48.495 Y128.599 E30.16654
G1 X47.855 Y128.294 E30.20191
G1 X47.333 Y128.014 E30.23146
G1 X46.675 Y127.616 E30.26982
G1 X46.127 Y127.206 E30.30397
G1 X45.674 Y126.833 E30.33324
G1 X45.107 Y126.314 E30.37159
G1 X44.664 Y125.822 E30.40462
G1 X44.292 Y125.37 E30.43383
G1 X43.835 Y124.752 E30.47218
G1 X43.482 Y124.161 E30.50652
G1 X43.203 Y123.64 E30.536
G1 X42.876 Y122.944 E30.57437
G1 X42.642 Y122.281 E30.60945
G1 X42.473 Y121.72 E30.63868
G1 X42.289 Y120.973 E30.67706
G1 X42.194 Y120.316 E30.71018
G1 X42.136 Y119.731 E30.73951
G1 X42.1 Y119.001 E30.77597
G1 X42.1 Y81.001 E32.6718
G1 X42.136 Y80.275 E32.70806
G1 X42.194 Y79.687 E32.73754
G1 X42.309 Y78.926 E32.77594
G1 X42.474 Y78.275 E32.80944
G1 X42.643 Y77.715 E32.83863
G1 X42.903 Y76.991 E32.87701
G1 X43.206 Y76.355 E32.91215
G1 X43.486 Y75.833 E32.94171
G1 X43.884 Y75.175 E32.98007
G1 X44.292 Y74.63 E33.01404
G1 X44.663 Y74.179 E33.04317
G1 X45.182 Y73.611 E33.08156
G1 X45.674 Y73.167 E33.11462
G1 X46.127 Y72.794 E33.1439
G1 X46.746 Y72.337 E33.18228
G0 F3600 X46.984 Y72.659
G1 F1800 X47.522 Y72.338 E33.21354
G1 X48.044 Y72.058 E33.24309
G1 X48.721 Y71.741 E33.28039
G1 X49.334 Y71.525 E33.31281
G1 X49.895 Y71.356 E33.34204
G1 X50.622 Y71.178 E33.37939
G1 X51.226 Y71.092 E33.40982
G1 X51.813 Y71.034 E33.43925
G1 X52.501 Y71 E33.47362
G1 X147.499 Y71 E38.21309
G1 X148.187 Y71.034 E38.24745
G1 X148.774 Y71.092 E38.27688
G1 X149.514 Y71.205 E38.31423
G1 X150.105 Y71.356 E38.34466
G1 X150.666 Y71.525 E38.37389
G1 X151.37 Y71.778 E38.41121
G1 X151.956 Y72.058 E38.44362
G1 X152.478 Y72.338 E38.47317
G1 X153.117 Y72.727 E38.51049
G1 X153.616 Y73.101 E38.5416
G1 X154.067 Y73.472 E38.57074
G1 X154.619 Y73.977 E38.60806
G1 X155.024 Y74.428 E38.6383
G1 X155.397 Y74.881 E38.66758
G1 X155.841 Y75.484 E38.70494
G1 X156.162 Y76.022 E38.73619
G1 X156.442 Y76.544 E38.76575
G1 X156.759 Y77.221 E38.80304
G1 X156.974 Y77.831 E38.83531
G1 X157.143 Y78.391 E38.86449
G1 X157.321 Y79.117 E38.90179
G1 X157.408 Y79.724 E38.93238
G1 X157.466 Y80.31 E38.96176
G1 X157.5 Y80.999 E38.99617
G1 X157.5 Y118.999 E40.892
G1 X157.466 Y119.687 E40.92637
G1 X157.408 Y120.274 E40.9558
G1 X157.295 Y121.014 E40.99314
G1 X157.144 Y121.605 E41.02357
G1 X156.975 Y122.166 E41.05281
G1 X156.722 Y122.87 E41.09013
G1 X156.444 Y123.452 E41.12231
G1 X156.165 Y123.973 E41.15179
G1 X155.777 Y124.612 E41.18909
G1 X155.399 Y125.116 E41.22052
G1 X155.027 Y125.568 E41.24972
G1 X154.521 Y126.12 E41.28708
G1 X154.072 Y126.524 E41.31722
G1 X153.619 Y126.897 E41.34649
G1 X153.016 Y127.341 E41.38385
G1 X152.478 Y127.662 E41.41511
G1 X151.956 Y127.942 E41.44466
G1 X151.279 Y128.259 E41.48195
G1 X150.666 Y128.475 E41.51438
G1 X150.105 Y128.644 E41.54361
G1 X149.378 Y128.822 E41.58095
G1 X148.774 Y128.908 E41.61139
G1 X148.187 Y128.966 E41.64082
G1 X147.499 Y129 E41.67519
G1 X52.501 Y129 E46.41465
G1 X51.813 Y128.966 E46.44902
G1 X51.226 Y128.908 E46.47845
G1 X50.486 Y128.795 E46.5158
G1 X49.895 Y128.644 E46.54623
G1 X49.334 Y128.475 E46.57546
G1 X48.63 Y128.222 E46.61278
G1 X48.044 Y127.942 E46.64518
G1 X47.522 Y127.662 E46.67474
G1 X46.883 Y127.273 E46.71206
G1 X46.381 Y126.897 E46.74335
G1 X45.928 Y126.524 E46.77262
G1 X45.377 Y126.018 E46.80995
G1 X44.973 Y125.568 E46.84012
G1 X44.601 Y125.116 E46.86932
G1 X44.157 Y124.514 E46.90664
G1 X43.835 Y123.973 E46.93805
G1 X43.556 Y123.452 E46.96754
G1 X43.239 Y122.774 E47.00488
G1 X43.025 Y122.166 E47.03703
G1 X42.856 Y121.605 E47.06627
G1 X42.678 Y120.878 E47.10361
G1 X42.592 Y120.277 E47.1339
G1 X42.534 Y119.692 E47.16322
G1 X42.5 Y119.001 E47.19774
G1 X42.5 Y81.001 E49.09357
G1 X42.534 Y80.314 E49.12789
G1 X42.592 Y79.726 E49.15736
G1 X42.705 Y78.986 E49.19471
G1 X42.857 Y78.391 E49.22535
G1 X43.026 Y77.831 E49.25453
G1 X43.28 Y77.127 E49.29187
G1 X43.558 Y76.544 E49.32409
G1 X43.838 Y76.022 E49.35365
G1 X44.227 Y75.383 E49.39097
G1 X44.601 Y74.884 E49.42208
G1 X44.972 Y74.433 E49.45121
G1 X45.477 Y73.881 E49.48854
G1 X45.928 Y73.476 E49.51878
G1 X46.381 Y73.103 E49.54806
G1 X46.984 Y72.659 E49.58542
G0 F3600 X47.221 Y72.982
G1 F1800 X47.711 Y72.691 E49.61385
G1 X48.233 Y72.411 E49.6434
G1 X48.891 Y72.103 E49.67965
G1 X49.449 Y71.908 E49.70914
G1 X50.01 Y71.739 E49.73837
G1 X50.716 Y71.568 E49.77461
G1 X51.265 Y71.49 E49.80227
G1 X51.852 Y71.432 E49.8317
G1 X52.501 Y71.4 E49.86412
G1 X147.499 Y71.4 E54.60359
G1 X148.148 Y71.432 E54.63601
G1 X148.735 Y71.49 E54.66544
G1 X149.453 Y71.601 E54.70168
G1 X149.99 Y71.739 E54.72934
G1 X150.551 Y71.908 E54.75857
G1 X151.234 Y72.155 E54.79481
G1 X151.767 Y72.411 E54.82431
G1 X152.289 Y72.691 E54.85386
G1 X152.909 Y73.069 E54.89009
G1 X153.362 Y73.41 E54.91838
G1 X153.813 Y73.781 E54.94751
G1 X154.348 Y74.273 E54.98377
G1 X154.715 Y74.683 E55.01123
G1 X155.088 Y75.136 E55.0405
G1 X155.518 Y75.721 E55.07672
G1 X155.809 Y76.211 E55.10516
G1 X156.089 Y76.733 E55.13471
G1 X156.397 Y77.391 E55.17096
G1 X156.592 Y77.946 E55.2003
G1 X156.761 Y78.506 E55.22949
G1 X156.932 Y79.212 E55.26573
G1 X157.01 Y79.763 E55.29349
G1 X157.068 Y80.349 E55.32287
G1 X157.1 Y80.999 E55.35534
G1 X157.1 Y118.999 E57.25117
G1 X157.068 Y119.648 E57.28358
G1 X157.01 Y120.235 E57.31301
G1 X156.899 Y120.953 E57.34926
G1 X156.761 Y121.49 E57.37692
G1 X156.592 Y122.051 E57.40615
G1 X156.345 Y122.734 E57.44239
G1 X156.091 Y123.263 E57.47166
G1 X155.812 Y123.784 E57.50115
G1 X155.435 Y124.404 E57.53735
G1 X155.09 Y124.862 E57.56596
G1 X154.718 Y125.314 E57.59516
G1 X154.226 Y125.849 E57.63142
G1 X153.817 Y126.215 E57.65881
G1 X153.364 Y126.588 E57.68808
G1 X152.779 Y127.018 E57.7243
G1 X152.289 Y127.309 E57.75274
G1 X151.767 Y127.589 E57.78229
G1 X151.109 Y127.897 E57.81853
G1 X150.551 Y128.092 E57.84802
G1 X149.99 Y128.261 E57.87726
G1 X149.284 Y128.432 E57.9135
G1 X148.735 Y128.51 E57.94116
G1 X148.148 Y128.568 E57.97059
G1 X147.499 Y128.6 E58.00301
G1 X52.501 Y128.6 E62.74248
G1 X51.852 Y128.568 E62.77489
G1 X51.265 Y128.51 E62.80432
G1 X50.547 Y128.399 E62.84057
G1 X50.01 Y128.261 E62.86823
G1 X49.449 Y128.092 E62.89746
G1 X48.766 Y127.845 E62.9337
G1 X48.233 Y127.589 E62.9632
G1 X47.711 Y127.309 E62.99275
G1 X47.091 Y126.931 E63.02898
G1 X46.636 Y126.588 E63.0574
G1 X46.183 Y126.215 E63.08668
G1 X45.648 Y125.723 E63.12294
G1 X45.282 Y125.314 E63.15032
G1 X44.91 Y124.862 E63.17953
G1 X44.48 Y124.277 E63.21575
G1 X44.188 Y123.784 E63.24434
G1 X43.909 Y123.263 E63.27382
G1 X43.602 Y122.605 E63.31005
G1 X43.408 Y122.051 E63.33933
G1 X43.239 Y121.49 E63.36856
G1 X43.068 Y120.784 E63.4048
G1 X42.99 Y120.237 E63.43237
G1 X42.932 Y119.652 E63.4617
G1 X42.9 Y119.001 E63.49422
G1 X42.9 Y81.001 E65.39004
G1 X42.932 Y80.353 E65.42241
G1 X42.99 Y79.765 E65.45189
G1 X43.101 Y79.047 E65.48814
G1 X43.239 Y78.506 E65.51599
G1 X43.408 Y77.946 E65.54518
G1 X43.656 Y77.263 E65.58143
G1 X43.911 Y76.733 E65.61077
G1 X44.191 Y76.211 E65.64032
G1 X44.569 Y75.591 E65.67655
G1 X44.91 Y75.138 E65.70484
G1 X45.281 Y74.687 E65.73397
G1 X45.773 Y74.152 E65.77024
G1 X46.183 Y73.785 E65.79769
G1 X46.636 Y73.412 E65.82696
G1 X47.221 Y72.982 E65.86319
G0 F3600 X47.458 Y73.305
G1 F1800 X47.9 Y73.043 E65.88882
G1 X48.422 Y72.763 E65.91837
G1 X49.061 Y72.466 E65.95353
G1 X49.565 Y72.291 E65.98015
G1 X50.126 Y72.122 E66.00938
G1 X50.81 Y71.957 E66.04448
G1 X51.304 Y71.888 E66.06936
G1 X51.891 Y71.83 E66.09879
G1 X52.501 Y71.8 E66.12926
G1 X147.499 Y71.8 E70.86873
G1 X148.109 Y71.83 E70.8992
G1 X148.696 Y71.888 E70.92863
G1 X149.391 Y71.997 E70.96373
G1 X149.874 Y72.122 E70.98862
G1 X150.435 Y72.291 E71.01785
G1 X151.097 Y72.532 E71.053
G1 X151.578 Y72.763 E71.07962
G1 X152.1 Y73.043 E71.10917
G1 X152.7 Y73.411 E71.14429
G1 X153.108 Y73.719 E71.16979
G1 X153.559 Y74.09 E71.19893
G1 X154.076 Y74.567 E71.23402
G1 X154.406 Y74.937 E71.25876
G1 X154.779 Y75.39 E71.28803
G1 X155.195 Y75.958 E71.32316
G1 X155.457 Y76.4 E71.34879
G1 X155.737 Y76.922 E71.37834
G1 X156.034 Y77.561 E71.4135
G1 X156.209 Y78.062 E71.43997
G1 X156.378 Y78.622 E71.46916
G1 X156.542 Y79.306 E71.50425
G1 X156.612 Y79.802 E71.52924
G1 X156.67 Y80.388 E71.55862
G1 X156.7 Y80.999 E71.58914
G1 X156.7 Y118.999 E73.48497
G1 X156.67 Y119.609 E73.51544
G1 X156.612 Y120.196 E73.54486
G1 X156.503 Y120.891 E73.57996
G1 X156.378 Y121.374 E73.60485
G1 X156.209 Y121.935 E73.63408
G1 X155.968 Y122.597 E73.66923
G1 X155.739 Y123.074 E73.69563
G1 X155.46 Y123.595 E73.72511
G1 X155.093 Y124.196 E73.76025
G1 X154.781 Y124.608 E73.78603
G1 X154.409 Y125.06 E73.81524
G1 X153.932 Y125.577 E73.85033
G1 X153.563 Y125.906 E73.87499
G1 X153.11 Y126.279 E73.90427
G1 X152.542 Y126.695 E73.93939
G1 X152.1 Y126.957 E73.96503
G1 X151.578 Y127.237 E73.99458
G1 X150.939 Y127.534 E74.02974
G1 X150.435 Y127.709 E74.05635
G1 X149.874 Y127.878 E74.08559
G1 X149.19 Y128.043 E74.12069
G1 X148.696 Y128.112 E74.14557
G1 X148.109 Y128.17 E74.175
G1 X147.499 Y128.2 E74.20547
G1 X52.501 Y128.2 E78.94494
G1 X51.891 Y128.17 E78.97541
G1 X51.304 Y128.112 E79.00484
G1 X50.609 Y128.003 E79.03994
G1 X50.126 Y127.878 E79.06483
G1 X49.565 Y127.709 E79.09406
G1 X48.903 Y127.468 E79.12921
G1 X48.422 Y127.237 E79.15583
G1 X47.9 Y126.957 E79.18538
G1 X47.3 Y126.589 E79.2205
G1 X46.89 Y126.279 E79.24614
G1 X46.437 Y125.906 E79.27542
G1 X45.92 Y125.429 E79.31051
G1 X45.591 Y125.06 E79.33517
G1 X45.219 Y124.608 E79.36438
G1 X44.803 Y124.04 E79.3995
G1 X44.54 Y123.595 E79.42529
G1 X44.261 Y123.074 E79.45478
G1 X43.965 Y122.435 E79.48991
G1 X43.791 Y121.935 E79.51632
G1 X43.622 Y121.374 E79.54556
G1 X43.457 Y120.69 E79.58066
G1 X43.388 Y120.198 E79.60545
G1 X43.33 Y119.613 E79.63477
G1 X43.3 Y119.001 E79.66534
G1 X43.3 Y81.001 E81.56117
G1 X43.33 Y80.392 E81.59159
G1 X43.388 Y79.804 E81.62107
G1 X43.497 Y79.109 E81.65617
G1 X43.622 Y78.622 E81.68125
G1 X43.791 Y78.062 E81.71043
G1 X44.033 Y77.4 E81.7456
G1 X44.263 Y76.922 E81.77206
G1 X44.543 Y76.4 E81.80162
G1 X44.911 Y75.8 E81.83673
G1 X45.219 Y75.392 E81.86224
G1 X45.59 Y74.941 E81.89137
G1 X46.067 Y74.424 E81.92647
G1 X46.437 Y74.094 E81.9512
G1 X46.89 Y73.721 E81.98048
G1 X47.458 Y73.305 E82.0156
G0 F3600 X47.694 Y73.628
G1 F1800 X48.089 Y73.396 E82.03846
G1 X48.611 Y73.116 E82.06801
G1 X49.229 Y72.83 E82.10198
G1 X49.68 Y72.674 E82.12579
G1 X50.241 Y72.505 E82.15502
G1 X50.903 Y72.347 E82.18898
G1 X51.344 Y72.286 E82.21119
G1 X51.931 Y72.228 E82.24062
G1 X52.501 Y72.2 E82.26909
G1 X147.499 Y72.2 E87.00856
G1 X148.069 Y72.228 E87.03703
G1 X148.656 Y72.286 E87.06646
G1 X149.329 Y72.393 E87.10045
G1 X149.759 Y72.505 E87.12262
G1 X150.32 Y72.674 E87.15185
G1 X150.959 Y72.908 E87.1858
G1 X151.389 Y73.116 E87.20963
G1 X151.911 Y73.396 E87.23919
