;FLAVOR:RepRap
;TIME:6216
;Filament used: 2.573m
;Layer height: 0.1
;Generated with Cura_SteamEngine 2.5.0
M190 S59
M104 S200
M109 S200
G21 ;metric values
G90 ;absolute positioning
M82 ;set extruder to absolute mode
M107 ;start with the fan off
G28 X0 Y0 ;move X/Y to min endstops
G28 Z0 ;move Z to min endstops
G1 Z15.0 F9000 ;move the platform down 15mm
G92 E0 ;zero the extruded length
G1 F200 E3 ;extrude 3mm of feed stock
G92 E0 ;zero the extruded length again
G1 F9000
;Put printing message on LCD screen
M117 Printing...
;LAYER_COUNT:131
;LAYER:0
M107
G0 F3600 X77.211 Y75.605 Z0.3
;TYPE:SKIRT
G1 F1800 X77.634 Y75.276 E0.02674
G1 X78.102 Y75.014 E0.05349
G1 X78.604 Y74.824 E0.08027
G1 X79.128 Y74.711 E0.10702
G1 X79.735 Y74.679 E0.13734
G1 X83.852 Y74.807 E0.34284
G1 X89.448 Y74.881 E0.62205
G1 X96.349 Y74.678 E0.96649
G1 X96.503 Y74.676 E0.97417
G1 X101.875 Y74.748 E1.24221
G1 X105.784 Y74.691 E1.43725
G1 X106.03 Y74.696 E1.44952
G1 X108.408 Y74.824 E1.56834
G1 X113.931 Y74.897 E1.8439
G1 X120.698 Y74.693 E2.18166
G1 X121.234 Y74.716 E2.20843
G1 X121.76 Y74.82 E2.23518
G1 X122.266 Y75 E2.26197
G1 X122.738 Y75.253 E2.28869
G1 X123.168 Y75.574 E2.31546
G1 X123.546 Y75.954 E2.3422
G1 X123.895 Y76.44 E2.37205
G1 X126.614 Y80.976 E2.6359
G1 X126.854 Y81.455 E2.66263
G1 X127.021 Y81.965 E2.6894
G1 X127.111 Y82.494 E2.71617
G1 X127.126 Y82.827 E2.7328
G1 X127.126 Y98.391 E3.50929
G1 X127.117 Y98.649 E3.52217
G1 X126.695 Y104.521 E3.81588
G1 X126.62 Y110.012 E4.08986
G1 X126.674 Y112.223 E4.2002
G1 X126.675 Y112.313 E4.20469
G1 X126.665 Y127.574 E4.96606
G1 X126.625 Y128.109 E4.99283
G1 X126.505 Y128.632 E5.0196
G1 X126.31 Y129.131 E5.04633
G1 X126.042 Y129.596 E5.0731
G1 X125.708 Y130.016 E5.09987
G1 X125.316 Y130.381 E5.1266
G1 X124.874 Y130.685 E5.15336
G1 X124.391 Y130.919 E5.18014
G1 X123.879 Y131.079 E5.2069
G1 X123.349 Y131.161 E5.23365
G1 X122.982 Y131.171 E5.25197
G1 X119.653 Y131.094 E5.4181
G1 X119.512 Y131.088 E5.42514
G1 X116.116 Y130.876 E5.5949
G1 X110.645 Y130.796 E5.86788
G1 X103.377 Y131.165 E6.23095
G1 X103.196 Y131.17 E6.23998
G1 X100.928 Y131.171 E6.35313
G1 X100.63 Y131.159 E6.36801
G1 X94.411 Y130.645 E6.67933
G1 X88.928 Y130.408 E6.95314
G1 X83.456 Y130.482 E7.22616
G1 X78.615 Y130.784 E7.46815
G1 X78.346 Y130.791 E7.48157
G1 X76.428 Y130.767 E7.57727
G1 X75.894 Y130.72 E7.60402
G1 X75.372 Y130.595 E7.6308
G1 X74.875 Y130.393 E7.65756
G1 X74.414 Y130.12 E7.68429
G1 X73.998 Y129.781 E7.71106
G1 X73.637 Y129.385 E7.7378
G1 X73.339 Y128.939 E7.76456
G1 X73.111 Y128.453 E7.79134
G1 X72.957 Y127.94 E7.81806
G1 X72.873 Y127.167 E7.85685
G1 X72.875 Y111.612 E8.6329
G1 X72.888 Y111.306 E8.64818
G1 X73.124 Y108.535 E8.78692
G1 X73.357 Y103.032 E9.06171
G1 X73.314 Y82.822 E10.07
G1 X73.353 Y82.287 E10.09676
G1 X73.471 Y81.764 E10.12351
G1 X73.665 Y81.264 E10.15026
G1 X73.823 Y80.968 E10.167
G1 X76.532 Y76.431 E10.43064
G1 X76.841 Y75.993 E10.45738
G1 X77.211 Y75.605 E10.48413
G0 F3600 X77.522 Y75.863
G1 F1800 X77.928 Y75.562 E10.50934
G1 X78.377 Y75.329 E10.53458
G1 X78.857 Y75.17 E10.55981
G1 X79.356 Y75.088 E10.58503
G1 X79.722 Y75.079 E10.6033
G1 X83.846 Y75.207 E10.80915
G1 X89.431 Y75.281 E11.08781
G1 X96.361 Y75.077 E11.4337
G1 X96.498 Y75.076 E11.44053
G1 X101.876 Y75.148 E11.70886
G1 X105.79 Y75.091 E11.90416
G1 X106.009 Y75.096 E11.91508
G1 X108.382 Y75.224 E12.03365
G1 X113.914 Y75.297 E12.30966
G1 X120.71 Y75.092 E12.64887
G1 X121.215 Y75.117 E12.6741
G1 X121.71 Y75.221 E12.69933
G1 X122.182 Y75.402 E12.72455
G1 X122.62 Y75.654 E12.74976
G1 X123.013 Y75.973 E12.77501
G1 X123.351 Y76.349 E12.80024
G1 X123.552 Y76.646 E12.81813
G1 X126.271 Y81.182 E13.08197
G1 X126.496 Y81.635 E13.10721
G1 X126.646 Y82.117 E13.13239
G1 X126.726 Y82.827 E13.16804
G1 X126.726 Y98.391 E13.94453
G1 X126.718 Y98.621 E13.95601
G1 X126.295 Y104.505 E14.25032
G1 X126.22 Y110.017 E14.52534
G1 X126.274 Y112.233 E14.63593
G1 X126.275 Y112.313 E14.63993
G1 X126.265 Y127.574 E15.4013
G1 X126.225 Y128.078 E15.42652
G1 X126.106 Y128.569 E15.45173
G1 X125.911 Y129.036 E15.47698
G1 X125.644 Y129.466 E15.50223
G1 X125.314 Y129.848 E15.52741
G1 X124.927 Y130.174 E15.55266
G1 X124.494 Y130.435 E15.57788
G1 X124.026 Y130.624 E15.60306
G1 X123.533 Y130.738 E15.62831
G1 X122.991 Y130.771 E15.6554
G1 X119.662 Y130.694 E15.82153
G1 X119.537 Y130.689 E15.82777
G1 X116.126 Y130.476 E15.99828
G1 X110.645 Y130.395 E16.27175
G1 X103.356 Y130.766 E16.63587
G1 X103.195 Y130.77 E16.64391
G1 X100.927 Y130.771 E16.75706
G1 X100.662 Y130.76 E16.77029
G1 X94.434 Y130.245 E17.08207
G1 X88.94 Y130.008 E17.35642
G1 X83.446 Y130.082 E17.63054
G1 X78.59 Y130.385 E17.87328
G1 X78.351 Y130.391 E17.88521
G1 X76.433 Y130.367 E17.9809
G1 X75.93 Y130.321 E18.0061
G1 X75.44 Y130.196 E18.03133
G1 X74.976 Y129.995 E18.05656
G1 X74.549 Y129.724 E18.08179
G1 X74.17 Y129.389 E18.10703
G1 X73.849 Y128.998 E18.13227
G1 X73.593 Y128.562 E18.15749
G1 X73.409 Y128.091 E18.18272
G1 X73.302 Y127.597 E18.20794
G1 X73.273 Y127.167 E18.22944
G1 X73.275 Y111.612 E19.00548
G1 X73.287 Y111.34 E19.01906
G1 X73.524 Y108.563 E19.15811
G1 X73.757 Y103.048 E19.4335
G1 X73.714 Y82.821 E20.44263
G1 X73.753 Y82.317 E20.46785
G1 X73.871 Y81.825 E20.4931
G1 X74.167 Y81.173 E20.52882
G1 X76.876 Y76.636 E20.79245
G1 X77.168 Y76.224 E20.81764
G1 X77.522 Y75.863 E20.84287
G1 F1500 E14.34287
G0 F3600 X80.199 Y77.601
G0 X80.2 Y78.88
G0 X80.584 Y78.966
G0 X80.584 Y78.865
;TYPE:WALL-INNER
G1 F1500 E20.84287
G1 F1800 X80.784 Y78.865 E20.85285
G1 X80.784 Y79.065 E20.85931
G1 X80.785 Y83.409 E21.07603
G1 X95.167 Y83.409 E21.79355
G1 X95.168 Y78.866 E22.0202
G1 X95.566 Y78.865 E22.04006
G1 X95.766 Y78.865 E22.05004
G1 X95.766 Y79.065 E22.0565
G1 X95.767 Y83.409 E22.27322
G1 X98.449 Y83.409 E22.40703
G1 X98.449 Y97.784 E23.1242
G1 X97.376 Y97.784 E23.17773
G1 X97.376 Y88.427 E23.64455
G1 X78.577 Y88.427 E24.58244
G1 X78.576 Y97.783 E25.04921
G1 X77.703 Y97.784 E25.09277
G1 X77.503 Y97.784 E25.10274
G1 X77.503 Y97.584 E25.1092
G1 X77.504 Y83.41 E25.81635
G1 X80.185 Y83.409 E25.9501
G1 X80.186 Y78.866 E26.17676
G1 X80.584 Y78.865 E26.19661
G0 F3600 X81.184 Y78.834
;TYPE:WALL-OUTER
G1 F1800 X81.185 Y83.009 E26.4049
G1 X94.767 Y83.009 E27.08251
G1 X94.768 Y78.811 E27.29195
G1 X94.783 Y78.466 E27.30918
G1 X96.126 Y78.465 E27.37618
G1 X96.157 Y78.465 E27.37773
G1 X96.166 Y78.803 E27.3946
G1 X96.166 Y78.834 E27.39614
G1 X96.167 Y83.009 E27.60444
G1 X98.849 Y83.009 E27.73824
G1 X98.849 Y98.184 E28.49533
G1 X96.976 Y98.184 E28.58877
G1 X96.976 Y88.827 E29.05559
G1 X78.977 Y88.827 E29.95357
G1 X78.976 Y98.183 E30.42034
G1 X77.303 Y98.184 E30.50381
G1 X77.103 Y98.184 E30.51378
G1 X77.103 Y97.984 E30.52024
G1 X77.104 Y83.01 E31.2673
G1 X79.785 Y83.009 E31.40106
G1 X79.786 Y78.809 E31.61059
G1 X79.796 Y78.466 E31.62771
G1 X81.138 Y78.465 E31.69467
G1 X81.169 Y78.465 E31.69621
G1 X81.184 Y78.803 E31.71309
G1 X81.184 Y78.834 E31.71464
G0 F3600 X81.184 Y79.034
G0 X80.483 Y79.352
G1 F1800 X80.483 Y79.918 E31.73151
G1 X80.483 Y80.483 E31.74835
G1 X80.483 Y81.049 E31.76523
G1 X80.484 Y81.615 E31.78203
G1 X80.484 Y82.181 E31.79897
G1 X80.484 Y82.747 E31.81591
G1 X80.484 Y83.312 E31.83283
G0 F3600 X80.76 Y83.588
;TYPE:SKIN
G1 F1800 X85.418 Y88.246 E32.16147
G1 X85.488 Y88.316
G0 F3600 X85.984 Y88.246
G1 F1800 X81.325 Y83.588 E32.49015
G1 X81.255 Y83.518
G0 F3600 X81.891 Y83.588
G1 F1800 X86.549 Y88.246 E32.8188
G1 X86.619 Y88.316
G0 F3600 X87.115 Y88.246
G1 F1800 X82.457 Y83.588 E33.14745
G1 X82.387 Y83.518
G0 F3600 X83.022 Y83.588
G1 F1800 X87.681 Y88.246 E33.47613
G1 X87.751 Y88.316
G0 F3600 X88.246 Y88.246
G1 F1800 X83.588 Y83.588 E33.80478
G1 X83.518 Y83.518
G0 F3600 X84.154 Y83.588
G1 F1800 X88.812 Y88.246 E34.13343
G1 X88.882 Y88.316
G0 F3600 X89.378 Y88.246
G1 F1800 X84.719 Y83.588 E34.46211
G1 X84.649 Y83.518
G0 F3600 X85.285 Y83.588
G1 F1800 X89.943 Y88.246 E34.79075
G1 X90.013 Y88.316
G0 F3600 X90.509 Y88.246
G1 F1800 X85.851 Y83.588 E35.1194
G1 X85.781 Y83.518
G0 F3600 X86.416 Y83.588
G1 F1800 X91.075 Y88.246 E35.44808
G1 X91.145 Y88.316
G0 F3600 X91.641 Y88.246
G1 F1800 X86.982 Y83.588 E35.77677
G1 X86.912 Y83.518
G0 F3600 X87.548 Y83.588
G1 F1800 X92.206 Y88.246 E36.10541
G1 X92.276 Y88.316
G0 F3600 X92.772 Y88.246
G1 F1800 X88.113 Y83.588 E36.4341
G1 X88.043 Y83.518
G0 F3600 X88.679 Y83.588
G1 F1800 X93.338 Y88.246 E36.76278
G1 X93.408 Y88.316
G0 F3600 X93.903 Y88.246
G1 F1800 X89.245 Y83.588 E37.09143
G1 X89.175 Y83.518
G0 F3600 X89.811 Y83.588
G1 F1800 X94.469 Y88.246 E37.42007
G1 X94.539 Y88.316
G0 F3600 X95.035 Y88.246
G1 F1800 X90.376 Y83.588 E37.74875
G1 X90.306 Y83.518
G0 F3600 X90.942 Y83.588
G1 F1800 X95.6 Y88.246 E38.0774
G1 X95.67 Y88.316
G0 F3600 X96.166 Y88.246
G1 F1800 X91.508 Y83.588 E38.40605
G1 X91.438 Y83.518
G0 F3600 X92.073 Y83.588
G1 F1800 X96.732 Y88.246 E38.73473
G1 X96.802 Y88.316
G0 F3600 X97.297 Y88.246
G1 F1800 X92.639 Y83.588 E39.06338
G1 X92.569 Y83.518
G0 F3600 X93.205 Y83.588
G1 F1800 X98.268 Y88.652 E39.42064
G1 X98.338 Y88.722
G0 F3600 X98.268 Y89.217
G1 F1800 X97.555 Y88.504 E39.47094
G1 X97.485 Y88.434
G0 F3600 X97.555 Y89.069
G1 F1800 X98.268 Y89.783 E39.52128
G1 X98.338 Y89.853
G0 F3600 X98.268 Y90.349
G1 F1800 X97.555 Y89.635 E39.57162
G1 X97.485 Y89.565
G0 F3600 X97.555 Y90.201
G1 F1800 X98.268 Y90.914 E39.62193
G1 X98.338 Y90.984
G0 F3600 X98.268 Y91.48
G1 F1800 X97.555 Y90.767 E39.67224
G1 X97.485 Y90.697
G0 F3600 X97.555 Y91.332
G1 F1800 X98.268 Y92.046 E39.72258
G1 X98.338 Y92.116
G0 F3600 X98.268 Y92.611
G1 F1800 X97.555 Y91.898 E39.77288
G1 X97.485 Y91.828
G0 F3600 X97.555 Y92.464
G1 F1800 X98.268 Y93.177 E39.82319
G1 X98.338 Y93.247
G0 F3600 X98.268 Y93.743
G1 F1800 X97.555 Y93.029 E39.87353
G1 X97.485 Y92.959
G0 F3600 X97.555 Y93.595
G1 F1800 X98.268 Y94.308 E39.92384
G1 X98.338 Y94.378
G0 F3600 X98.268 Y94.874
G1 F1800 X97.555 Y94.161 E39.97414
G1 X97.485 Y94.091
G0 F3600 X97.555 Y94.726
G1 F1800 X98.268 Y95.44 E40.02448
G1 X98.338 Y95.51
G0 F3600 X98.268 Y96.006
G1 F1800 X97.555 Y95.292 E40.07483
G1 X97.485 Y95.222
G0 F3600 X97.555 Y95.858
G1 F1800 X98.268 Y96.571 E40.12513
G1 X98.338 Y96.641
G0 F3600 X98.268 Y97.137
G1 F1800 X97.555 Y96.423 E40.17547
G1 X97.485 Y96.353
G0 F3600 X97.555 Y96.989
G1 F1800 X98.169 Y97.603 E40.21879
G1 X98.239 Y97.673
G0 F3600 X98.268 Y88.086
G1 F1800 X93.77 Y83.588 E40.53615
G1 X93.7 Y83.518
G0 F3600 X94.336 Y83.588
G1 F1800 X98.268 Y87.52 E40.81358
G1 X98.338 Y87.59
G0 F3600 X98.268 Y86.955
G1 F1800 X94.902 Y83.588 E41.0511
G1 X94.832 Y83.518
G0 F3600 X95.346 Y83.466
G1 F1800 X98.268 Y86.389 E41.2573
G1 X98.338 Y86.459
G0 F3600 X98.268 Y85.823
G1 F1800 X96.034 Y83.589 E41.41492
G1 X95.964 Y83.519
G0 F3600 X96.599 Y83.589
G1 F1800 X98.268 Y85.257 E41.53264
G1 X98.338 Y85.327
G0 F3600 X98.268 Y84.692
G1 F1800 X97.165 Y83.589 E41.61046
G1 X97.095 Y83.519
G0 F3600 X97.731 Y83.589
G1 F1800 X98.268 Y84.126 E41.64835
G0 F3600 X95.739 Y83.437
G0 X95.585 Y83.14
G0 X95.465 Y83.02
G1 F1800 X95.465 Y82.455 E41.66519
G1 X95.465 Y81.889 E41.68207
G1 X95.465 Y81.323 E41.69894
G1 X95.465 Y80.758 E41.71578
G1 X95.465 Y80.192 E41.73265
G1 X95.465 Y79.626 E41.74952
G1 X95.517 Y79.113 E41.76271
G0 F3600 X95.45 Y79.046
G0 X95.195 Y83.437
G0 X84.852 Y88.246
G1 F1800 X80.194 Y83.588 E42.09136
G1 X80.124 Y83.518
G0 F3600 X79.628 Y83.588
G1 F1800 X84.287 Y88.246 E42.42004
G1 X84.357 Y88.316
G0 F3600 X83.721 Y88.246
G1 F1800 X79.063 Y83.588 E42.74869
G1 X78.993 Y83.518
G0 F3600 X78.498 Y83.589
G1 F1800 X83.155 Y88.246 E43.07726
G1 X83.225 Y88.316
G0 F3600 X82.59 Y88.246
G1 F1800 X77.932 Y83.589 E43.40587
G1 X77.862 Y83.519
G0 F3600 X77.682 Y83.905
G1 F1800 X82.024 Y88.246 E43.71219
G1 X82.094 Y88.316
G0 F3600 X81.458 Y88.246
G1 F1800 X77.682 Y84.47 E43.97861
G1 X77.612 Y84.4
G0 F3600 X77.682 Y85.036
G1 F1800 X80.893 Y88.246 E44.20513
G1 X80.963 Y88.316
G0 F3600 X80.327 Y88.246
G1 F1800 X77.682 Y85.602 E44.39171
G1 X77.612 Y85.532
G0 F3600 X77.682 Y86.168
G1 F1800 X79.761 Y88.246 E44.53836
G1 X79.831 Y88.316
G0 F3600 X79.195 Y88.246
G1 F1800 X77.682 Y86.733 E44.64511
G1 X77.612 Y86.663
G0 F3600 X77.682 Y87.299
G1 F1800 X78.63 Y88.246 E44.71196
G1 X78.7 Y88.316
G0 F3600 X78.396 Y88.579
G1 F1800 X77.682 Y87.865 E44.76234
G1 X77.612 Y87.795
G0 F3600 X77.682 Y88.43
G1 F1800 X78.396 Y89.144 E44.81271
G1 X78.466 Y89.214
G0 F3600 X78.396 Y89.71
G1 F1800 X77.682 Y88.996 E44.86309
G1 X77.612 Y88.926
G0 F3600 X77.682 Y89.562
G1 F1800 X78.396 Y90.276 E44.91347
G1 X78.466 Y90.346
G0 F3600 X78.396 Y90.842
G1 F1800 X77.682 Y90.127 E44.96388
G1 X77.612 Y90.057
G0 F3600 X77.682 Y90.693
G1 F1800 X78.396 Y91.407 E45.01425
G1 X78.466 Y91.477
G0 F3600 X78.396 Y91.973
G1 F1800 X77.682 Y91.259 E45.06463
G1 X77.612 Y91.189
G0 F3600 X77.682 Y91.824
G1 F1800 X78.396 Y92.539 E45.11504
G1 X78.466 Y92.609
G0 F3600 X78.396 Y93.104
G1 F1800 X77.682 Y92.39 E45.16542
G1 X77.612 Y92.32
G0 F3600 X77.682 Y92.956
G1 F1800 X78.396 Y93.67 E45.2158
G1 X78.466 Y93.74
G0 F3600 X78.396 Y94.236
G1 F1800 X77.682 Y93.521 E45.26621
G1 X77.612 Y93.451
G0 F3600 X77.682 Y94.087
G1 F1800 X78.396 Y94.801 E45.31658
G1 X78.466 Y94.871
G0 F3600 X78.396 Y95.367
G1 F1800 X77.682 Y94.653 E45.36696
G1 X77.612 Y94.583
G0 F3600 X77.682 Y95.218
G1 F1800 X78.396 Y95.933 E45.41737
G1 X78.466 Y96.003
G0 F3600 X78.396 Y96.498
G1 F1800 X77.682 Y95.784 E45.46775
G1 X77.612 Y95.714
G0 F3600 X77.682 Y96.35
G1 F1800 X78.396 Y97.064 E45.51813
G1 X78.466 Y97.134
G0 F3600 X78.369 Y97.602
G1 F1800 X77.682 Y96.916 E45.56656
G1 X77.612 Y96.846
G0 F3600 X77.682 Y97.481
G1 F1800 X77.803 Y97.602 E45.5751
G0 F3600 X77.903 Y97.383
G1 F1500 E39.0751
G0 F3600 X78.549 Y88.399
G0 X97.404 Y88.399
G0 X98.429 Y97.6
G0 X99.714 Y97.6
G0 X100.725 Y97.601
G0 X102.01 Y97.601
G0 X102.09 Y97.6
G0 X101.99 Y97.6
;TYPE:WALL-INNER
G1 F1500 E45.5751
G1 F1800 X101.991 Y83.426 E46.28224
G1 X104.672 Y83.425 E46.416
G1 X104.673 Y78.882 E46.64265
G1 X105.071 Y78.881 E46.66251
G1 X105.271 Y78.881 E46.67248
G1 X105.271 Y79.081 E46.67895
G1 X105.272 Y83.425 E46.89567
G1 X119.654 Y83.425 E47.61319
G1 X119.655 Y78.882 E47.83984
G1 X120.053 Y78.881 E47.8597
G1 X120.253 Y78.881 E47.86967
G1 X120.253 Y79.081 E47.87614
G1 X120.254 Y83.425 E48.09286
G1 X122.936 Y83.425 E48.22666
G1 X122.936 Y97.8 E48.94384
G1 X121.862 Y97.8 E48.99742
G1 X121.862 Y88.443 E49.46424
G1 X103.064 Y88.443 E50.40208
G1 X103.063 Y97.799 E50.86885
G1 X102.19 Y97.8 E50.9124
G1 X101.99 Y97.8 E50.92238
G1 X101.99 Y97.6 E50.92884
G0 F3600 X101.59 Y98
;TYPE:WALL-OUTER
G1 F1800 X101.591 Y83.026 E51.6759
G1 X104.272 Y83.025 E51.80965
G1 X104.273 Y78.825 E52.01919
G1 X104.283 Y78.482 E52.03631
G1 X105.625 Y78.481 E52.10327
G1 X105.656 Y78.481 E52.10481
G1 X105.671 Y78.819 E52.12169
G1 X105.671 Y78.85 E52.12324
G1 X105.672 Y83.025 E52.33153
G1 X119.254 Y83.025 E53.00914
G1 X119.255 Y78.827 E53.21858
G1 X119.27 Y78.482 E53.23581
G1 X120.613 Y78.481 E53.30281
G1 X120.644 Y78.481 E53.30435
G1 X120.653 Y78.819 E53.32122
G1 X120.653 Y78.85 E53.32277
G1 X120.654 Y83.025 E53.53106
G1 X123.336 Y83.025 E53.66487
G1 X123.336 Y98.2 E54.42195
G1 X121.462 Y98.2 E54.51545
G1 X121.462 Y88.843 E54.98227
G1 X103.464 Y88.843 E55.88019
G1 X103.463 Y98.199 E56.34696
G1 X101.79 Y98.2 E56.43043
G1 X101.59 Y98.2 E56.44041
G1 X101.59 Y98 E56.44687
G0 F3600 X101.59 Y97.8
G0 X102.06 Y97.73
G0 X102.169 Y97.077
;TYPE:SKIN
G1 F1800 X102.71 Y97.618 E56.48504
G0 F3600 X102.883 Y97.226
G1 F1800 X102.169 Y96.512 E56.53542
G1 X102.099 Y96.442
G0 F3600 X102.169 Y95.946
G1 F1800 X102.883 Y96.66 E56.58579
G1 X102.953 Y96.73
G0 F3600 X102.883 Y96.095
G1 F1800 X102.169 Y95.38 E56.63621
G1 X102.099 Y95.31
G0 F3600 X102.169 Y94.815
G1 F1800 X102.883 Y95.529 E56.68658
G1 X102.953 Y95.599
G0 F3600 X102.883 Y94.963
G1 F1800 X102.169 Y94.249 E56.73696
G1 X102.099 Y94.179
G0 F3600 X102.169 Y93.683
G1 F1800 X102.883 Y94.398 E56.78737
G1 X102.953 Y94.468
G0 F3600 X102.883 Y93.832
G1 F1800 X102.169 Y93.118 E56.83775
G1 X102.099 Y93.048
G0 F3600 X102.169 Y92.552
G1 F1800 X102.883 Y93.266 E56.88812
G1 X102.953 Y93.336
G0 F3600 X102.883 Y92.7
G1 F1800 X102.169 Y91.986 E56.9385
G1 X102.099 Y91.916
G0 F3600 X102.169 Y91.421
