;FLAVOR:RepRap
;TIME:856
;Filament used: 0.433437m
;Layer height: 0.1
;Generated with Cura_SteamEngine 2.5.0
M190 S59
M104 S200
M109 S200
G21 ;metric values
G90 ;absolute positioning
M82 ;set extruder to absolute mode
M107 ;start with the fan off
G28 X0 Y0 ;move X/Y to min endstops
G28 Z0 ;move Z to min endstops
G1 Z15.0 F9000 ;move the platform down 15mm
G92 E0 ;zero the extruded length
G1 F200 E3 ;extrude 3mm of feed stock
G92 E0 ;zero the extruded length again
G1 F9000
;Put printing message on LCD screen
M117 Printing...
;LAYER_COUNT:13
;LAYER:0
M107
G0 F3600 X84.864 Y74.067 Z0.3
;TYPE:SKIRT
G1 F1800 X85.256 Y73.701 E0.02676
G1 X85.698 Y73.398 E0.05349
G1 X86.181 Y73.163 E0.08029
G1 X86.692 Y73.003 E0.107
G1 X87.222 Y72.92 E0.13377
G1 X87.509 Y72.909 E0.1481
G1 X112.491 Y72.91 E1.39445
G1 X113.026 Y72.95 E1.42122
G1 X113.549 Y73.069 E1.44798
G1 X114.048 Y73.264 E1.47471
G1 X114.513 Y73.532 E1.50148
G1 X114.933 Y73.865 E1.52822
G1 X115.299 Y74.257 E1.55498
G1 X115.603 Y74.699 E1.58174
G1 X115.837 Y75.182 E1.60852
G1 X115.997 Y75.693 E1.63523
G1 X116.08 Y76.223 E1.662
G1 X116.091 Y76.51 E1.67633
G1 X116.091 Y123.491 E4.02022
G1 X116.051 Y124.026 E4.04699
G1 X115.932 Y124.549 E4.07374
G1 X115.737 Y125.048 E4.10047
G1 X115.469 Y125.513 E4.12725
G1 X115.136 Y125.933 E4.15399
G1 X114.744 Y126.299 E4.18075
G1 X114.302 Y126.602 E4.20748
G1 X113.819 Y126.837 E4.23428
G1 X113.308 Y126.997 E4.26099
G1 X112.778 Y127.08 E4.28776
G1 X112.491 Y127.091 E4.30209
G1 X87.509 Y127.09 E5.54844
G1 X86.974 Y127.05 E5.57521
G1 X86.451 Y126.931 E5.60197
G1 X85.952 Y126.736 E5.6287
G1 X85.487 Y126.468 E5.65547
G1 X85.067 Y126.135 E5.68222
G1 X84.701 Y125.743 E5.70897
G1 X84.397 Y125.301 E5.73574
G1 X84.163 Y124.818 E5.76251
G1 X84.003 Y124.307 E5.78923
G1 X83.92 Y123.777 E5.81599
G1 X83.909 Y123.49 E5.83032
G1 X83.909 Y76.509 E8.17421
G1 X83.949 Y75.974 E8.20098
G1 X84.068 Y75.451 E8.22774
G1 X84.263 Y74.952 E8.25446
G1 X84.531 Y74.487 E8.28124
G1 X84.864 Y74.067 E8.30798
G0 F3600 X85.258 Y74.234
G1 F1800 X85.645 Y73.908 E8.33323
G1 X86.078 Y73.647 E8.35845
G1 X86.546 Y73.457 E8.38365
G1 X87.039 Y73.344 E8.40888
G1 X87.509 Y73.309 E8.4324
G1 X112.491 Y73.31 E9.67875
G1 X112.995 Y73.35 E9.70398
G1 X113.487 Y73.469 E9.72923
G1 X113.953 Y73.664 E9.75443
G1 X114.383 Y73.929 E9.77963
G1 X114.766 Y74.26 E9.80489
G1 X115.092 Y74.646 E9.83009
G1 X115.353 Y75.079 E9.85532
G1 X115.543 Y75.547 E9.88052
G1 X115.656 Y76.04 E9.90575
G1 X115.691 Y76.51 E9.92926
G1 X115.691 Y123.491 E12.27316
G1 X115.651 Y123.995 E12.29838
G1 X115.532 Y124.486 E12.32358
G1 X115.338 Y124.953 E12.34881
G1 X115.072 Y125.383 E12.37404
G1 X114.742 Y125.766 E12.39926
G1 X114.355 Y126.092 E12.42451
G1 X113.922 Y126.353 E12.44973
G1 X113.454 Y126.543 E12.47493
G1 X112.961 Y126.656 E12.50016
G1 X112.491 Y126.691 E12.52368
G1 X87.509 Y126.69 E13.77003
G1 X87.005 Y126.65 E13.79526
G1 X86.513 Y126.531 E13.82051
G1 X86.047 Y126.336 E13.84571
G1 X85.617 Y126.071 E13.87091
G1 X85.234 Y125.74 E13.89617
G1 X84.908 Y125.354 E13.92137
G1 X84.647 Y124.921 E13.9466
G1 X84.457 Y124.453 E13.9718
G1 X84.344 Y123.96 E13.99703
G1 X84.309 Y123.49 E14.02054
G1 X84.309 Y76.509 E16.36444
G1 X84.349 Y76.005 E16.38966
G1 X84.468 Y75.514 E16.41486
G1 X84.662 Y75.047 E16.44009
G1 X84.928 Y74.617 E16.46532
G1 X85.258 Y74.234 E16.49054
G1 F1500 E9.99054
G0 F3600 X88.114 Y75.835
G0 X88.114 Y77.114
G0 X88.17 Y77.17
G0 X88.1 Y77.1
;TYPE:WALL-INNER
G1 F1500 E16.49054
G1 F1800 X89.9 Y77.1 E16.58034
G1 X89.9 Y97.9 E17.61806
G1 X88.1 Y97.9 E17.70786
G1 X88.1 Y77.1 E18.74558
G0 F3600 X87.7 Y76.7
;TYPE:WALL-OUTER
G1 F1800 X90.3 Y76.7 E18.87529
G1 X90.3 Y98.3 E19.95292
G1 X87.7 Y98.3 E20.08264
G1 X87.7 Y76.7 E21.16026
G0 F3600 X87.9 Y76.7
G0 X88.17 Y77.17
G0 X88.593 Y77.279
;TYPE:SKIN
G1 F1800 X89.719 Y78.406 E21.23975
G1 X89.789 Y78.476
G0 F3600 X89.719 Y78.971
G1 F1800 X88.279 Y77.531 E21.34135
G1 X88.209 Y77.461
G0 F3600 X88.279 Y78.097
G1 F1800 X89.719 Y79.537 E21.44295
G1 X89.789 Y79.607
G0 F3600 X89.719 Y80.103
G1 F1800 X88.279 Y78.662 E21.54458
G1 X88.209 Y78.592
G0 F3600 X88.279 Y79.228
G1 F1800 X89.719 Y80.668 E21.64618
G1 X89.789 Y80.738
G0 F3600 X89.719 Y81.234
G1 F1800 X88.279 Y79.794 E21.74778
G1 X88.209 Y79.724
G0 F3600 X88.279 Y80.359
G1 F1800 X89.719 Y81.8 E21.84941
G1 X89.789 Y81.87
G0 F3600 X89.719 Y82.365
G1 F1800 X88.279 Y80.925 E21.95101
G1 X88.209 Y80.855
G0 F3600 X88.279 Y81.491
G1 F1800 X89.719 Y82.931 E22.05261
G1 X89.789 Y83.001
G0 F3600 X89.719 Y83.497
G1 F1800 X88.279 Y82.056 E22.15425
G1 X88.209 Y81.986
G0 F3600 X88.279 Y82.622
G1 F1800 X89.719 Y84.062 E22.25585
G1 X89.789 Y84.132
G0 F3600 X89.719 Y84.628
G1 F1800 X88.279 Y83.188 E22.35745
G1 X88.209 Y83.118
G0 F3600 X88.279 Y83.753
G1 F1800 X89.719 Y85.194 E22.45908
G1 X89.789 Y85.264
G0 F3600 X89.719 Y85.76
G1 F1800 X88.279 Y84.319 E22.56072
G1 X88.209 Y84.249
G0 F3600 X88.279 Y84.885
G1 F1800 X89.719 Y86.325 E22.66232
G1 X89.789 Y86.395
G0 F3600 X89.719 Y86.891
G1 F1800 X88.279 Y85.451 E22.76392
G1 X88.209 Y85.381
G0 F3600 X88.279 Y86.016
G1 F1800 X89.719 Y87.457 E22.86555
G1 X89.789 Y87.527
G0 F3600 X89.72 Y88.023
G1 F1800 X88.279 Y86.582 E22.96722
G1 X88.209 Y86.512
G0 F3600 X88.279 Y87.148
G1 F1800 X89.72 Y88.589 E23.06889
G1 X89.79 Y88.659
G0 F3600 X89.72 Y89.154
G1 F1800 X88.279 Y87.713 E23.17056
G1 X88.209 Y87.643
G0 F3600 X88.279 Y88.279
G1 F1800 X89.72 Y89.72 E23.27224
G1 X89.79 Y89.79
G0 F3600 X89.72 Y90.286
G1 F1800 X88.279 Y88.845 E23.37391
G1 X88.209 Y88.775
G0 F3600 X88.279 Y89.41
G1 F1800 X89.72 Y90.851 E23.47558
G1 X89.79 Y90.921
G0 F3600 X89.72 Y91.417
G1 F1800 X88.279 Y89.976 E23.57725
G1 X88.209 Y89.906
G0 F3600 X88.279 Y90.542
G1 F1800 X89.72 Y91.983 E23.67892
G1 X89.79 Y92.053
G0 F3600 X89.72 Y92.548
G1 F1800 X88.279 Y91.107 E23.78059
G1 X88.209 Y91.037
G0 F3600 X88.279 Y91.673
G1 F1800 X89.72 Y93.114 E23.88226
G1 X89.79 Y93.184
G0 F3600 X89.72 Y93.68
G1 F1800 X88.279 Y92.239 E23.98393
G1 X88.209 Y92.169
G0 F3600 X88.279 Y92.804
G1 F1800 X89.72 Y94.246 E24.08563
G1 X89.79 Y94.316
G0 F3600 X89.72 Y94.811
G1 F1800 X88.279 Y93.37 E24.1873
G1 X88.209 Y93.3
G0 F3600 X88.279 Y93.936
G1 F1800 X89.72 Y95.377 E24.28897
G1 X89.79 Y95.447
G0 F3600 X89.72 Y95.943
G1 F1800 X88.279 Y94.501 E24.39068
G1 X88.209 Y94.431
G0 F3600 X88.279 Y95.067
G1 F1800 X89.72 Y96.508 E24.49235
G1 X89.79 Y96.578
G0 F3600 X89.72 Y97.074
G1 F1800 X88.279 Y95.633 E24.59402
G1 X88.209 Y95.563
G0 F3600 X88.279 Y96.199
G1 F1800 X89.72 Y97.64 E24.69569
G1 X89.79 Y97.71
G0 F3600 X89.234 Y97.719
G1 F1800 X88.279 Y96.764 E24.76307
G1 X88.209 Y96.694
G0 F3600 X88.279 Y97.33
G1 F1800 X88.668 Y97.719 E24.79052
G0 F3600 X89.719 Y77.84
G1 F1800 X89.159 Y77.279 E24.83006
G0 F3600 X89.159 Y77.5
G1 F1500 E18.33006
G0 F3600 X89.88 Y77.17
G0 X91.165 Y77.17
G0 X92.335 Y77.17
G0 X93.62 Y77.17
G0 X93.67 Y77.17
G0 X93.6 Y77.1
;TYPE:WALL-INNER
G1 F1500 E24.83006
G1 F1800 X95.4 Y77.1 E24.91987
G1 X95.4 Y97.9 E25.95758
G1 X93.6 Y97.9 E26.04738
G1 X93.6 Y77.1 E27.0851
G0 F3600 X93.2 Y76.7
;TYPE:WALL-OUTER
G1 F1800 X95.8 Y76.7 E27.21481
G1 X95.8 Y98.3 E28.29244
G1 X93.2 Y98.3 E28.42216
G1 X93.2 Y76.7 E29.49979
G0 F3600 X93.4 Y76.7
G0 X93.779 Y77.374
;TYPE:SKIN
G1 F1800 X95.219 Y78.814 E29.60139
G1 X95.289 Y78.884
G0 F3600 X95.219 Y78.249
G1 F1800 X94.25 Y77.279 E29.66979
G1 X94.18 Y77.209
G0 F3600 X94.815 Y77.279
G1 F1800 X95.219 Y77.683 E29.69829
G0 F3600 X93.779 Y77.94
G1 F1800 X95.219 Y79.38 E29.79989
G1 X95.289 Y79.45
G0 F3600 X95.219 Y79.946
G1 F1800 X93.779 Y78.505 E29.90153
G1 X93.709 Y78.435
G0 F3600 X93.779 Y79.071
G1 F1800 X95.219 Y80.511 E30.00313
G1 X95.289 Y80.581
G0 F3600 X95.219 Y81.077
G1 F1800 X93.779 Y79.637 E30.10473
G1 X93.709 Y79.567
G0 F3600 X93.779 Y80.202
G1 F1800 X95.219 Y81.643 E30.20636
G1 X95.289 Y81.713
G0 F3600 X95.219 Y82.208
G1 F1800 X93.779 Y80.768 E30.30796
G1 X93.709 Y80.698
G0 F3600 X93.779 Y81.334
G1 F1800 X95.219 Y82.774 E30.40956
G1 X95.289 Y82.844
G0 F3600 X95.219 Y83.34
G1 F1800 X93.779 Y81.899 E30.5112
G1 X93.709 Y81.829
G0 F3600 X93.779 Y82.465
G1 F1800 X95.219 Y83.905 E30.6128
G1 X95.289 Y83.975
G0 F3600 X95.219 Y84.471
G1 F1800 X93.779 Y83.031 E30.7144
G1 X93.709 Y82.961
G0 F3600 X93.779 Y83.596
G1 F1800 X95.219 Y85.037 E30.81603
G1 X95.289 Y85.107
G0 F3600 X95.219 Y85.603
G1 F1800 X93.779 Y84.162 E30.91767
G1 X93.709 Y84.092
G0 F3600 X93.779 Y84.728
G1 F1800 X95.219 Y86.168 E31.01927
G1 X95.289 Y86.238
G0 F3600 X95.219 Y86.734
G1 F1800 X93.779 Y85.294 E31.12087
G1 X93.709 Y85.224
G0 F3600 X93.779 Y85.859
G1 F1800 X95.219 Y87.3 E31.2225
G1 X95.289 Y87.37
G0 F3600 X95.22 Y87.866
G1 F1800 X93.779 Y86.425 E31.32417
G1 X93.709 Y86.355
G0 F3600 X93.779 Y86.991
G1 F1800 X95.22 Y88.432 E31.42584
G1 X95.29 Y88.502
G0 F3600 X95.22 Y88.997
G1 F1800 X93.779 Y87.556 E31.52751
G1 X93.709 Y87.486
G0 F3600 X93.779 Y88.122
G1 F1800 X95.22 Y89.563 E31.62918
G1 X95.29 Y89.633
G0 F3600 X95.22 Y90.129
G1 F1800 X93.779 Y88.688 E31.73085
G1 X93.709 Y88.618
G0 F3600 X93.779 Y89.253
G1 F1800 X95.22 Y90.694 E31.83252
G1 X95.29 Y90.764
G0 F3600 X95.22 Y91.26
G1 F1800 X93.779 Y89.819 E31.93419
G1 X93.709 Y89.749
G0 F3600 X93.779 Y90.385
G1 F1800 X95.22 Y91.826 E32.03586
G1 X95.29 Y91.896
G0 F3600 X95.22 Y92.391
G1 F1800 X93.779 Y90.95 E32.13753
G1 X93.709 Y90.88
G0 F3600 X93.779 Y91.516
G1 F1800 X95.22 Y92.957 E32.23921
G1 X95.29 Y93.027
G0 F3600 X95.22 Y93.523
G1 F1800 X93.779 Y92.082 E32.34088
G1 X93.709 Y92.012
G0 F3600 X93.779 Y92.647
G1 F1800 X95.22 Y94.089 E32.44258
G1 X95.29 Y94.159
G0 F3600 X95.22 Y94.654
G1 F1800 X93.779 Y93.213 E32.54425
G1 X93.709 Y93.143
G0 F3600 X93.779 Y93.779
G1 F1800 X95.22 Y95.22 E32.64592
G1 X95.29 Y95.29
G0 F3600 X95.22 Y95.786
G1 F1800 X93.779 Y94.345 E32.74759
G1 X93.709 Y94.275
G0 F3600 X93.779 Y94.91
G1 F1800 X95.22 Y96.351 E32.84926
G1 X95.29 Y96.421
G0 F3600 X95.22 Y96.917
G1 F1800 X93.779 Y95.476 E32.95093
G1 X93.709 Y95.406
G0 F3600 X93.779 Y96.042
G1 F1800 X95.22 Y97.483 E33.0526
G1 X95.29 Y97.553
G0 F3600 X94.89 Y97.719
G1 F1800 X93.779 Y96.607 E33.13103
G1 X93.709 Y96.537
G0 F3600 X93.779 Y97.173
G1 F1800 X94.325 Y97.719 E33.16955
G0 F3600 X94.325 Y97.5
G1 F1500 E26.66955
G0 F3600 X95.38 Y97.83
G0 X96.665 Y97.83
G0 X97.835 Y97.83
G0 X99.12 Y97.83
G0 X99.17 Y97.83
G0 X99.1 Y97.9
;TYPE:WALL-INNER
G1 F1500 E33.16955
G1 F1800 X99.1 Y77.1 E34.20727
G1 X100.9 Y77.1 E34.29707
G1 X100.9 Y97.9 E35.33478
G1 X99.1 Y97.9 E35.42459
G0 F3600 X98.7 Y98.3
;TYPE:WALL-OUTER
G1 F1800 X98.7 Y76.7 E36.50221
G1 X101.3 Y76.7 E36.63193
G1 X101.3 Y98.3 E37.70956
G1 X98.7 Y98.3 E37.83927
G0 F3600 X98.7 Y98.1
G0 X99.348 Y97.651
G1 F1800 X99.63 Y97.368 E37.86892
;TYPE:SKIN
G1 X99.209 Y96.946
G0 F3600 X99.279 Y96.45
G1 F1800 X100.548 Y97.72 E37.95849
G1 X100.618 Y97.79
G0 F3600 X100.719 Y97.325
G1 F1800 X99.279 Y95.885 E38.06009
G1 X99.209 Y95.815
G0 F3600 X99.279 Y95.319
G1 F1800 X100.719 Y96.759 E38.16169
G1 X100.789 Y96.829
G0 F3600 X100.719 Y96.194
G1 F1800 X99.279 Y94.753 E38.26333
G1 X99.209 Y94.683
G0 F3600 X99.279 Y94.188
G1 F1800 X100.719 Y95.628 E38.36493
G1 X100.789 Y95.698
G0 F3600 X100.719 Y95.062
G1 F1800 X99.279 Y93.622 E38.46652
G1 X99.209 Y93.552
G0 F3600 X99.279 Y93.056
G1 F1800 X100.719 Y94.497 E38.56816
G1 X100.789 Y94.567
G0 F3600 X100.719 Y93.931
G1 F1800 X99.279 Y92.49 E38.66979
G1 X99.209 Y92.42
G0 F3600 X99.279 Y91.925
G1 F1800 X100.719 Y93.365 E38.77139
G1 X100.789 Y93.435
G0 F3600 X100.719 Y92.799
G1 F1800 X99.279 Y91.359 E38.87299
G1 X99.209 Y91.289
G0 F3600 X99.279 Y90.793
G1 F1800 X100.719 Y92.234 E38.97463
G1 X100.789 Y92.304
G0 F3600 X100.719 Y91.668
G1 F1800 X99.279 Y90.228 E39.07623
G1 X99.209 Y90.158
G0 F3600 X99.279 Y89.662
G1 F1800 X100.719 Y91.102 E39.17783
G1 X100.789 Y91.172
G0 F3600 X100.719 Y90.537
G1 F1800 X99.279 Y89.096 E39.27946
G1 X99.209 Y89.026
G0 F3600 X99.279 Y88.531
G1 F1800 X100.719 Y89.971 E39.38106
G1 X100.789 Y90.041
G0 F3600 X100.719 Y89.405
G1 F1800 X99.279 Y87.965 E39.48266
G1 X99.209 Y87.895
G0 F3600 X99.279 Y87.399
G1 F1800 X100.719 Y88.84 E39.5843
G1 X100.789 Y88.91
G0 F3600 X100.719 Y88.274
G1 F1800 X99.279 Y86.834 E39.6859
G1 X99.209 Y86.764
G0 F3600 X99.279 Y86.268
G1 F1800 X100.719 Y87.708 E39.7875
G1 X100.789 Y87.778
G0 F3600 X100.719 Y87.143
G1 F1800 X99.279 Y85.702 E39.88913
G1 X99.209 Y85.632
G0 F3600 X99.279 Y85.137
G1 F1800 X100.719 Y86.577 E39.99073
G1 X100.789 Y86.647
G0 F3600 X100.719 Y86.011
G1 F1800 X99.279 Y84.571 E40.09233
G1 X99.209 Y84.501
G0 F3600 X99.279 Y84.005
G1 F1800 X100.719 Y85.446 E40.19397
G1 X100.789 Y85.516
G0 F3600 X100.719 Y84.88
G1 F1800 X99.279 Y83.44 E40.29557
G1 X99.209 Y83.37
G0 F3600 X99.279 Y82.874
G1 F1800 X100.719 Y84.314 E40.39717
G1 X100.789 Y84.384
G0 F3600 X100.719 Y83.749
G1 F1800 X99.279 Y82.308 E40.4988
G1 X99.209 Y82.238
G0 F3600 X99.279 Y81.742
G1 F1800 X100.719 Y83.183 E40.60044
G1 X100.789 Y83.253
G0 F3600 X100.719 Y82.617
G1 F1800 X99.279 Y81.177 E40.70204
G1 X99.209 Y81.107
G0 F3600 X99.279 Y80.611
G1 F1800 X100.719 Y82.051 E40.80364
G1 X100.789 Y82.121
G0 F3600 X100.719 Y81.486
G1 F1800 X99.279 Y80.045 E40.90527
G1 X99.209 Y79.975
G0 F3600 X99.279 Y79.48
G1 F1800 X100.719 Y80.92 E41.00687
G1 X100.789 Y80.99
G0 F3600 X100.719 Y80.354
G1 F1800 X99.279 Y78.914 E41.10847
G1 X99.209 Y78.844
G0 F3600 X99.279 Y78.348
G1 F1800 X100.719 Y79.789 E41.21011
G1 X100.789 Y79.859
G0 F3600 X100.719 Y79.223
G1 F1800 X99.279 Y77.783 E41.31171
G1 X99.209 Y77.713
G0 F3600 X99.342 Y77.28
G1 F1800 X100.719 Y78.657 E41.40886
G1 X100.789 Y78.727
G0 F3600 X100.719 Y78.092
G1 F1800 X99.907 Y77.28 E41.46615
G1 X99.837 Y77.21
G0 F3600 X100.473 Y77.28
G1 F1800 X100.719 Y77.526 E41.48351
G0 F3600 X100.5 Y77.526
G1 F1500 E34.98351
G0 F3600 X100.88 Y77.17
G0 X102.165 Y77.17
G0 X103.335 Y77.17
G0 X104.62 Y77.17
G0 X104.67 Y77.17
G0 X104.6 Y77.1
;TYPE:WALL-INNER
G1 F1500 E41.48351
G1 F1800 X106.4 Y77.1 E41.57331
G1 X106.4 Y97.9 E42.61103
G1 X104.6 Y97.9 E42.70083
G1 X104.6 Y77.1 E43.73855
G0 F3600 X104.2 Y76.7
;TYPE:WALL-OUTER
G1 F1800 X106.8 Y76.7 E43.86826
G1 X106.8 Y98.3 E44.94589
G1 X104.2 Y98.3 E45.0756
G1 X104.2 Y76.7 E46.15323
G0 F3600 X104.4 Y76.7
G0 X104.67 Y77.17
G0 X104.998 Y77.28
;TYPE:SKIN
G1 F1800 X106.219 Y78.5 E46.23934
G1 X106.289 Y78.57
G0 F3600 X106.219 Y77.935
G1 F1800 X105.564 Y77.28 E46.28556
G1 X105.494 Y77.21
G0 F3600 X106.13 Y77.28
G1 F1800 X106.219 Y77.369 E46.29184
G0 F3600 X104.779 Y77.626
G1 F1800 X106.219 Y79.066 E46.39344
G1 X106.289 Y79.136
G0 F3600 X106.219 Y79.632
G1 F1800 X104.779 Y78.191 E46.49507
G1 X104.709 Y78.121
G0 F3600 X104.779 Y78.757
G1 F1800 X106.219 Y80.197 E46.59667
G1 X106.289 Y80.267
G0 F3600 X106.219 Y80.763
G1 F1800 X104.779 Y79.323 E46.69827
G1 X104.709 Y79.253
G0 F3600 X104.779 Y79.888
G1 F1800 X106.219 Y81.329 E46.79991
G1 X106.289 Y81.399
G0 F3600 X106.219 Y81.894
G1 F1800 X104.779 Y80.454 E46.90151
G1 X104.709 Y80.384
G0 F3600 X104.779 Y81.02
G1 F1800 X106.219 Y82.46 E47.00311
G1 X106.289 Y82.53
G0 F3600 X106.219 Y83.026
G1 F1800 X104.779 Y81.585 E47.10474
G1 X104.709 Y81.515
G0 F3600 X104.779 Y82.151
G1 F1800 X106.219 Y83.592 E47.20638
G1 X106.289 Y83.662
G0 F3600 X106.219 Y84.157
G1 F1800 X104.779 Y82.717 E47.30798
G1 X104.709 Y82.647
G0 F3600 X104.779 Y83.283
G1 F1800 X106.219 Y84.723 E47.40958
G1 X106.289 Y84.793
G0 F3600 X106.219 Y85.289
G1 F1800 X104.779 Y83.848 E47.51121
G1 X104.709 Y83.778
G0 F3600 X104.779 Y84.414
G1 F1800 X106.219 Y85.854 E47.61281
G1 X106.289 Y85.924
G0 F3600 X106.219 Y86.42
G1 F1800 X104.779 Y84.98 E47.71441
G1 X104.709 Y84.91
G0 F3600 X104.779 Y85.545
G1 F1800 X106.219 Y86.986 E47.81605
G1 X106.289 Y87.056
G0 F3600 X106.219 Y87.551
G1 F1800 X104.779 Y86.111 E47.91765
G1 X104.709 Y86.041
G0 F3600 X104.779 Y86.677
G1 F1800 X106.219 Y88.117 E48.01925
G1 X106.289 Y88.187
G0 F3600 X106.219 Y88.683
G1 F1800 X104.779 Y87.242 E48.12088
G1 X104.709 Y87.172
G0 F3600 X104.779 Y87.808
G1 F1800 X106.219 Y89.248 E48.22248
G1 X106.289 Y89.318
G0 F3600 X106.219 Y89.814
G1 F1800 X104.779 Y88.374 E48.32408
G1 X104.709 Y88.304
G0 F3600 X104.779 Y88.939
G1 F1800 X106.219 Y90.38 E48.42572
G1 X106.289 Y90.45
G0 F3600 X106.219 Y90.945
G1 F1800 X104.779 Y89.505 E48.52732
