;FLAVOR:RepRap
;TIME:6050
;Filament used: 2.99154m
;Layer height: 0.1
;Generated with Cura_SteamEngine 2.5.0
M190 S59
M104 S200
M109 S200
G21 ;metric values
G90 ;absolute positioning
M82 ;set extruder to absolute mode
M107 ;start with the fan off
G28 X0 Y0 ;move X/Y to min endstops
G28 Z0 ;move Z to min endstops
G1 Z15.0 F9000 ;move the platform down 15mm
G92 E0 ;zero the extruded length
G1 F200 E3 ;extrude 3mm of feed stock
G92 E0 ;zero the extruded length again
G1 F9000
;Put printing message on LCD screen
M117 Printing...
;LAYER_COUNT:403
;LAYER:0
M107
G0 F3600 X74.59 Y74.365 Z0.3
;TYPE:SKIRT
G1 F1800 X74.982 Y73.999 E0.02676
G1 X75.424 Y73.696 E0.05349
G1 X75.907 Y73.462 E0.08027
G1 X76.418 Y73.302 E0.10698
G1 X76.948 Y73.219 E0.13375
G1 X77.236 Y73.208 E0.14812
G1 X80.704 Y73.21 E0.32114
G1 X81.239 Y73.25 E0.34791
G1 X81.535 Y73.308 E0.36296
G1 X123.606 Y83.311 E2.5204
G1 X124.117 Y83.473 E2.54715
G1 X124.598 Y83.71 E2.5739
G1 X125.039 Y84.015 E2.60065
G1 X125.429 Y84.383 E2.6274
G1 X125.761 Y84.805 E2.65419
G1 X126.026 Y85.271 E2.68093
G1 X126.219 Y85.771 E2.70767
G1 X126.335 Y86.295 E2.73445
G1 X126.373 Y86.814 E2.76041
G1 X126.367 Y123.208 E4.57611
G1 X126.327 Y123.742 E4.60283
G1 X126.208 Y124.265 E4.62959
G1 X126.013 Y124.765 E4.65637
G1 X125.745 Y125.23 E4.68314
G1 X125.412 Y125.65 E4.70988
G1 X125.019 Y126.015 E4.73664
G1 X124.577 Y126.319 E4.7634
G1 X124.095 Y126.553 E4.79014
G1 X123.583 Y126.713 E4.8169
G1 X123.053 Y126.796 E4.84366
G1 X122.767 Y126.807 E4.85794
G1 X120.298 Y126.807 E4.98112
G1 X120.118 Y126.802 E4.9901
G1 X112.782 Y126.435 E5.35656
G1 X107.303 Y126.516 E5.62993
G1 X103.062 Y126.791 E5.84196
G1 X102.829 Y126.799 E5.85359
G1 X100.351 Y126.799 E5.97722
G1 X99.816 Y126.759 E6.00399
G1 X99.293 Y126.64 E6.03075
G1 X98.711 Y126.404 E6.06208
G1 X75.583 Y114.573 E7.35815
G1 X75.126 Y114.294 E7.38486
G1 X74.714 Y113.95 E7.41164
G1 X74.358 Y113.549 E7.43839
G1 X74.066 Y113.099 E7.46515
G1 X73.844 Y112.611 E7.4919
G1 X73.697 Y112.095 E7.51867
G1 X73.623 Y111.367 E7.55518
G1 X73.634 Y76.807 E9.27938
G1 X73.674 Y76.272 E9.30615
G1 X73.793 Y75.749 E9.33291
G1 X73.989 Y75.25 E9.35965
G1 X74.256 Y74.785 E9.3864
G1 X74.59 Y74.365 E9.41318
G0 F3600 X74.984 Y74.532
G1 F1800 X75.371 Y74.206 E9.43842
G1 X75.804 Y73.945 E9.46364
G1 X76.272 Y73.756 E9.48882
G1 X76.765 Y73.643 E9.51406
G1 X77.236 Y73.608 E9.53762
G1 X80.704 Y73.61 E9.71064
G1 X81.442 Y73.697 E9.74771
G1 X123.513 Y83.7 E11.90516
G1 X123.994 Y83.855 E11.93037
G1 X124.445 Y84.084 E11.95561
G1 X124.854 Y84.382 E11.98085
G1 X125.211 Y84.74 E12.00608
G1 X125.507 Y85.15 E12.0313
G1 X125.735 Y85.601 E12.05652
G1 X125.889 Y86.083 E12.08176
G1 X125.973 Y86.814 E12.11847
G1 X125.967 Y123.208 E13.93418
G1 X125.927 Y123.712 E13.9594
G1 X125.808 Y124.203 E13.9846
G1 X125.613 Y124.669 E14.00981
G1 X125.347 Y125.099 E14.03503
G1 X125.017 Y125.482 E14.06025
G1 X124.631 Y125.808 E14.08546
G1 X124.198 Y126.069 E14.11069
G1 X123.729 Y126.259 E14.13593
G1 X123.236 Y126.372 E14.16116
G1 X122.767 Y126.407 E14.18463
G1 X120.298 Y126.407 E14.30781
G1 X120.138 Y126.403 E14.31579
G1 X112.781 Y126.034 E14.6833
G1 X107.29 Y126.116 E14.95727
G1 X103.036 Y126.392 E15.16995
G1 X102.829 Y126.399 E15.18029
G1 X100.351 Y126.399 E15.30391
G1 X99.847 Y126.359 E15.32914
G1 X99.356 Y126.24 E15.35434
G1 X98.894 Y126.048 E15.3793
G1 X75.766 Y114.217 E16.67537
G1 X75.335 Y113.952 E16.70061
G1 X74.952 Y113.622 E16.72583
G1 X74.625 Y113.236 E16.75107
G1 X74.363 Y112.804 E16.77628
G1 X74.173 Y112.336 E16.80148
G1 X74.058 Y111.843 E16.82674
G1 X74.023 Y111.367 E16.85055
G1 X74.034 Y76.807 E18.57475
G1 X74.074 Y76.303 E18.59998
G1 X74.193 Y75.812 E18.62518
G1 X74.388 Y75.345 E18.65043
G1 X74.654 Y74.915 E18.67566
G1 X74.984 Y74.532 E18.70088
G1 F1500 E12.20088
G0 F3600 X77.839 Y76.133
G0 X77.839 Y77.412
G0 X78.025 Y77.498
G0 X78.025 Y77.398
;TYPE:WALL-INNER
G1 F1500 E18.70088
G1 F1800 X80.661 Y77.4 E18.83239
G1 X122.189 Y87.28 E20.96206
G1 X122.176 Y122.417 E22.71505
G1 X122.176 Y122.617 E22.72503
G1 X121.976 Y122.617 E22.73149
G1 X120.894 Y122.616 E22.78547
G1 X120.898 Y113.104 E23.26003
G1 X102.43 Y113.096 E24.1814
G1 X102.23 Y113.096 E24.19138
G1 X102.23 Y113.296 E24.19784
G1 X102.226 Y122.609 E24.66246
G1 X100.49 Y122.609 E24.74907
G1 X77.813 Y111.007 E26.01991
G1 X77.825 Y77.598 E27.68669
G1 X77.825 Y77.398 E27.69667
G1 X78.025 Y77.398 E27.70313
G0 F3600 X78.025 Y77.498
G0 X88.052 Y90.311
G0 X88.122 Y90.381
G1 F1800 X88.122 Y90.581 E27.7131
G1 X88.125 Y108.472 E28.60569
G1 X120.9 Y108.481 E30.24084
G1 X120.906 Y90.582 E31.13383
G1 X120.906 Y90.382 E31.1438
G1 X120.706 Y90.382 E31.15027
G1 X88.322 Y90.381 E32.76591
G1 X88.122 Y90.381 E32.77237
G0 F3600 X88.522 Y90.781
;TYPE:WALL-OUTER
G1 F1800 X88.522 Y90.981 E32.78235
G1 X88.525 Y108.072 E33.63502
G1 X120.5 Y108.081 E35.23026
G1 X120.506 Y90.982 E36.08333
G1 X120.506 Y90.782 E36.09331
G1 X120.306 Y90.782 E36.09977
G1 X88.722 Y90.781 E37.6755
G1 X88.522 Y90.781 E37.68197
G0 F3600 X88.522 Y90.981
G0 X88.022 Y90.981
G0 X80.65 Y77.499
G0 X80.708 Y77
G1 F1800 X122.589 Y86.964 E39.82974
G1 X122.576 Y122.817 E41.61845
G1 X122.576 Y123.017 E41.62843
G1 X122.376 Y123.017 E41.63489
G1 X120.494 Y123.016 E41.72878
G1 X120.498 Y113.504 E42.20334
G1 X102.83 Y113.496 E43.0848
G1 X102.63 Y113.496 E43.09478
G1 X102.63 Y113.696 E43.10124
G1 X102.626 Y123.009 E43.56586
G1 X100.394 Y123.009 E43.67722
G1 X77.413 Y111.251 E44.9651
G1 X77.425 Y77.198 E46.66401
G1 X77.425 Y76.998 E46.67399
G1 X77.625 Y76.998 E46.68045
G1 X80.708 Y77 E46.83426
G0 F3600 X80.902 Y77.046
G0 X81.079 Y77.685
;TYPE:SKIN
G1 F1800 X93.594 Y90.2 E47.71726
G1 X93.664 Y90.27
G0 F3600 X93.029 Y90.2
G1 F1800 X80.408 Y77.58 E48.60771
G1 X80.338 Y77.51
G0 F3600 X79.842 Y77.58
G1 F1800 X92.463 Y90.2 E49.49815
G1 X92.533 Y90.27
G0 F3600 X91.897 Y90.2
G1 F1800 X79.276 Y77.579 E50.38863
G1 X79.206 Y77.509
G0 F3600 X78.71 Y77.578
G1 F1800 X91.332 Y90.2 E51.27918
G1 X91.402 Y90.27
G0 F3600 X90.766 Y90.2
G1 F1800 X78.144 Y77.578 E52.16973
G1 X78.074 Y77.508
G0 F3600 X78.003 Y78.003
G1 F1800 X90.2 Y90.2 E53.0303
G1 X90.27 Y90.27
G0 F3600 X89.634 Y90.2
G1 F1800 X78.003 Y78.568 E53.85096
G1 X77.933 Y78.498
G0 F3600 X78.003 Y79.134
G1 F1800 X89.069 Y90.2 E54.63173
G1 X89.139 Y90.27
G0 F3600 X88.503 Y90.2
G1 F1800 X78.003 Y79.7 E55.37256
G1 X77.933 Y79.63
G0 F3600 X78.002 Y80.265
G1 F1800 X87.942 Y90.205 E56.07388
G1 X88.012 Y90.275
G0 F3600 X87.942 Y90.771
G1 F1800 X78.002 Y80.83 E56.77523
G1 X77.932 Y80.76
G0 F3600 X78.002 Y81.396
G1 F1800 X87.942 Y91.336 E57.47656
G1 X88.012 Y91.406
G0 F3600 X87.942 Y91.902
G1 F1800 X78.002 Y81.962 E58.17788
G1 X77.932 Y81.892
G0 F3600 X78.001 Y82.527
G1 F1800 X87.942 Y92.468 E58.87927
G1 X88.012 Y92.538
G0 F3600 X87.942 Y93.034
G1 F1800 X78.001 Y83.092 E59.58069
G1 X77.931 Y83.022
G0 F3600 X78.001 Y83.658
G1 F1800 X87.942 Y93.599 E60.28209
G1 X88.012 Y93.669
G0 F3600 X87.942 Y94.165
G1 F1800 X78.001 Y84.224 E60.98348
G1 X77.931 Y84.154
G0 F3600 X78 Y84.789
G1 F1800 X87.942 Y94.731 E61.68494
G1 X88.012 Y94.801
G0 F3600 X87.943 Y95.297
G1 F1800 X78 Y85.354 E62.38647
G1 X77.93 Y85.284
G0 F3600 X78 Y85.92
G1 F1800 X87.943 Y95.863 E63.088
G1 X88.013 Y95.933
G0 F3600 X87.943 Y96.428
G1 F1800 X78 Y86.485 E63.78954
G1 X77.93 Y86.415
G0 F3600 X78 Y87.051
G1 F1800 X87.943 Y96.994 E64.49107
G1 X88.013 Y97.064
G0 F3600 X87.943 Y97.56
G1 F1800 X78 Y87.616 E65.19264
G1 X77.93 Y87.546
G0 F3600 X78 Y88.182
G1 F1800 X87.943 Y98.125 E65.89417
G1 X88.013 Y98.195
G0 F3600 X87.943 Y98.691
G1 F1800 X77.999 Y88.747 E66.59577
G1 X77.929 Y88.677
G0 F3600 X77.999 Y89.313
G1 F1800 X87.943 Y99.257 E67.29737
G1 X88.013 Y99.327
G0 F3600 X87.944 Y99.823
G1 F1800 X77.999 Y89.878 E67.99905
G1 X77.929 Y89.808
G0 F3600 X77.999 Y90.444
G1 F1800 X87.944 Y100.389 E68.70072
G1 X88.014 Y100.459
G0 F3600 X87.944 Y100.955
G1 F1800 X77.998 Y91.009 E69.40246
G1 X77.928 Y90.939
G0 F3600 X77.998 Y91.575
G1 F1800 X87.944 Y101.52 E70.10417
G1 X88.014 Y101.59
G0 F3600 X87.944 Y102.086
G1 F1800 X77.998 Y92.14 E70.80592
G1 X77.928 Y92.07
G0 F3600 X77.998 Y92.706
G1 F1800 X87.944 Y102.652 E71.50766
G1 X88.014 Y102.722
G0 F3600 X87.944 Y103.217
G1 F1800 X77.998 Y93.271 E72.20941
G1 X77.928 Y93.201
G0 F3600 X77.998 Y93.837
G1 F1800 X87.944 Y103.783 E72.91115
G1 X88.014 Y103.853
G0 F3600 X87.944 Y104.349
G1 F1800 X77.998 Y94.402 E73.61293
G1 X77.928 Y94.332
G0 F3600 X77.998 Y94.968
G1 F1800 X87.944 Y104.915 E74.31471
G1 X88.014 Y104.985
G0 F3600 X87.944 Y105.481
G1 F1800 X77.997 Y95.533 E75.01656
G1 X77.927 Y95.463
G0 F3600 X77.997 Y96.099
G1 F1800 X87.944 Y106.046 E75.71837
G1 X88.014 Y106.116
G0 F3600 X87.944 Y106.612
G1 F1800 X77.997 Y96.665 E76.42019
G1 X77.927 Y96.595
G0 F3600 X77.997 Y97.23
G1 F1800 X87.944 Y107.178 E77.12204
G1 X88.014 Y107.248
G0 F3600 X87.944 Y107.743
G1 F1800 X77.996 Y97.795 E77.82392
G1 X77.926 Y97.725
G0 F3600 X77.996 Y98.361
G1 F1800 X87.944 Y108.309 E78.52581
G1 X88.014 Y108.379
G0 F3600 X88.287 Y108.652
G1 F1800 X102.046 Y122.411 E79.49658
G1 X102.116 Y122.481
G0 F3600 X101.497 Y122.427
G1 F1800 X77.996 Y98.927 E81.15467
G1 X77.926 Y98.857
G0 F3600 X77.996 Y99.492
G1 F1800 X100.931 Y122.427 E82.77285
G1 X101.001 Y122.497
G0 F3600 X100.19 Y122.252
G1 F1800 X77.995 Y100.057 E84.33883
G1 X77.925 Y99.987
G0 F3600 X77.995 Y100.623
G1 F1800 X99.032 Y121.659 E85.82307
G1 X99.102 Y121.729
G0 F3600 X97.874 Y121.067
G1 F1800 X77.995 Y101.189 E87.22561
G1 X77.925 Y101.119
G0 F3600 X77.995 Y101.754
G1 F1800 X96.715 Y120.474 E88.5464
G1 X96.785 Y120.544
G0 F3600 X95.557 Y119.882
G1 F1800 X77.995 Y102.319 E89.78553
G1 X77.925 Y102.249
G0 F3600 X77.995 Y102.885
G1 F1800 X94.399 Y119.289 E90.94292
G1 X94.469 Y119.359
G0 F3600 X93.241 Y118.697
G1 F1800 X77.995 Y103.451 E92.01861
G1 X77.925 Y103.381
G0 F3600 X77.995 Y104.016
G1 F1800 X92.082 Y118.104 E93.01256
G1 X92.152 Y118.174
G0 F3600 X90.924 Y117.511
G1 F1800 X77.994 Y104.581 E93.92484
G1 X77.924 Y104.511
G0 F3600 X77.994 Y105.147
G1 F1800 X89.766 Y116.919 E94.75542
G1 X89.836 Y116.989
G0 F3600 X88.608 Y116.326
G1 F1800 X77.994 Y105.713 E95.50426
G1 X77.924 Y105.643
G0 F3600 X77.994 Y106.278
G1 F1800 X87.45 Y115.734 E96.17143
G1 X87.52 Y115.804
G0 F3600 X86.291 Y115.141
G1 F1800 X77.993 Y106.843 E96.7569
G1 X77.923 Y106.773
G0 F3600 X77.993 Y107.409
G1 F1800 X85.133 Y114.549 E97.26066
G1 X85.203 Y114.619
G0 F3600 X83.975 Y113.956
G1 F1800 X77.993 Y107.975 E97.68269
G1 X77.923 Y107.905
G0 F3600 X77.993 Y108.54
G1 F1800 X82.817 Y113.364 E98.02305
G1 X82.887 Y113.434
G0 F3600 X81.658 Y112.771
G1 F1800 X77.993 Y109.105 E98.28167
G1 X77.923 Y109.035
G0 F3600 X77.993 Y109.671
G1 F1800 X80.5 Y112.178 E98.45855
G1 X80.57 Y112.248
G0 F3600 X79.342 Y111.586
G1 F1800 X77.993 Y110.237 E98.55373
G1 X77.923 Y110.167
G0 F3600 X77.993 Y110.802
G1 F1800 X78.184 Y110.993 E98.56721
G0 F3600 X88.853 Y108.652
G1 F1800 X102.046 Y121.845 E99.49805
G1 X102.116 Y121.915
G0 F3600 X102.046 Y121.28
G1 F1800 X89.419 Y108.652 E100.38899
G1 X89.349 Y108.582
G0 F3600 X89.984 Y108.652
G1 F1800 X102.046 Y120.714 E101.24002
G1 X102.116 Y120.784
G0 F3600 X102.047 Y120.149
G1 F1800 X90.551 Y108.653 E102.05113
G1 X90.481 Y108.583
G0 F3600 X91.117 Y108.653
G1 F1800 X102.047 Y119.583 E102.8223
G1 X102.117 Y119.653
G0 F3600 X102.047 Y119.018
G1 F1800 X91.682 Y108.653 E103.55361
G1 X91.612 Y108.583
G0 F3600 X92.248 Y108.653
G1 F1800 X102.048 Y118.453 E104.24505
G1 X102.118 Y118.523
G0 F3600 X102.048 Y117.887
G1 F1800 X92.814 Y108.653 E104.89656
G1 X92.744 Y108.583
G0 F3600 X93.38 Y108.654
G1 F1800 X102.048 Y117.321 E105.5081
G1 X102.118 Y117.391
G0 F3600 X102.048 Y116.756
G1 F1800 X93.946 Y108.654 E106.07974
G1 X93.876 Y108.584
G0 F3600 X94.511 Y108.654
G1 F1800 X102.048 Y116.191 E106.61151
G1 X102.118 Y116.261
G0 F3600 X102.048 Y115.625
G1 F1800 X95.077 Y108.654 E107.10335
G1 X95.007 Y108.584
G0 F3600 X95.643 Y108.654
G1 F1800 X102.048 Y115.059 E107.55526
G1 X102.118 Y115.129
G0 F3600 X102.049 Y114.494
G1 F1800 X96.209 Y108.654 E107.96731
G1 X96.139 Y108.584
G0 F3600 X96.775 Y108.654
G1 F1800 X102.049 Y113.929 E108.33945
G1 X102.119 Y113.999
G0 F3600 X102.049 Y113.363
G1 F1800 X97.341 Y108.654 E108.67166
G1 X97.271 Y108.584
G0 F3600 X97.906 Y108.654
G1 F1800 X102.167 Y112.915 E108.9723
G1 X102.237 Y112.985
G0 F3600 X102.732 Y112.915
G1 F1800 X98.473 Y108.655 E109.27283
G1 X98.403 Y108.585
G0 F3600 X99.038 Y108.655
G1 F1800 X103.298 Y112.915 E109.57339
G1 X103.368 Y112.985
G0 F3600 X103.864 Y112.915
G1 F1800 X99.604 Y108.655 E109.87396
G1 X99.534 Y108.585
G0 F3600 X100.17 Y108.655
G1 F1800 X104.43 Y112.915 E110.17453
G1 X104.5 Y112.985
G0 F3600 X104.996 Y112.916
G1 F1800 X100.736 Y108.656 E110.47509
G1 X100.666 Y108.586
G0 F3600 X101.302 Y108.656
G1 F1800 X105.562 Y112.916 E110.77566
G1 X105.632 Y112.986
G0 F3600 X106.128 Y112.916
G1 F1800 X101.867 Y108.656 E111.07626
G1 X101.797 Y108.586
G0 F3600 X102.433 Y108.656
G1 F1800 X106.694 Y112.917 E111.3769
G1 X106.764 Y112.987
G0 F3600 X107.26 Y112.917
G1 F1800 X102.999 Y108.656 E111.67753
G1 X102.929 Y108.586
G0 F3600 X103.565 Y108.656
G1 F1800 X107.826 Y112.917 E111.97817
G1 X107.896 Y112.987
G0 F3600 X108.392 Y112.917
G1 F1800 X104.131 Y108.656 E112.27881
G1 X104.061 Y108.586
G0 F3600 X104.697 Y108.656
G1 F1800 X108.958 Y112.917 E112.57944
G1 X109.028 Y112.987
G0 F3600 X109.524 Y112.918
G1 F1800 X105.262 Y108.656 E112.88015
G1 X105.192 Y108.586
G0 F3600 X105.829 Y108.657
G1 F1800 X110.09 Y112.918 E113.18079
G1 X110.16 Y112.988
G0 F3600 X110.655 Y112.918
G1 F1800 X106.394 Y108.657 E113.48142
G1 X106.324 Y108.587
G0 F3600 X106.96 Y108.657
G1 F1800 X111.222 Y112.919 E113.78213
G1 X111.292 Y112.989
G0 F3600 X111.787 Y112.919
G1 F1800 X107.526 Y108.657 E114.0828
G1 X107.456 Y108.587
G0 F3600 X108.091 Y108.657
G1 F1800 X112.354 Y112.92 E114.38358
G1 X112.424 Y112.99
G0 F3600 X112.92 Y112.92
G1 F1800 X108.658 Y108.658 E114.68429
G1 X108.588 Y108.588
G0 F3600 X109.223 Y108.658
G1 F1800 X113.485 Y112.92 E114.98499
G1 X113.555 Y112.99
G0 F3600 X114.052 Y112.92
G1 F1800 X109.789 Y108.658 E115.28574
G1 X109.719 Y108.588
G0 F3600 X110.355 Y108.658
G1 F1800 X114.617 Y112.92 E115.58644
G1 X114.687 Y112.99
G0 F3600 X115.183 Y112.92
G1 F1800 X110.921 Y108.658 E115.88715
G1 X110.851 Y108.588
G0 F3600 X111.487 Y108.658
G1 F1800 X115.749 Y112.921 E116.18789
G1 X115.819 Y112.991
G0 F3600 X116.315 Y112.921
G1 F1800 X112.053 Y108.658 E116.48863
G1 X111.983 Y108.588
G0 F3600 X112.618 Y108.658
G1 F1800 X116.881 Y112.922 E116.78945
G1 X116.951 Y112.992
G0 F3600 X117.447 Y112.922
G1 F1800 X113.184 Y108.658 E117.09026
G1 X113.114 Y108.588
G0 F3600 X113.75 Y108.659
G1 F1800 X118.013 Y112.922 E117.39104
G1 X118.083 Y112.992
G0 F3600 X118.579 Y112.922
G1 F1800 X114.316 Y108.659 E117.69182
G1 X114.246 Y108.589
G0 F3600 X114.882 Y108.659
G1 F1800 X119.145 Y112.922 E117.99259
G1 X119.215 Y112.992
G0 F3600 X119.711 Y112.923
G1 F1800 X115.447 Y108.659 E118.29344
G1 X115.377 Y108.589
G0 F3600 X116.014 Y108.66
G1 F1800 X120.277 Y112.923 E118.59422
G1 X120.347 Y112.993
G0 F3600 X120.843 Y112.923
G1 F1800 X116.579 Y108.66 E118.89503
G1 X116.509 Y108.59
G0 F3600 X117.145 Y108.66
G1 F1800 X121.999 Y113.514 E119.23751
G1 X122.069 Y113.584
G0 F3600 X121.999 Y112.948
G1 F1800 X117.711 Y108.66 E119.54005
G1 X117.641 Y108.59
G0 F3600 X118.277 Y108.66
G1 F1800 X121.999 Y112.383 E119.80269
G1 X122.069 Y112.453
G0 F3600 X122 Y111.818
G1 F1800 X118.843 Y108.661 E120.02544
G1 X118.773 Y108.591
G0 F3600 X119.409 Y108.661
G1 F1800 X122 Y111.252 E120.20824
G1 X122.07 Y111.322
G0 F3600 X122 Y110.686
G1 F1800 X119.974 Y108.661 E120.35115
G1 X119.904 Y108.591
G0 F3600 X120.54 Y108.661
G1 F1800 X122 Y110.121 E120.45417
G1 X122.07 Y110.191
G0 F3600 X122.001 Y109.556
G1 F1800 X121.079 Y108.634 E120.51922
G1 X121.009 Y108.564
G0 F3600 X121.079 Y108.068
G1 F1800 X122.001 Y108.99 E120.58427
G1 X122.071 Y109.06
G0 F3600 X122.001 Y108.424
G1 F1800 X121.079 Y107.502 E120.64932
G1 X121.009 Y107.432
G0 F3600 X121.079 Y106.937
G1 F1800 X122.002 Y107.859 E120.71441
G1 X122.072 Y107.929
G0 F3600 X122.002 Y107.294
G1 F1800 X121.08 Y106.372 E120.77946
G1 X121.01 Y106.302
