;FLAVOR:RepRap
;TIME:11023
;Filament used: 5.52854m
;Layer height: 0.1
;Generated with Cura_SteamEngine 2.5.0
M190 S59
M104 S200
M109 S200
G21 ;metric values
G90 ;absolute positioning
M82 ;set extruder to absolute mode
M107 ;start with the fan off
G28 X0 Y0 ;move X/Y to min endstops
G28 Z0 ;move Z to min endstops
G1 Z15.0 F9000 ;move the platform down 15mm
G92 E0 ;zero the extruded length
G1 F200 E3 ;extrude 3mm of feed stock
G92 E0 ;zero the extruded length again
G1 F9000
;Put printing message on LCD screen
M117 Printing...
;LAYER_COUNT:131
;LAYER:0
M107
G0 F3600 X15.85 Y13.949 Z0.3
;TYPE:SKIRT
G1 F1800 X20.744 Y8.531 E0.36425
G1 X20.868 Y8.401 E0.37322
G1 X22.469 Y6.817 E0.48558
G1 X22.856 Y6.491 E0.51082
G1 X23.289 Y6.23 E0.53605
G1 X23.757 Y6.04 E0.56124
G1 X24.25 Y5.927 E0.58648
G1 X24.754 Y5.892 E0.61168
G1 X25.258 Y5.938 E0.63693
G1 X25.748 Y6.062 E0.66215
G1 X26.212 Y6.261 E0.68734
G1 X26.64 Y6.532 E0.71261
G1 X26.983 Y6.829 E0.73525
G1 X185.854 Y165.701 E11.94449
G1 X186.182 Y166.086 E11.96972
G1 X186.445 Y166.517 E11.99491
G1 X186.694 Y167.184 E12.03043
G1 X187.978 Y172.292 E12.2932
G1 X188.063 Y172.79 E12.3184
G1 X188.067 Y173.296 E12.34365
G1 X187.992 Y173.796 E12.36887
G1 X187.839 Y174.278 E12.3941
G1 X187.612 Y174.73 E12.41934
G1 X187.317 Y175.14 E12.44454
G1 X187.133 Y175.339 E12.45806
G1 X185.651 Y176.815 E12.56241
G1 X185.565 Y176.898 E12.56837
G1 X181.994 Y180.198 E12.81096
G1 X178.152 Y184.158 E13.08622
G1 X175.401 Y187.087 E13.2867
G1 X175.026 Y187.427 E13.31195
G1 X174.603 Y187.704 E13.33718
G1 X174.142 Y187.91 E13.36237
G1 X173.654 Y188.042 E13.38759
G1 X173.151 Y188.095 E13.41282
G1 X172.646 Y188.068 E13.43806
G1 X172.287 Y187.999 E13.45629
G1 X167.235 Y186.728 E13.71619
G1 X166.756 Y186.567 E13.7414
G1 X166.309 Y186.331 E13.76662
G1 X165.754 Y185.888 E13.80205
G1 X6.804 Y26.991 E25.01496
G1 X6.475 Y26.607 E25.04019
G1 X6.212 Y26.175 E25.06542
G1 X6.02 Y25.708 E25.09061
G1 X5.903 Y25.216 E25.11584
G1 X5.866 Y24.711 E25.14111
G1 X5.909 Y24.208 E25.16629
G1 X6.03 Y23.717 E25.19152
G1 X6.227 Y23.251 E25.21676
G1 X6.495 Y22.823 E25.24196
G1 X6.803 Y22.465 E25.26552
G1 X8.397 Y20.871 E25.37798
G1 X8.548 Y20.73 E25.38829
G1 X11.928 Y17.759 E25.6128
G1 X15.85 Y13.949 E25.8856
G1 F1500 E19.3856
G0 F3600 X23.071 Y11.581
G0 X23.974 Y10.676
G0 X24.054 Y10.676
G0 X23.954 Y10.676
;TYPE:WALL-INNER
G1 F1500 E25.8856
G1 F1800 X24.571 Y10.059 E25.92913
G1 X24.712 Y9.918 E25.93908
G1 X24.853 Y10.059 E25.9455
G1 X182.752 Y167.959 E37.08617
G1 X180.996 Y169.715 E37.21006
G1 X180.855 Y169.856 E37.22001
G1 X180.996 Y169.997 E37.22643
G1 X184.064 Y173.063 E37.44283
G1 X183.783 Y173.346 E37.46272
G1 X183.642 Y173.487 E37.47267
G1 X183.501 Y173.346 E37.4791
G1 X180.433 Y170.278 E37.69556
G1 X170.261 Y180.45 E38.41325
G1 X173.469 Y183.658 E38.63959
G1 X173.189 Y183.94 E38.65942
G1 X173.048 Y184.081 E38.66937
G1 X172.907 Y183.94 E38.67579
G1 X169.84 Y180.872 E38.89222
G1 X167.942 Y182.769 E39.0261
G1 X9.901 Y24.728 E50.17674
G1 X10.518 Y24.111 E50.22028
G1 X10.659 Y23.97 E50.23022
G1 X10.8 Y24.111 E50.23665
G1 X17.274 Y30.587 E50.69349
G1 X30.57 Y17.291 E51.6316
G1 X23.954 Y10.676 E52.09836
G0 F3600 X24.054 Y10.676
G0 X33.814 Y20.534
G0 X33.814 Y20.634
G1 F1800 X20.755 Y33.687 E53.01953
G1 X20.614 Y33.828 E53.02948
G1 X20.755 Y33.969 E53.0359
G1 X35.75 Y48.964 E54.09388
G1 X48.947 Y35.767 E55.025
G1 X33.814 Y20.634 E56.09271
G0 F3600 X33.814 Y20.534
G0 X52.341 Y39.061
G0 X52.341 Y39.161
G1 F1800 X39.144 Y52.358 E57.02383
G1 X54.28 Y67.494 E58.09176
G1 X67.477 Y54.297 E59.02288
G1 X52.341 Y39.161 E60.09081
G0 F3600 X52.341 Y39.061
G0 X70.872 Y57.591
G0 X70.872 Y57.691
G1 F1800 X57.815 Y70.747 E61.01201
G1 X57.674 Y70.888 E61.02196
G1 X57.815 Y71.029 E61.02839
G1 X72.81 Y86.024 E62.08636
G1 X86.007 Y72.827 E63.01748
G1 X70.872 Y57.691 E64.08537
G0 F3600 X70.872 Y57.591
G0 X89.401 Y76.121
G0 X89.401 Y76.221
G1 F1800 X76.345 Y89.276 E65.00651
G1 X76.204 Y89.417 E65.01646
G1 X76.345 Y89.558 E65.02288
G1 X91.34 Y104.553 E66.08086
G1 X104.536 Y91.357 E67.01191
G1 X89.401 Y76.221 E68.0798
G0 F3600 X89.401 Y76.121
G0 X107.93 Y94.651
G0 X107.93 Y94.751
G1 F1800 X94.734 Y107.947 E69.01085
G1 X109.701 Y122.914 E70.06685
G1 X122.758 Y109.859 E70.98802
G1 X122.899 Y109.718 E70.99797
G1 X122.758 Y109.577 E71.0044
G1 X107.93 Y94.751 E72.05052
G0 F3600 X107.93 Y94.651
G0 X126.46 Y113.18
G0 X126.46 Y113.28
G1 F1800 X113.404 Y126.335 E72.97166
G1 X113.263 Y126.476 E72.98161
G1 X113.404 Y126.617 E72.98803
G1 X128.258 Y141.472 E74.03609
G1 X128.399 Y141.613 E74.04604
G1 X128.54 Y141.472 E74.05247
G1 X141.596 Y128.416 E74.97364
G1 X126.46 Y113.28 E76.04157
G0 F3600 X126.46 Y113.18
G0 X144.99 Y131.709
G0 X144.99 Y131.809
G1 F1800 X144.849 Y131.95 E76.05151
G1 X131.793 Y145.006 E76.97268
G1 X146.788 Y160.002 E78.0307
G1 X146.929 Y160.143 E78.04065
G1 X147.07 Y160.002 E78.04707
G1 X160.126 Y146.946 E78.96824
G1 X145.131 Y131.95 E80.02626
G1 X144.99 Y131.809 E80.03268
G0 F3600 X144.99 Y131.709
G0 X163.52 Y150.239
G0 X163.52 Y150.339
G1 F1800 X163.379 Y150.48 E80.04263
G1 X150.323 Y163.536 E80.9638
G1 X165.318 Y178.532 E82.02181
G1 X165.459 Y178.673 E82.03176
G1 X165.6 Y178.532 E82.03818
G1 X178.656 Y165.476 E82.95936
G1 X163.661 Y150.48 E84.01737
G1 X163.52 Y150.339 E84.02379
G0 F3600 X163.52 Y150.905
;TYPE:WALL-OUTER
G1 F1800 X163.379 Y151.046 E84.03374
G1 X150.889 Y163.536 E84.91498
G1 X165.318 Y177.966 E85.93306
G1 X165.459 Y178.107 E85.94301
G1 X165.6 Y177.966 E85.94943
G1 X178.09 Y165.476 E86.83067
G1 X163.661 Y151.046 E87.84875
G1 X163.52 Y150.905 E87.85517
G0 F3600 X163.379 Y151.046
G0 X163.027 Y150.692
G0 X159.913 Y147.299
G0 X159.56 Y146.946
G1 F1800 X145.131 Y132.516 E88.87325
G1 X144.99 Y132.375 E88.8832
G1 X144.849 Y132.516 E88.88962
G1 X132.359 Y145.006 E89.77086
G1 X146.788 Y159.436 E90.78894
G1 X146.929 Y159.577 E90.79889
G1 X147.07 Y159.436 E90.80531
G1 X159.56 Y146.946 E91.68655
G0 F3600 X159.419 Y146.805
G0 X159.773 Y146.453
G0 X144.99 Y131.769
G0 X141.383 Y128.769
G0 X141.03 Y128.416
G1 F1800 X126.46 Y113.846 E92.71454
G1 X113.97 Y126.335 E93.59574
G1 X113.829 Y126.476 E93.60569
G1 X113.97 Y126.617 E93.61211
G1 X128.258 Y140.906 E94.62024
G1 X128.399 Y141.047 E94.63019
G1 X128.54 Y140.906 E94.63662
G1 X141.03 Y128.416 E95.51785
G0 F3600 X140.889 Y128.275
G0 X141.243 Y127.923
G0 X126.46 Y113.24
G0 X122.686 Y110.071
G0 X122.333 Y109.718
G1 F1800 X122.192 Y109.577 E95.5278
G1 X107.93 Y95.317 E96.53399
G1 X95.3 Y107.947 E97.42511
G1 X109.701 Y122.348 E98.44117
G1 X122.192 Y109.859 E99.32241
G1 X122.333 Y109.718 E99.32884
G0 F3600 X122.192 Y109.577
G0 X122.546 Y109.225
G0 X107.93 Y94.711
G0 X104.323 Y91.71
G0 X103.97 Y91.357
G1 F1800 X89.401 Y76.787 E100.35679
G1 X76.911 Y89.276 E101.23799
G1 X76.77 Y89.417 E101.24794
G1 X76.911 Y89.558 E101.25437
G1 X91.34 Y103.987 E102.27241
G1 X103.97 Y91.357 E103.16352
G0 F3600 X103.829 Y91.216
G0 X104.183 Y90.864
G0 X89.401 Y76.181
G0 X85.794 Y73.18
G0 X85.441 Y72.827
G1 F1800 X70.872 Y58.257 E104.19148
G1 X58.381 Y70.747 E105.07275
G1 X58.24 Y70.888 E105.0827
G1 X58.381 Y71.029 E105.08913
G1 X72.81 Y85.458 E106.10717
G1 X85.441 Y72.827 E106.99836
G0 F3600 X85.3 Y72.686
G0 X85.654 Y72.334
G0 X70.872 Y57.651
G0 X67.264 Y54.65
G0 X66.911 Y54.297
G1 F1800 X52.341 Y39.727 E108.02635
G1 X39.71 Y52.358 E108.91753
G1 X54.28 Y66.928 E109.94553
G1 X66.911 Y54.297 E110.83671
G0 F3600 X66.77 Y54.156
G0 X67.124 Y53.804
G0 X52.341 Y39.121
G0 X48.734 Y36.12
G0 X48.381 Y35.767
G1 F1800 X33.814 Y21.2 E111.86449
G1 X21.321 Y33.687 E112.74573
G1 X21.18 Y33.828 E112.75568
G1 X21.321 Y33.969 E112.7621
G1 X35.75 Y48.398 E113.78014
G1 X48.381 Y35.767 E114.67133
G0 F3600 X48.24 Y35.626
G0 X48.594 Y35.274
G0 X33.814 Y20.594
G0 X30.357 Y17.644
G0 X30.004 Y17.291
G1 F1800 X23.388 Y10.676 E115.13809
G1 X24.571 Y9.493 E115.22156
G1 X24.712 Y9.352 E115.2315
G1 X24.853 Y9.493 E115.23793
G1 X183.318 Y167.959 E126.41852
G1 X181.562 Y169.715 E126.54242
G1 X181.421 Y169.856 E126.55237
G1 X181.562 Y169.997 E126.55879
G1 X184.392 Y172.825 E126.75839
G1 X184.623 Y173.07 E126.77519
G1 X183.674 Y174.021 E126.84222
G1 X183.654 Y174.041 E126.84363
G1 X183.401 Y173.812 E126.86066
G1 X183.381 Y173.792 E126.86207
G1 X180.433 Y170.844 E127.07007
G1 X170.827 Y180.45 E127.74782
G1 X173.795 Y183.418 E127.95723
G1 X174.024 Y183.669 E127.97418
G1 X173.076 Y184.619 E128.04114
G1 X173.055 Y184.64 E128.04262
G1 X172.809 Y184.408 E128.05949
G1 X172.788 Y184.387 E128.06097
G1 X169.84 Y181.438 E128.269
G1 X167.942 Y183.335 E128.40288
G1 X9.335 Y24.728 E139.59346
G1 X10.518 Y23.545 E139.67693
G1 X10.659 Y23.404 E139.68688
G1 X10.8 Y23.545 E139.6933
G1 X17.274 Y30.021 E140.15015
G1 X30.004 Y17.291 E141.04832
G0 F3600 X29.863 Y17.15
G0 X30.217 Y16.798
G0 X30.61 Y17.291
G0 X30.28 Y17.835
;TYPE:SKIN
G1 F1800 X33.318 Y20.873 E141.26267
G1 X33.388 Y20.943
G0 F3600 X33.035 Y21.155
G1 F1800 X29.997 Y18.118 E141.47698
G1 X29.927 Y18.048
G0 F3600 X29.714 Y18.401
G1 F1800 X32.752 Y21.438 E141.69129
G1 X32.822 Y21.508
G0 F3600 X32.469 Y21.721
G1 F1800 X29.431 Y18.683 E141.90564
G1 X29.361 Y18.613
G0 F3600 X29.149 Y18.966
G1 F1800 X32.186 Y22.004 E142.11995
G1 X32.256 Y22.074
G0 F3600 X31.903 Y22.287
G1 F1800 X28.866 Y19.249 E142.33426
G1 X28.796 Y19.179
G0 F3600 X28.583 Y19.532
G1 F1800 X31.621 Y22.57 E142.54861
G1 X31.691 Y22.64
G0 F3600 X31.338 Y22.852
G1 F1800 X28.3 Y19.815 E142.76292
G1 X28.23 Y19.745
G0 F3600 X28.017 Y20.098
G1 F1800 X31.054 Y23.135 E142.9772
G1 X31.124 Y23.205
G0 F3600 X30.771 Y23.417
G1 F1800 X27.734 Y20.38 E143.19147
G1 X27.664 Y20.31
G0 F3600 X27.452 Y20.663
G1 F1800 X30.489 Y23.7 E143.40575
G1 X30.559 Y23.77
G0 F3600 X30.206 Y23.983
G1 F1800 X27.169 Y20.946 E143.62003
G1 X27.099 Y20.876
G0 F3600 X26.886 Y21.229
G1 F1800 X29.923 Y24.266 E143.8343
G1 X29.993 Y24.336
G0 F3600 X29.64 Y24.549
G1 F1800 X26.603 Y21.512 E144.04858
G1 X26.533 Y21.442
G0 F3600 X26.32 Y21.795
G1 F1800 X29.357 Y24.832 E144.26286
G1 X29.427 Y24.902
G0 F3600 X29.074 Y25.115
G1 F1800 X26.037 Y22.077 E144.47717
G1 X25.967 Y22.007
G0 F3600 X25.754 Y22.36
G1 F1800 X28.791 Y25.397 E144.69145
G1 X28.861 Y25.467
G0 F3600 X28.509 Y25.68
G1 F1800 X25.472 Y22.643 E144.90572
G1 X25.402 Y22.573
G0 F3600 X25.189 Y22.926
G1 F1800 X28.225 Y25.962 E145.11993
G1 X28.295 Y26.032
G0 F3600 X27.942 Y26.245
G1 F1800 X24.906 Y23.209 E145.33414
G1 X24.836 Y23.139
G0 F3600 X24.623 Y23.492
G1 F1800 X27.659 Y26.528 E145.54834
G1 X27.729 Y26.598
G0 F3600 X27.377 Y26.811
G1 F1800 X24.34 Y23.775 E145.76258
G1 X24.27 Y23.705
G0 F3600 X24.057 Y24.057
G1 F1800 X27.094 Y27.094 E145.97686
G1 X27.164 Y27.164
G0 F3600 X26.811 Y27.377
G1 F1800 X23.775 Y24.34 E146.1911
G1 X23.705 Y24.27
G0 F3600 X23.492 Y24.623
G1 F1800 X26.528 Y27.659 E146.40531
G1 X26.598 Y27.729
G0 F3600 X26.245 Y27.942
G1 F1800 X23.209 Y24.906 E146.61951
G1 X23.139 Y24.836
G0 F3600 X22.926 Y25.189
G1 F1800 X25.962 Y28.225 E146.83372
G1 X26.032 Y28.295
G0 F3600 X25.679 Y28.507
G1 F1800 X22.643 Y25.472 E147.04789
G1 X22.573 Y25.402
G0 F3600 X22.36 Y25.754
G1 F1800 X25.396 Y28.79 E147.2621
G1 X25.466 Y28.86
G0 F3600 X25.113 Y29.073
G1 F1800 X22.077 Y26.037 E147.4763
G1 X22.007 Y25.967
G0 F3600 X21.795 Y26.32
G1 F1800 X24.83 Y29.356 E147.69047
G1 X24.9 Y29.426
G0 F3600 X24.547 Y29.639
G1 F1800 X21.512 Y26.603 E147.90464
G1 X21.442 Y26.533
G0 F3600 X21.229 Y26.886
G1 F1800 X24.265 Y29.921 E148.11882
G1 X24.335 Y29.991
G0 F3600 X23.982 Y30.204
G1 F1800 X20.946 Y27.169 E148.33299
G1 X20.876 Y27.099
G0 F3600 X20.663 Y27.452
G1 F1800 X23.699 Y30.487 E148.54716
G1 X23.769 Y30.557
G0 F3600 X23.416 Y30.77
G1 F1800 X20.38 Y27.734 E148.76136
G1 X20.31 Y27.664
G0 F3600 X20.098 Y28.017
G1 F1800 X23.133 Y31.053 E148.97553
G1 X23.203 Y31.123
G0 F3600 X22.85 Y31.335
G1 F1800 X19.815 Y28.3 E149.18967
G1 X19.745 Y28.23
G0 F3600 X19.532 Y28.583
G1 F1800 X22.567 Y31.618 E149.40381
G1 X22.637 Y31.688
G0 F3600 X22.284 Y31.901
G1 F1800 X19.249 Y28.866 E149.61794
G1 X19.179 Y28.796
G0 F3600 X18.966 Y29.149
G1 F1800 X22.001 Y32.183 E149.83204
G1 X22.071 Y32.253
G0 F3600 X21.718 Y32.466
G1 F1800 X18.683 Y29.431 E150.04618
G1 X18.613 Y29.361
G0 F3600 X18.401 Y29.714
G1 F1800 X21.435 Y32.749 E150.26028
G1 X21.505 Y32.819
G0 F3600 X21.153 Y33.032
G1 F1800 X18.118 Y29.997 E150.47441
G1 X18.048 Y29.927
G0 F3600 X17.835 Y30.28
G1 F1800 X20.87 Y33.315 E150.68855
G1 X20.94 Y33.385
G0 F3600 X20.587 Y33.598
G1 F1800 X17.552 Y30.563 E150.90269
G1 X17.482 Y30.493
G0 F3600 X17.494 Y30.507
G0 X17.274 Y30.627
G0 X10.653 Y24.229
G1 F1800 X168.439 Y182.016 E162.03537
G1 X168.509 Y182.086
G0 F3600 X168.157 Y182.299
G1 F1800 X10.37 Y24.512 E173.1681
G1 X10.3 Y24.442
G0 F3600 X10.313 Y24.456
G0 X17.274 Y30.627
G0 X30.61 Y17.291
G0 X24.229 Y10.653
G1 F1800 X182.015 Y168.439 E184.30075
G1 X182.085 Y168.509
G0 F3600 X181.732 Y168.722
G1 F1800 X178.698 Y165.687 E184.51485
G1 X178.628 Y165.617
G0 F3600 X178.415 Y165.97
G1 F1800 X181.449 Y169.004 E184.72892
G1 X181.519 Y169.074
G0 F3600 X181.167 Y169.287
G1 F1800 X178.132 Y166.253 E184.94302
G1 X178.062 Y166.183
G0 F3600 X177.85 Y166.536
G1 F1800 X180.884 Y169.57 E185.15709
G1 X180.954 Y169.64
G0 F3600 X180.601 Y169.853
G1 F1800 X177.567 Y166.819 E185.37115
G1 X177.497 Y166.749
G0 F3600 X177.284 Y167.102
G1 F1800 X180.318 Y170.136 E185.58522
G1 X180.388 Y170.206
G0 F3600 X180.035 Y170.419
G1 F1800 X177.001 Y167.384 E185.79932
G1 X176.931 Y167.314
G0 F3600 X176.718 Y167.667
G1 F1800 X179.752 Y170.701 E186.01338
G1 X179.822 Y170.771
G0 F3600 X179.47 Y170.984
G1 F1800 X176.435 Y167.95 E186.22748
G1 X176.365 Y167.88
G0 F3600 X176.153 Y168.233
G1 F1800 X179.187 Y171.267 E186.44155
G1 X179.257 Y171.337
G0 F3600 X178.904 Y171.55
G1 F1800 X175.87 Y168.516 E186.65561
G1 X175.8 Y168.446
G0 F3600 X175.587 Y168.799
G1 F1800 X178.621 Y171.833 E186.86968
G1 X178.691 Y171.903
G0 F3600 X178.338 Y172.116
G1 F1800 X175.304 Y169.081 E187.08378
G1 X175.234 Y169.011
G0 F3600 X175.021 Y169.364
G1 F1800 X178.055 Y172.398 E187.29784
G1 X178.125 Y172.468
G0 F3600 X177.773 Y172.681
G1 F1800 X174.738 Y169.647 E187.51194
G1 X174.668 Y169.577
G0 F3600 X174.455 Y169.93
G1 F1800 X177.49 Y172.964 E187.72604
G1 X177.56 Y173.034
G0 F3600 X177.207 Y173.247
G1 F1800 X174.173 Y170.213 E187.94011
G1 X174.103 Y170.143
G0 F3600 X173.89 Y170.496
G1 F1800 X176.924 Y173.53 E188.15417
G1 X176.994 Y173.6
G0 F3600 X176.641 Y173.813
G1 F1800 X173.607 Y170.779 E188.36824
G1 X173.537 Y170.709
G0 F3600 X173.324 Y171.061
G1 F1800 X176.358 Y174.096 E188.58234
G1 X176.428 Y174.166
G0 F3600 X176.075 Y174.378
G1 F1800 X173.041 Y171.344 E188.7964
G1 X172.971 Y171.274
G0 F3600 X172.758 Y171.627
G1 F1800 X175.793 Y174.661 E189.0105
G1 X175.863 Y174.731
G0 F3600 X175.51 Y174.944
G1 F1800 X172.476 Y171.91 E189.22457
G1 X172.406 Y171.84
G0 F3600 X172.193 Y172.193
G1 F1800 X175.227 Y175.227 E189.43863
G1 X175.297 Y175.297
G0 F3600 X174.944 Y175.51
G1 F1800 X171.91 Y172.476 E189.6527
G1 X171.84 Y172.406
G0 F3600 X171.627 Y172.758
G1 F1800 X174.661 Y175.793 E189.8668
G1 X174.731 Y175.863
G0 F3600 X174.378 Y176.075
G1 F1800 X171.344 Y173.041 E190.08086
G1 X171.274 Y172.971
G0 F3600 X171.061 Y173.324
G1 F1800 X174.096 Y176.358 E190.29496
G1 X174.166 Y176.428
G0 F3600 X173.813 Y176.641
G1 F1800 X170.779 Y173.607 E190.50903
G1 X170.709 Y173.537
G0 F3600 X170.496 Y173.89
G1 F1800 X173.53 Y176.924 E190.7231
G1 X173.6 Y176.994
G0 F3600 X173.247 Y177.207
G1 F1800 X170.213 Y174.173 E190.93716
G1 X170.143 Y174.103
G0 F3600 X169.93 Y174.455
G1 F1800 X172.964 Y177.49 E191.15126
G1 X173.034 Y177.56
G0 F3600 X172.681 Y177.773
G1 F1800 X169.647 Y174.738 E191.36536
G1 X169.577 Y174.668
G0 F3600 X169.364 Y175.021
G1 F1800 X172.398 Y178.055 E191.57943
G1 X172.468 Y178.125
G0 F3600 X172.116 Y178.338
G1 F1800 X169.081 Y175.304 E191.79353
G1 X169.011 Y175.234
G0 F3600 X168.799 Y175.587
G1 F1800 X171.833 Y178.621 E192.00759
G1 X171.903 Y178.691
G0 F3600 X171.55 Y178.904
G1 F1800 X168.516 Y175.87 E192.22166
G1 X168.446 Y175.8
G0 F3600 X168.233 Y176.153
G1 F1800 X171.267 Y179.187 E192.43572
G1 X171.337 Y179.257
G0 F3600 X170.984 Y179.47
G1 F1800 X167.95 Y176.435 E192.64982
G1 X167.88 Y176.365
