;FLAVOR:RepRap
;TIME:8534
;Filament used: 4.42484m
;Layer height: 0.1
;Generated with Cura_SteamEngine 2.5.0
M190 S59
M104 S200
M109 S200
G21 ;metric values
G90 ;absolute positioning
M82 ;set extruder to absolute mode
M107 ;start with the fan off
G28 X0 Y0 ;move X/Y to min endstops
G28 Z0 ;move Z to min endstops
G1 Z15.0 F9000 ;move the platform down 15mm
G92 E0 ;zero the extruded length
G1 F200 E3 ;extrude 3mm of feed stock
G92 E0 ;zero the extruded length again
G1 F9000
;Put printing message on LCD screen
M117 Printing...
;LAYER_COUNT:488
;LAYER:0
M107
G0 F3600 X96.203 Y60.272 Z0.3
G0 X95.97 Y60.755
;TYPE:SKIRT
G1 F1800 X96.203 Y60.272 E0.02675
G1 X96.505 Y59.829 E0.0535
G1 X96.87 Y59.436 E0.08026
G1 X97.289 Y59.102 E0.10699
G1 X97.754 Y58.833 E0.1338
G1 X98.252 Y58.637 E0.1605
G1 X98.775 Y58.516 E0.18728
G1 X99.319 Y58.475 E0.21449
G1 X113.296 Y58.476 E0.91181
G1 X113.831 Y58.516 E0.93858
G1 X114.354 Y58.635 E0.96534
G1 X114.853 Y58.83 E0.99206
G1 X115.318 Y59.098 E1.01884
G1 X115.738 Y59.431 E1.04558
G1 X116.104 Y59.823 E1.07234
G1 X116.408 Y60.265 E1.0991
G1 X116.642 Y60.748 E1.12588
G1 X116.802 Y61.26 E1.15264
G1 X116.885 Y61.79 E1.1794
G1 X116.896 Y62.076 E1.19368
G1 X116.896 Y137.917 E4.9774
G1 X116.856 Y138.452 E5.00417
G1 X116.737 Y138.975 E5.03093
G1 X116.542 Y139.474 E5.05766
G1 X116.274 Y139.939 E5.08443
G1 X115.941 Y140.359 E5.11118
G1 X115.549 Y140.725 E5.13793
G1 X115.107 Y141.028 E5.16467
G1 X114.624 Y141.263 E5.19147
G1 X114.113 Y141.423 E5.21818
G1 X113.583 Y141.506 E5.24494
G1 X113.215 Y141.516 E5.26331
G1 X108.821 Y141.417 E5.48258
G1 X108.686 Y141.412 E5.48932
G1 X106.375 Y141.273 E5.60483
G1 X100.914 Y141.17 E5.87733
G1 X95.453 Y141.376 E6.14997
G1 X93.617 Y141.515 E6.24183
G1 X93.335 Y141.525 E6.25591
G1 X90.858 Y141.518 E6.37949
G1 X90.323 Y141.477 E6.40626
G1 X89.801 Y141.356 E6.43299
G1 X89.302 Y141.159 E6.45976
G1 X88.838 Y140.891 E6.48649
G1 X88.418 Y140.556 E6.51329
G1 X88.031 Y140.134 E6.54186
G1 X85.945 Y137.463 E6.71094
G1 X83.846 Y134.952 E6.87422
G1 X67.606 Y116.174 E8.11281
G1 X67.286 Y115.743 E8.13959
G1 X67.034 Y115.27 E8.16633
G1 X66.855 Y114.764 E8.19311
G1 X66.753 Y114.238 E8.21984
G1 X66.729 Y113.823 E8.24058
G1 X66.716 Y103.081 E8.7765
G1 X66.755 Y102.547 E8.80321
G1 X66.874 Y102.023 E8.83002
G1 X67.068 Y101.524 E8.85673
G1 X67.335 Y101.059 E8.88348
G1 X67.668 Y100.638 E8.91026
G1 X67.94 Y100.373 E8.92921
G1 X70.54 Y98.088 E9.1019
G1 X74.493 Y94.293 E9.37528
G1 X78.221 Y90.284 E9.64841
G1 X79.993 Y88.209 E9.78454
G1 X81.671 Y86.125 E9.91803
G1 X84.927 Y81.716 E10.19147
G1 X87.915 Y77.148 E10.4638
G1 X90.636 Y72.427 E10.73565
G1 X93.087 Y67.555 E11.00774
G1 X95.277 Y62.515 E11.2819
G1 X95.97 Y60.755 E11.37627
G0 F3600 X96.342 Y60.902
G1 F1800 X96.564 Y60.448 E11.40148
G1 X96.854 Y60.034 E11.4267
G1 X97.207 Y59.671 E11.45196
G1 X97.612 Y59.369 E11.47716
G1 X98.059 Y59.133 E11.50238
G1 X98.538 Y58.972 E11.52759
G1 X99.037 Y58.887 E11.55285
G1 X99.319 Y58.875 E11.56693
G1 X113.296 Y58.876 E12.26424
G1 X113.8 Y58.916 E12.28947
G1 X114.292 Y59.035 E12.31472
G1 X114.758 Y59.23 E12.33992
G1 X115.188 Y59.495 E12.36512
G1 X115.571 Y59.826 E12.39038
G1 X115.897 Y60.212 E12.41558
G1 X116.158 Y60.645 E12.44081
G1 X116.348 Y61.114 E12.46605
G1 X116.461 Y61.606 E12.49124
G1 X116.496 Y62.076 E12.51475
G1 X116.496 Y137.917 E16.29847
G1 X116.456 Y138.421 E16.3237
G1 X116.337 Y138.912 E16.3489
G1 X116.143 Y139.379 E16.37413
G1 X115.877 Y139.809 E16.39936
G1 X115.547 Y140.192 E16.42458
G1 X115.16 Y140.518 E16.44983
G1 X114.727 Y140.779 E16.47505
G1 X114.259 Y140.969 E16.50025
G1 X113.766 Y141.082 E16.52548
G1 X113.224 Y141.116 E16.55258
G1 X108.83 Y141.017 E16.77185
G1 X108.71 Y141.012 E16.77784
G1 X106.407 Y140.874 E16.89294
G1 X100.925 Y140.77 E17.16649
G1 X95.408 Y140.978 E17.44193
G1 X93.587 Y141.116 E17.53304
G1 X93.336 Y141.125 E17.54557
G1 X90.859 Y141.118 E17.66915
G1 X90.355 Y141.077 E17.69438
G1 X89.864 Y140.956 E17.71961
G1 X89.398 Y140.76 E17.74483
G1 X88.969 Y140.493 E17.77004
G1 X88.587 Y140.162 E17.79526
G1 X88.346 Y139.888 E17.81346
G1 X86.255 Y137.21 E17.98297
G1 X84.13 Y134.669 E18.14823
G1 X67.909 Y115.912 E19.38541
G1 X67.609 Y115.505 E19.41064
G1 X67.378 Y115.055 E19.43587
G1 X67.22 Y114.575 E19.46108
G1 X67.139 Y114.076 E19.48631
G1 X67.129 Y113.823 E19.49894
G1 X67.116 Y103.081 E20.03486
G1 X67.155 Y102.577 E20.06008
G1 X67.274 Y102.085 E20.08533
G1 X67.468 Y101.618 E20.11056
G1 X67.733 Y101.188 E20.13576
G1 X68.204 Y100.673 E20.17058
G1 X70.823 Y98.372 E20.34451
G1 X74.78 Y94.572 E20.61821
G1 X78.513 Y90.559 E20.89165
G1 X80.31 Y88.453 E21.02977
G1 X81.988 Y86.37 E21.16322
G1 X85.254 Y81.947 E21.43752
G1 X88.259 Y77.353 E21.7114
G1 X90.983 Y72.628 E21.9835
G1 X93.451 Y67.723 E22.25744
G1 X95.647 Y62.667 E22.53245
G1 X96.342 Y60.902 E22.62709
G1 F1500 E16.12709
G0 F3600 X98.643 Y62.68
G0 X99.922 Y62.68
G0 X99.978 Y62.736
G0 X99.908 Y62.666
;TYPE:WALL-INNER
G1 F1500 E22.62709
G1 F1800 X112.705 Y62.666 E23.26553
G1 X112.705 Y137.326 E26.99033
G1 X111.107 Y137.327 E27.07006
G1 X110.907 Y137.327 E27.08004
G1 X110.907 Y137.127 E27.0865
G1 X110.907 Y126.463 E27.61852
G1 X92.755 Y126.463 E28.52413
G1 X92.755 Y137.334 E29.06649
G1 X91.461 Y137.334 E29.13105
G1 X70.906 Y113.584 E30.69808
G1 X70.906 Y103.668 E31.19279
G1 X77.199 Y103.668 E31.50675
G1 X82.991 Y109.462 E31.91548
G1 X91.303 Y111.689 E32.34479
G1 X99.616 Y109.462 E32.77416
G1 X105.699 Y103.377 E33.20342
G1 X107.926 Y95.066 E33.63268
G1 X105.699 Y86.754 E34.06199
G1 X99.908 Y80.962 E34.47062
G1 X99.908 Y62.666 E35.38341
G0 F3600 X99.978 Y62.736
G0 X106.146 Y77.963
G0 X106.176 Y78.058
G1 F1800 X105.583 Y78.356 E35.41652
G1 X105.112 Y78.822 E35.44957
G1 X104.808 Y79.41 E35.4826
G1 X104.702 Y80.064 E35.51565
G1 X104.808 Y80.718 E35.54871
G1 X105.112 Y81.306 E35.58173
G1 X105.583 Y81.772 E35.61478
G1 X106.176 Y82.07 E35.6479
G1 X106.831 Y82.171 E35.68096
G1 X107.486 Y82.07 E35.71402
G1 X108.079 Y81.772 E35.74713
G1 X108.55 Y81.306 E35.78019
G1 X108.854 Y80.718 E35.81321
G1 X108.959 Y80.064 E35.84626
G1 X108.854 Y79.41 E35.87931
G1 X108.55 Y78.822 E35.91233
G1 X108.079 Y78.356 E35.94539
G1 X107.486 Y78.058 E35.9785
G1 X106.831 Y77.957 E36.01156
G1 X106.176 Y78.058 E36.04463
G0 F3600 X106.146 Y77.963
G0 X105.56 Y78.324
G0 X105.08 Y78.799
G0 X104.771 Y79.398
G0 X104.662 Y80.064
G0 X107.966 Y95.066
G0 X106.831 Y108.86
G0 X106.831 Y108.96
G1 F1800 X106.176 Y109.061 E36.07769
G1 X105.583 Y109.359 E36.1108
G1 X105.112 Y109.825 E36.14386
G1 X104.808 Y110.413 E36.17688
G1 X104.702 Y111.067 E36.20993
G1 X104.808 Y111.721 E36.24299
G1 X105.112 Y112.309 E36.27601
G1 X105.583 Y112.775 E36.30907
G1 X106.176 Y113.073 E36.34218
G1 X106.831 Y113.174 E36.37524
G1 X107.486 Y113.073 E36.40831
G1 X108.079 Y112.775 E36.44142
G1 X108.55 Y112.309 E36.47447
G1 X108.854 Y111.721 E36.5075
G1 X108.959 Y111.067 E36.54054
G1 X108.854 Y110.413 E36.57359
G1 X108.55 Y109.825 E36.60661
G1 X108.079 Y109.359 E36.63967
G1 X107.486 Y109.061 E36.67278
G1 X106.831 Y108.96 E36.70584
G0 F3600 X106.831 Y108.86
G0 X91.303 Y111.729
G0 X78.051 Y111.067
G0 X77.951 Y111.067
G1 F1800 X77.846 Y110.413 E36.73889
G1 X77.542 Y109.825 E36.77191
G1 X77.071 Y109.359 E36.80497
G1 X76.478 Y109.061 E36.83808
G1 X75.823 Y108.96 E36.87114
G1 X75.168 Y109.061 E36.90421
G1 X74.575 Y109.359 E36.93732
G1 X74.104 Y109.825 E36.97037
G1 X73.8 Y110.413 E37.0034
G1 X73.694 Y111.067 E37.03645
G1 X73.8 Y111.721 E37.06951
G1 X74.104 Y112.309 E37.10253
G1 X74.575 Y112.775 E37.13559
G1 X75.168 Y113.073 E37.1687
G1 X75.823 Y113.174 E37.20176
G1 X76.478 Y113.073 E37.23483
G1 X77.071 Y112.775 E37.26794
G1 X77.542 Y112.309 E37.30099
G1 X77.846 Y111.721 E37.33402
G1 X77.951 Y111.067 E37.36706
G0 F3600 X77.546 Y111.067
;TYPE:WALL-OUTER
G1 F1800 X77.461 Y110.54 E37.39369
G1 X77.216 Y110.065 E37.42036
G1 X76.835 Y109.688 E37.4471
G1 X76.355 Y109.447 E37.4739
G1 X75.823 Y109.365 E37.50075
G1 X75.291 Y109.447 E37.52761
G1 X74.811 Y109.688 E37.5544
G1 X74.43 Y110.065 E37.58114
G1 X74.185 Y110.54 E37.60781
G1 X74.099 Y111.067 E37.63445
G1 X74.185 Y111.594 E37.66109
G1 X74.43 Y112.069 E37.68775
G1 X74.811 Y112.446 E37.71449
G1 X75.291 Y112.687 E37.74129
G1 X75.823 Y112.769 E37.76814
G1 X76.355 Y112.687 E37.795
G1 X76.835 Y112.446 E37.82179
G1 X77.216 Y112.069 E37.84854
G1 X77.461 Y111.594 E37.8752
G1 X77.546 Y111.067 E37.90183
G0 F3600 X77.515 Y110.87
G0 X78.008 Y110.793
G0 X83.069 Y109.585
G0 X83.198 Y109.103
G1 F1800 X91.303 Y111.275 E38.32046
G1 X99.409 Y109.103 E38.73914
G1 X105.34 Y103.17 E39.15767
G1 X107.512 Y95.066 E39.57625
G1 X105.34 Y86.961 E39.99488
G1 X99.508 Y81.128 E40.40639
G1 X99.508 Y62.266 E41.34742
G1 X113.105 Y62.266 E42.02578
G1 X113.105 Y137.726 E45.79049
G1 X110.707 Y137.727 E45.91013
G1 X110.507 Y137.727 E45.92011
G1 X110.507 Y137.527 E45.92657
G1 X110.507 Y126.863 E46.4586
G1 X93.155 Y126.863 E47.32429
G1 X93.155 Y137.734 E47.86665
G1 X91.067 Y137.734 E47.97082
G1 X91.067 Y137.49 E47.98299
G1 X70.506 Y113.733 E49.55049
G1 X70.506 Y103.268 E50.07259
G1 X77.365 Y103.268 E50.41479
G1 X83.198 Y109.103 E50.82641
G0 F3600 X83.391 Y109.154
G0 X83.261 Y109.637
G0 X91.303 Y111.729
G0 X104.615 Y110.987
G0 X105.107 Y111.067
G1 F1800 X105.193 Y111.594 E50.85305
G1 X105.438 Y112.069 E50.87971
G1 X105.819 Y112.446 E50.90645
G1 X106.299 Y112.687 E50.93325
G1 X106.831 Y112.769 E50.9601
G1 X107.363 Y112.687 E50.98696
G1 X107.843 Y112.446 E51.01376
G1 X108.224 Y112.069 E51.0405
G1 X108.469 Y111.594 E51.06716
G1 X108.554 Y111.067 E51.09379
G1 X108.469 Y110.54 E51.12043
G1 X108.224 Y110.065 E51.14709
G1 X107.843 Y109.688 E51.17383
G1 X107.363 Y109.447 E51.20063
G1 X106.831 Y109.365 E51.22748
G1 X106.299 Y109.447 E51.25434
G1 X105.819 Y109.688 E51.28113
G1 X105.438 Y110.065 E51.30787
G1 X105.193 Y110.54 E51.33454
G1 X105.107 Y111.067 E51.36118
G0 F3600 X105.139 Y111.264
G0 X104.646 Y111.343
G0 X105.733 Y103.396
G0 X107.966 Y95.066
G0 X106.755 Y82.259
G0 X106.831 Y81.766
G1 F1800 X107.363 Y81.684 E51.38803
G1 X107.843 Y81.443 E51.41483
G1 X108.224 Y81.066 E51.44157
G1 X108.469 Y80.591 E51.46823
G1 X108.554 Y80.064 E51.49487
G1 X108.469 Y79.537 E51.5215
G1 X108.224 Y79.062 E51.54816
G1 X107.843 Y78.685 E51.5749
G1 X107.363 Y78.444 E51.6017
G1 X106.831 Y78.362 E51.62856
G1 X106.299 Y78.444 E51.65541
G1 X105.819 Y78.685 E51.68221
G1 X105.438 Y79.062 E51.70895
G1 X105.193 Y79.537 E51.73561
G1 X105.107 Y80.064 E51.76225
G1 X105.193 Y80.591 E51.78889
G1 X105.438 Y81.066 E51.81556
G1 X105.819 Y81.443 E51.8423
G1 X106.299 Y81.684 E51.86909
G1 X106.831 Y81.766 E51.89595
G0 F3600 X107.028 Y81.736
G0 X107.188 Y82.298
;TYPE:SKIN
G1 F1800 X112.525 Y87.635 E52.2725
G1 X112.595 Y87.705
G0 F3600 X112.525 Y88.2
G1 F1800 X106.65 Y82.325 E52.68702
G1 X106.58 Y82.255
G0 F3600 X105.882 Y82.124
G1 F1800 X112.525 Y88.766 E53.15568
G1 X112.595 Y88.836
G0 F3600 X112.525 Y89.332
G1 F1800 X100.087 Y76.894 E54.03325
G1 X100.017 Y76.824
G0 F3600 X100.087 Y76.328
G1 F1800 X104.741 Y80.982 E54.36161
G1 X104.811 Y81.052
G0 F3600 X104.543 Y80.219
G1 F1800 X100.087 Y75.762 E54.67604
G1 X100.017 Y75.692
G0 F3600 X100.087 Y75.197
G1 F1800 X104.579 Y79.689 E54.99298
G1 X104.649 Y79.759
G0 F3600 X104.693 Y79.237
G1 F1800 X100.087 Y74.631 E55.31796
G1 X100.017 Y74.561
G0 F3600 X100.087 Y74.065
G1 F1800 X104.886 Y78.865 E55.65659
G1 X104.956 Y78.935
G0 F3600 X105.133 Y78.546
G1 F1800 X100.087 Y73.5 E56.01261
G1 X100.017 Y73.43
G0 F3600 X100.087 Y72.934
G1 F1800 X105.417 Y78.264 E56.38867
G1 X105.487 Y78.334
G0 F3600 X105.776 Y78.057
G1 F1800 X100.087 Y72.368 E56.79006
G1 X100.017 Y72.298
G0 F3600 X100.087 Y71.803
G1 F1800 X106.162 Y77.877 E57.21865
G1 X106.232 Y77.947
G0 F3600 X106.652 Y77.802
G1 F1800 X100.087 Y71.237 E57.68184
G1 X100.017 Y71.167
G0 F3600 X100.087 Y70.671
G1 F1800 X107.256 Y77.841 E58.18769
G1 X107.326 Y77.911
G0 F3600 X108.593 Y78.611
G1 F1800 X100.087 Y70.106 E58.7878
G1 X100.017 Y70.036
G0 F3600 X100.087 Y69.54
G1 F1800 X112.525 Y81.978 E59.66537
G1 X112.595 Y82.048
G0 F3600 X112.525 Y82.544
G1 F1800 X108.697 Y78.715 E59.93549
G1 X108.627 Y78.645
G0 F3600 X109.075 Y79.659
G1 F1800 X112.525 Y83.109 E60.17891
G1 X112.595 Y83.179
G0 F3600 X112.525 Y83.675
G1 F1800 X109.108 Y80.258 E60.41999
G1 X109.038 Y80.188
G0 F3600 X109.03 Y80.745
G1 F1800 X112.525 Y84.241 E60.66662
G1 X112.595 Y84.311
G0 F3600 X112.525 Y84.806
G1 F1800 X108.843 Y81.124 E60.9264
G1 X108.773 Y81.054
G0 F3600 X108.631 Y81.478
G1 F1800 X112.525 Y85.372 E61.20115
G1 X112.595 Y85.442
G0 F3600 X112.525 Y85.938
G1 F1800 X108.347 Y81.759 E61.49596
G1 X108.277 Y81.689
G0 F3600 X108.022 Y82.001
G1 F1800 X112.525 Y86.503 E61.81364
G1 X112.595 Y86.573
G0 F3600 X112.525 Y87.069
G1 F1800 X107.646 Y82.19 E62.15788
G1 X107.576 Y82.12
G0 F3600 X107.581 Y82.133
G0 X112.525 Y81.412
G1 F1800 X100.087 Y68.974 E63.03545
G1 X100.017 Y68.904
G0 F3600 X100.087 Y68.409
G1 F1800 X112.525 Y80.847 E63.91301
G1 X112.595 Y80.917
G0 F3600 X112.525 Y80.281
G1 F1800 X100.087 Y67.843 E64.79058
G1 X100.017 Y67.773
G0 F3600 X100.087 Y67.277
G1 F1800 X112.525 Y79.715 E65.66815
G1 X112.595 Y79.785
G0 F3600 X112.525 Y79.149
G1 F1800 X100.087 Y66.711 E66.54572
G1 X100.017 Y66.641
G0 F3600 X100.087 Y66.146
G1 F1800 X112.525 Y78.584 E67.42329
G1 X112.595 Y78.654
G0 F3600 X112.525 Y78.018
G1 F1800 X100.087 Y65.58 E68.30086
G1 X100.017 Y65.51
G0 F3600 X100.087 Y65.014
G1 F1800 X112.525 Y77.452 E69.17842
G1 X112.595 Y77.522
G0 F3600 X112.525 Y76.887
G1 F1800 X100.087 Y64.449 E70.05599
G1 X100.017 Y64.379
G0 F3600 X100.087 Y63.883
G1 F1800 X112.525 Y76.321 E70.93356
G1 X112.595 Y76.391
G0 F3600 X112.525 Y75.755
G1 F1800 X100.087 Y63.317 E71.81113
G1 X100.017 Y63.247
G0 F3600 X100.181 Y62.846
G1 F1800 X112.525 Y75.19 E72.68206
G1 X112.595 Y75.26
G0 F3600 X112.525 Y74.624
G1 F1800 X100.747 Y62.846 E73.51306
G1 X100.677 Y62.776
G0 F3600 X101.312 Y62.846
G1 F1800 X112.525 Y74.058 E74.30417
G1 X112.595 Y74.128
G0 F3600 X112.525 Y73.493
G1 F1800 X101.878 Y62.846 E75.05537
G1 X101.808 Y62.776
G0 F3600 X102.444 Y62.846
G1 F1800 X112.525 Y72.927 E75.76664
G1 X112.595 Y72.997
G0 F3600 X112.525 Y72.361
G1 F1800 X103.009 Y62.846 E76.43801
G1 X102.939 Y62.776
G0 F3600 X103.575 Y62.846
G1 F1800 X112.525 Y71.796 E77.06948
G1 X112.595 Y71.866
G0 F3600 X112.525 Y71.23
G1 F1800 X104.141 Y62.846 E77.66102
G1 X104.071 Y62.776
G0 F3600 X104.706 Y62.846
G1 F1800 X112.525 Y70.664 E78.21265
G1 X112.595 Y70.734
G0 F3600 X112.525 Y70.099
G1 F1800 X105.272 Y62.846 E78.72439
G1 X105.202 Y62.776
G0 F3600 X105.838 Y62.846
G1 F1800 X112.525 Y69.533 E79.1962
G1 X112.595 Y69.603
G0 F3600 X112.525 Y68.967
G1 F1800 X106.404 Y62.846 E79.62807
G1 X106.334 Y62.776
G0 F3600 X106.969 Y62.846
G1 F1800 X112.525 Y68.401 E80.02004
G1 X112.595 Y68.471
G0 F3600 X112.525 Y67.836
G1 F1800 X107.535 Y62.846 E80.37211
G1 X107.465 Y62.776
G0 F3600 X108.101 Y62.846
G1 F1800 X112.525 Y67.27 E80.68425
G1 X112.595 Y67.34
G0 F3600 X112.525 Y66.704
G1 F1800 X108.666 Y62.846 E80.95648
G1 X108.596 Y62.776
G0 F3600 X109.232 Y62.846
G1 F1800 X112.525 Y66.139 E81.18882
G1 X112.595 Y66.209
G0 F3600 X112.525 Y65.573
G1 F1800 X109.798 Y62.846 E81.38123
G1 X109.728 Y62.776
G0 F3600 X110.363 Y62.846
G1 F1800 X112.525 Y65.007 E81.53373
G1 X112.595 Y65.077
G0 F3600 X112.525 Y64.442
G1 F1800 X110.929 Y62.846 E81.64634
G1 X110.859 Y62.776
G0 F3600 X111.495 Y62.846
G1 F1800 X112.525 Y63.876 E81.71901
G1 X112.595 Y63.946
G0 F3600 X112.525 Y63.31
G1 F1800 X112.06 Y62.846 E81.75178
G0 F3600 X100.087 Y77.46
G1 F1800 X112.525 Y89.898 E82.62935
G1 X112.595 Y89.968
G0 F3600 X112.525 Y90.463
G1 F1800 X100.087 Y78.025 E83.50692
G1 X100.017 Y77.955
G0 F3600 X100.087 Y78.591
G1 F1800 X112.525 Y91.029 E84.38449
G1 X112.595 Y91.099
G0 F3600 X112.525 Y91.595
G1 F1800 X100.087 Y79.157 E85.26206
G1 X100.017 Y79.087
G0 F3600 X100.087 Y79.722
G1 F1800 X112.525 Y92.16 E86.13962
G1 X112.595 Y92.23
G0 F3600 X112.525 Y92.726
G1 F1800 X100.087 Y80.288 E87.01719
G1 X100.017 Y80.218
G0 F3600 X100.087 Y80.854
G1 F1800 X112.525 Y93.292 E87.89476
G1 X112.595 Y93.362
G0 F3600 X112.525 Y93.857
G1 F1800 X106.053 Y87.386 E88.35136
G1 X105.983 Y87.316
G0 F3600 X106.261 Y88.159
