;FLAVOR:RepRap
;TIME:3595
;Filament used: 1.75035m
;Layer height: 0.1
;Generated with Cura_SteamEngine 2.5.0
M190 S59
M104 S200
M109 S200
G21 ;metric values
G90 ;absolute positioning
M82 ;set extruder to absolute mode
M107 ;start with the fan off
G28 X0 Y0 ;move X/Y to min endstops
G28 Z0 ;move Z to min endstops
G1 Z15.0 F9000 ;move the platform down 15mm
G92 E0 ;zero the extruded length
G1 F200 E3 ;extrude 3mm of feed stock
G92 E0 ;zero the extruded length again
G1 F9000
;Put printing message on LCD screen
M117 Printing...
;LAYER_COUNT:332
;LAYER:0
M107
G0 F3600 X77.056 Y84.609 Z0.3
;TYPE:SKIRT
G1 F1800 X77.706 Y84.046 E0.0429
G1 X78.136 Y83.726 E0.06964
G1 X78.803 Y83.395 E0.10679
G1 X79.322 Y83.201 E0.13443
G1 X79.836 Y83.051 E0.16115
G1 X80.578 Y82.973 E0.19837
G1 X119.056 Y82.927 E2.11805
G1 X119.844 Y83.013 E2.15759
G1 X120.597 Y83.181 E2.19609
G1 X121.11 Y83.337 E2.22284
G1 X121.774 Y83.676 E2.26003
G1 X122.305 Y84.021 E2.29162
G1 X122.732 Y84.346 E2.31839
G1 X123.181 Y84.824 E2.35111
G1 X123.602 Y85.363 E2.38523
G1 X123.9 Y85.809 E2.412
G1 X124.144 Y86.336 E2.44097
G1 X124.336 Y86.858 E2.46872
G1 X124.483 Y87.374 E2.49548
G1 X124.557 Y88.095 E2.53164
G1 X124.601 Y113.468 E3.79751
G1 X124.562 Y114.003 E3.82427
G1 X124.444 Y114.526 E3.85102
G1 X124.249 Y115.026 E3.8778
G1 X123.983 Y115.491 E3.90452
G1 X123.65 Y115.912 E3.9313
G1 X123.259 Y116.278 E3.95802
G1 X122.817 Y116.582 E3.98479
G1 X122.335 Y116.818 E4.01156
G1 X121.824 Y116.979 E4.03829
G1 X121.294 Y117.062 E4.06505
G1 X121 Y117.074 E4.07973
G1 X110.512 Y117.071 E4.60298
G1 X110.201 Y117.057 E4.61851
G1 X107.065 Y116.784 E4.77556
G1 X101.583 Y116.552 E5.0493
G1 X96.129 Y116.63 E5.32143
G1 X90.082 Y117.065 E5.6239
G1 X89.823 Y117.074 E5.63683
G1 X79.02 Y117.073 E6.17579
G1 X78.485 Y117.033 E6.20256
G1 X77.962 Y116.914 E6.22932
G1 X77.463 Y116.719 E6.25605
G1 X76.998 Y116.451 E6.28282
G1 X76.578 Y116.118 E6.30956
G1 X76.212 Y115.726 E6.33632
G1 X75.908 Y115.283 E6.36312
G1 X75.674 Y114.801 E6.38986
G1 X75.514 Y114.289 E6.41662
G1 X75.431 Y113.759 E6.44338
G1 X75.42 Y113.466 E6.45801
G1 X75.467 Y88.08 E7.72452
G1 X75.508 Y87.546 E7.75124
G1 X75.628 Y87.023 E7.77801
G1 X75.793 Y86.59 E7.80113
G1 X76.139 Y85.833 E7.84266
G1 X76.397 Y85.364 E7.86936
G1 X76.723 Y84.938 E7.89613
G1 X77.056 Y84.609 E7.91948
G0 F3600 X77.318 Y84.911
G1 F1800 X77.968 Y84.348 E7.96238
G1 X78.375 Y84.048 E7.98761
G1 X78.943 Y83.77 E8.01916
G1 X79.462 Y83.576 E8.0468
G1 X79.948 Y83.437 E8.07202
G1 X80.578 Y83.373 E8.10361
G1 X119.056 Y83.327 E10.02329
G1 X119.757 Y83.404 E10.05847
G1 X120.51 Y83.572 E10.09696
G1 X120.993 Y83.721 E10.12218
G1 X121.556 Y84.012 E10.1538
G1 X122.087 Y84.357 E10.18539
G1 X122.488 Y84.665 E10.21062
G1 X122.866 Y85.07 E10.23825
G1 X123.287 Y85.609 E10.27238
G1 X123.566 Y86.031 E10.29761
G1 X123.768 Y86.474 E10.32191
G1 X123.96 Y86.996 E10.34965
G1 X124.097 Y87.483 E10.37489
G1 X124.157 Y88.095 E10.40557
G1 X124.201 Y113.468 E11.67144
G1 X124.162 Y113.973 E11.69671
G1 X124.044 Y114.464 E11.7219
G1 X123.85 Y114.931 E11.74713
G1 X123.585 Y115.362 E11.77237
G1 X123.255 Y115.745 E11.7976
G1 X122.87 Y116.072 E11.8228
G1 X122.437 Y116.334 E11.84805
G1 X121.969 Y116.524 E11.87324
G1 X121.476 Y116.638 E11.89849
G1 X121 Y116.674 E11.92231
G1 X110.512 Y116.671 E12.44555
G1 X110.236 Y116.659 E12.45934
G1 X107.072 Y116.384 E12.61778
G1 X101.594 Y116.152 E12.89133
G1 X96.112 Y116.23 E13.16485
G1 X90.053 Y116.666 E13.46792
G1 X89.823 Y116.674 E13.4794
G1 X79.02 Y116.673 E14.01837
G1 X78.516 Y116.633 E14.04359
G1 X78.024 Y116.514 E14.06884
G1 X77.558 Y116.319 E14.09405
G1 X77.128 Y116.054 E14.11924
G1 X76.745 Y115.723 E14.1445
G1 X76.419 Y115.337 E14.16971
G1 X76.158 Y114.904 E14.19493
G1 X75.968 Y114.435 E14.22018
G1 X75.855 Y113.943 E14.24536
G1 X75.82 Y113.467 E14.26917
G1 X75.867 Y88.081 E15.53569
G1 X75.908 Y87.577 E15.56092
G1 X76.028 Y87.086 E15.58613
G1 X76.157 Y86.757 E15.60376
G1 X76.503 Y86 E15.64529
G1 X76.748 Y85.558 E15.6705
G1 X77.061 Y85.16 E15.69576
G1 X77.318 Y84.911 E15.71361
G1 F1500 E9.21361
G0 F3600 X79.093 Y86.67
G0 X79.998 Y87.579
G0 X80.058 Y87.633
G0 X79.984 Y87.566
;TYPE:WALL-INNER
G1 F1500 E15.71361
G1 F1800 X80.071 Y87.479 E15.71975
G1 X80.192 Y87.381 E15.72752
G1 X80.308 Y87.305 E15.73444
G1 X80.438 Y87.239 E15.74171
G1 X80.584 Y87.183 E15.74951
G1 X80.711 Y87.149 E15.75607
G1 X80.872 Y87.124 E15.7642
G1 X81.021 Y87.116 E15.77165
G1 X83.458 Y87.116 E15.89323
G1 X83.636 Y87.116 E15.90211
G1 X83.851 Y87.116 E15.91284
G1 X84.072 Y87.116 E15.92386
G1 X84.28 Y87.116 E15.93424
G1 X115.74 Y87.116 E17.50378
G1 X115.95 Y87.116 E17.51426
G1 X116.17 Y87.116 E17.52524
G1 X116.385 Y87.116 E17.53596
G1 X116.564 Y87.116 E17.54489
G1 X118.981 Y87.116 E17.66548
G1 X119.157 Y87.124 E17.67427
G1 X119.299 Y87.147 E17.68144
G1 X119.442 Y87.185 E17.68883
G1 X119.581 Y87.239 E17.69627
G1 X119.699 Y87.299 E17.70287
G1 X119.836 Y87.388 E17.71102
G1 X119.949 Y87.479 E17.71826
G1 X120.051 Y87.581 E17.72546
G1 X120.134 Y87.683 E17.73202
G1 X120.224 Y87.822 E17.74028
G1 X120.287 Y87.945 E17.74717
G1 X120.341 Y88.086 E17.75471
G1 X120.377 Y88.221 E17.76168
G1 X120.401 Y88.373 E17.76935
G1 X120.41 Y88.527 E17.77705
G1 X120.41 Y112.883 E18.99218
G1 X111.117 Y112.883 E19.45581
G1 X111.089 Y112.483 E19.47581
G1 X111.031 Y111.98 E19.50107
G1 X110.95 Y111.48 E19.52634
G1 X110.847 Y110.984 E19.55162
G1 X110.719 Y110.495 E19.57683
G1 X110.57 Y110.011 E19.6021
G1 X110.389 Y109.514 E19.62849
G1 X110.195 Y109.047 E19.65372
G1 X109.98 Y108.59 E19.67891
G1 X109.743 Y108.143 E19.70415
G1 X109.487 Y107.706 E19.72942
G1 X109.21 Y107.283 E19.75465
G1 X108.914 Y106.873 E19.77988
G1 X108.599 Y106.477 E19.80512
G1 X108.267 Y106.096 E19.83033
G1 X107.916 Y105.731 E19.8556
G1 X107.551 Y105.382 E19.88079
G1 X107.169 Y105.051 E19.90601
G1 X106.772 Y104.736 E19.93129
G1 X106.361 Y104.443 E19.95648
G1 X105.937 Y104.167 E19.98172
G1 X105.501 Y103.911 E20.00694
G1 X105.053 Y103.676 E20.03218
G1 X104.595 Y103.461 E20.05742
G1 X104.127 Y103.268 E20.08268
G1 X103.65 Y103.096 E20.10797
G1 X103.169 Y102.949 E20.13307
G1 X102.679 Y102.82 E20.15835
G1 X102.183 Y102.718 E20.18361
G1 X101.684 Y102.637 E20.20883
G1 X101.181 Y102.58 E20.23409
G1 X100.677 Y102.545 E20.25929
G1 X100.172 Y102.533 E20.28449
G1 X99.666 Y102.546 E20.30975
G1 X99.162 Y102.582 E20.33496
G1 X98.659 Y102.641 E20.36022
G1 X98.162 Y102.722 E20.38534
G1 X97.667 Y102.827 E20.41059
G1 X97.177 Y102.955 E20.43586
G1 X96.694 Y103.105 E20.46109
G1 X96.218 Y103.277 E20.48634
G1 X95.752 Y103.471 E20.51152
G1 X95.295 Y103.687 E20.53674
G1 X94.846 Y103.923 E20.56205
G1 X94.412 Y104.18 E20.58721
G1 X93.988 Y104.456 E20.61245
G1 X93.577 Y104.753 E20.63775
G1 X93.181 Y105.066 E20.66293
G1 X92.8 Y105.399 E20.68818
G1 X92.434 Y105.75 E20.71348
G1 X92.086 Y106.115 E20.73864
G1 X91.754 Y106.496 E20.76385
G1 X91.44 Y106.893 E20.7891
G1 X91.145 Y107.305 E20.81438
G1 X90.871 Y107.728 E20.83953
G1 X90.613 Y108.164 E20.8648
G1 X90.379 Y108.612 E20.89002
G1 X90.164 Y109.069 E20.91521
G1 X89.974 Y109.528 E20.94
G1 X89.804 Y110.001 E20.96507
G1 X89.654 Y110.484 E20.99031
G1 X89.526 Y110.975 E21.01562
G1 X89.423 Y111.471 E21.0409
G1 X89.342 Y111.97 E21.06612
G1 X89.283 Y112.471 E21.09128
G1 X89.253 Y112.884 E21.11194
G1 X79.61 Y112.883 E21.59303
G1 X79.611 Y88.514 E22.80881
G1 X79.62 Y88.359 E22.81655
G1 X79.643 Y88.221 E22.82353
G1 X79.687 Y88.063 E22.83172
G1 X79.733 Y87.945 E22.83804
G1 X79.808 Y87.802 E22.84609
G1 X79.882 Y87.69 E22.85279
G1 X79.984 Y87.566 E22.8608
G0 F3600 X80.058 Y87.633
G0 X82.755 Y88.185
G0 X82.846 Y88.225
G1 F1800 X82.769 Y88.442 E22.87229
G1 X82.724 Y88.66 E22.88339
G1 X82.709 Y88.851 E22.89295
G1 X82.709 Y89.295 E22.9151
G1 X82.722 Y89.488 E22.92475
G1 X82.768 Y89.709 E22.93601
G1 X82.845 Y89.925 E22.94745
G1 X82.955 Y90.129 E22.95902
G1 X83.089 Y90.313 E22.97037
G1 X83.252 Y90.478 E22.98195
G1 X83.436 Y90.616 E22.99342
G1 X83.635 Y90.727 E23.00479
G1 X83.85 Y90.808 E23.01625
G1 X84.071 Y90.857 E23.02754
G1 X84.279 Y90.875 E23.03796
G1 X115.738 Y90.875 E24.60746
G1 X115.947 Y90.859 E24.61791
G1 X116.169 Y90.809 E24.62927
G1 X116.384 Y90.728 E24.64073
G1 X116.586 Y90.617 E24.65223
G1 X116.771 Y90.475 E24.66386
G1 X116.928 Y90.313 E24.67512
G1 X117.065 Y90.13 E24.68652
G1 X117.173 Y89.926 E24.69804
G1 X117.252 Y89.709 E24.70956
G1 X117.297 Y89.486 E24.72091
G1 X117.31 Y89.295 E24.73046
G1 X117.31 Y88.857 E24.75231
G1 X117.299 Y88.668 E24.76176
G1 X117.253 Y88.444 E24.77317
G1 X117.174 Y88.226 E24.78473
G1 X117.066 Y88.022 E24.79625
G1 X116.929 Y87.839 E24.80766
G1 X116.772 Y87.677 E24.81891
G1 X116.587 Y87.535 E24.83055
G1 X116.542 Y87.51 E24.83311
G1 X116.385 Y87.424 E24.84027
G1 X116.17 Y87.343 E24.84179
G1 X115.95 Y87.294
G1 X115.74 Y87.276
G1 X84.28 Y87.275 E25.46518
G1 X84.072 Y87.293
G1 X83.851 Y87.342
G1 X83.636 Y87.423 E25.46936
G1 X83.48 Y87.51 E25.47727
G1 X83.437 Y87.534 E25.47973
G1 X83.253 Y87.672 E25.4912
G1 X83.09 Y87.837 E25.50277
G1 X82.956 Y88.021 E25.51413
G1 X82.846 Y88.225 E25.52569
G0 F3600 X83.213 Y88.388
;TYPE:WALL-OUTER
G1 F1800 X83.155 Y88.55 E25.53428
G1 X83.121 Y88.716 E25.54273
G1 X83.109 Y88.867 E25.55029
G1 X83.109 Y89.282 E25.57099
G1 X83.119 Y89.433 E25.57854
G1 X83.154 Y89.6 E25.58705
G1 X83.212 Y89.762 E25.59564
G1 X83.294 Y89.915 E25.6043
G1 X83.395 Y90.053 E25.61283
G1 X83.516 Y90.176 E25.62144
G1 X83.654 Y90.28 E25.63006
G1 X83.804 Y90.363 E25.63861
G1 X83.965 Y90.424 E25.6472
G1 X84.132 Y90.461 E25.65574
G1 X84.296 Y90.475 E25.66395
G1 X115.722 Y90.475 E27.2318
G1 X115.888 Y90.462 E27.2401
G1 X116.054 Y90.425 E27.24859
G1 X116.216 Y90.364 E27.25723
G1 X116.367 Y90.281 E27.26582
G1 X116.504 Y90.176 E27.27443
G1 X116.623 Y90.053 E27.28297
G1 X116.726 Y89.915 E27.29156
G1 X116.807 Y89.763 E27.30016
G1 X116.866 Y89.6 E27.3088
G1 X116.9 Y89.433 E27.31731
G1 X116.91 Y89.282 E27.32486
G1 X116.91 Y88.869 E27.34546
G1 X116.901 Y88.72 E27.35291
G1 X116.867 Y88.552 E27.36146
G1 X116.808 Y88.389 E27.37011
G1 X116.727 Y88.237 E27.3787
G1 X116.624 Y88.099 E27.38729
G1 X116.505 Y87.976 E27.39583
G1 X116.368 Y87.871 E27.40444
G1 X116.217 Y87.788 E27.41304
G1 X116.055 Y87.727 E27.42168
G1 X115.889 Y87.69 E27.43016
G1 X115.723 Y87.676 E27.43847
G1 X84.297 Y87.675 E29.00632
G1 X84.133 Y87.689 E29.01453
G1 X83.966 Y87.726 E29.02307
G1 X83.805 Y87.787 E29.03166
G1 X83.655 Y87.87 E29.04021
G1 X83.517 Y87.974 E29.04883
G1 X83.396 Y88.097 E29.05744
G1 X83.295 Y88.235 E29.06597
G1 X83.213 Y88.388 E29.07463
G0 F3600 X83.155 Y88.55
G0 X83.15 Y88.577
G0 X82.66 Y88.476
G0 X81.023 Y87.215
G0 X81.021 Y86.716
G1 F1800 X119 Y86.716 E30.96941
G1 X119.194 Y86.725 E30.9791
G1 X119.387 Y86.756 E30.98885
G1 X119.56 Y86.802 E30.99778
G1 X119.744 Y86.873 E31.00762
G1 X119.905 Y86.955 E31.01664
G1 X120.07 Y87.062 E31.02645
G1 X120.217 Y87.181 E31.03588
G1 X120.345 Y87.309 E31.04491
G1 X120.463 Y87.455 E31.05428
G1 X120.57 Y87.62 E31.06409
G1 X120.652 Y87.781 E31.0731
G1 X120.725 Y87.971 E31.08326
G1 X120.768 Y88.133 E31.09162
G1 X120.799 Y88.327 E31.10142
G1 X120.81 Y88.527 E31.11142
G1 X120.81 Y113.283 E32.3465
G1 X110.73 Y113.283 E32.84939
G1 X110.724 Y113.006 E32.86321
G1 X110.691 Y112.52 E32.88752
G1 X110.635 Y112.035 E32.91187
G1 X110.557 Y111.553 E32.93623
G1 X110.457 Y111.076 E32.96055
G1 X110.334 Y110.604 E32.98488
G1 X110.191 Y110.138 E33.0092
G1 X110.016 Y109.659 E33.03464
G1 X109.829 Y109.209 E33.05896
G1 X109.622 Y108.769 E33.08322
G1 X109.394 Y108.338 E33.10754
G1 X109.147 Y107.917 E33.13189
G1 X108.88 Y107.51 E33.15618
G1 X108.595 Y107.114 E33.18052
G1 X108.292 Y106.733 E33.20481
G1 X107.972 Y106.366 E33.2291
G1 X107.634 Y106.014 E33.25345
G1 X107.282 Y105.678 E33.27772
G1 X106.914 Y105.359 E33.30202
G1 X106.531 Y105.056 E33.32638
G1 X106.135 Y104.773 E33.35067
G1 X105.727 Y104.507 E33.37497
G1 X105.307 Y104.261 E33.39925
G1 X104.875 Y104.034 E33.4236
G1 X104.434 Y103.827 E33.4479
G1 X103.983 Y103.641 E33.47224
G1 X103.524 Y103.476 E33.49658
G1 X103.06 Y103.334 E33.52078
G1 X102.588 Y103.21 E33.54513
G1 X102.11 Y103.111 E33.56949
G1 X101.629 Y103.033 E33.5938
G1 X101.145 Y102.978 E33.6181
G1 X100.659 Y102.945 E33.6424
G1 X100.172 Y102.933 E33.6667
G1 X99.685 Y102.946 E33.69101
G1 X99.199 Y102.98 E33.71532
G1 X98.715 Y103.037 E33.73963
G1 X98.236 Y103.115 E33.76384
G1 X97.759 Y103.216 E33.78817
G1 X97.287 Y103.34 E33.81251
G1 X96.821 Y103.484 E33.83685
G1 X96.363 Y103.65 E33.86115
G1 X95.914 Y103.837 E33.88542
G1 X95.473 Y104.045 E33.90974
G1 X95.041 Y104.272 E33.93409
G1 X94.623 Y104.52 E33.95834
G1 X94.214 Y104.786 E33.98268
G1 X93.818 Y105.072 E34.00705
G1 X93.437 Y105.374 E34.03131
G1 X93.07 Y105.694 E34.0556
G1 X92.717 Y106.032 E34.07998
G1 X92.382 Y106.384 E34.10422
G1 X92.062 Y106.751 E34.12852
G1 X91.76 Y107.134 E34.15285
G1 X91.476 Y107.53 E34.17716
G1 X91.211 Y107.939 E34.20148
G1 X90.963 Y108.359 E34.22581
G1 X90.737 Y108.79 E34.25009
G1 X90.53 Y109.231 E34.27439
G1 X90.347 Y109.672 E34.29821
G1 X90.183 Y110.128 E34.32239
G1 X90.039 Y110.594 E34.34672
G1 X89.916 Y111.066 E34.37106
G1 X89.816 Y111.544 E34.39542
G1 X89.738 Y112.025 E34.41973
G1 X89.681 Y112.509 E34.44405
G1 X89.646 Y112.996 E34.46841
G1 X89.639 Y113.284 E34.48278
G1 X79.21 Y113.283 E35.00308
G1 X79.211 Y88.514 E36.23881
G1 X79.223 Y88.309 E36.24906
G1 X79.252 Y88.133 E36.25796
G1 X79.304 Y87.945 E36.26769
G1 X79.369 Y87.779 E36.27658
G1 X79.461 Y87.602 E36.28654
G1 X79.56 Y87.452 E36.2955
G1 X79.689 Y87.295 E36.30564
G1 X79.803 Y87.181 E36.31368
G1 X79.952 Y87.06 E36.32326
G1 X80.109 Y86.958 E36.3326
G1 X80.277 Y86.872 E36.34202
G1 X80.456 Y86.804 E36.35157
G1 X80.632 Y86.757 E36.36066
G1 X80.825 Y86.726 E36.37041
G1 X81.021 Y86.716 E36.3802
G0 F3600 X81.221 Y86.716
G0 X81.073 Y87.295
;TYPE:SKIN
G1 F1800 X82.535 Y88.758 E36.48339
G1 X82.605 Y88.828
G0 F3600 X82.632 Y88.289
G1 F1800 X81.639 Y87.295 E36.55349
G1 X81.569 Y87.225
G0 F3600 X82.204 Y87.295
G1 F1800 X82.815 Y87.906 E36.59659
G1 X82.885 Y87.976
G0 F3600 X83.072 Y87.597
G1 F1800 X82.77 Y87.295 E36.6179
G0 F3600 X82.529 Y89.318
G1 F1800 X80.586 Y87.375 E36.75499
G1 X80.516 Y87.305
G0 F3600 X80.229 Y87.582
G1 F1800 X82.723 Y90.076 E36.93096
G1 X82.793 Y90.146
G0 F3600 X83.507 Y90.861
G1 F1800 X95.871 Y103.225 E37.8033
G1 X95.941 Y103.295
G0 F3600 X95.479 Y103.399
G1 F1800 X79.966 Y87.886 E38.89783
G1 X79.896 Y87.816
G0 F3600 X79.811 Y88.296
G1 F1800 X95.1 Y103.585 E39.97655
G1 X95.17 Y103.655
G0 F3600 X94.729 Y103.78
G1 F1800 X79.79 Y88.841 E41.03058
G1 X79.72 Y88.771
G0 F3600 X79.79 Y89.407
G1 F1800 X94.374 Y103.99 E42.05952
G1 X94.444 Y104.06
G0 F3600 X94.03 Y104.212
G1 F1800 X79.79 Y89.972 E43.06423
G1 X79.72 Y89.902
G0 F3600 X79.79 Y90.538
G1 F1800 X93.695 Y104.443 E44.0453
G1 X93.765 Y104.513
G0 F3600 X93.37 Y104.684
G1 F1800 X79.79 Y91.104 E45.00345
G1 X79.72 Y91.034
G0 F3600 X79.79 Y91.67
G1 F1800 X93.055 Y104.935 E45.93936
G1 X93.125 Y105.005
G0 F3600 X92.753 Y105.198
G1 F1800 X79.79 Y92.235 E46.85397
G1 X79.72 Y92.165
G0 F3600 X79.79 Y92.801
G1 F1800 X92.461 Y105.472 E47.74798
G1 X92.531 Y105.542
G0 F3600 X92.179 Y105.755
G1 F1800 X79.79 Y93.367 E48.62206
G1 X79.72 Y93.297
G0 F3600 X79.79 Y93.932
G1 F1800 X91.904 Y106.046 E49.47677
G1 X91.974 Y106.116
G0 F3600 X91.642 Y106.35
G1 F1800 X79.79 Y94.498 E50.31299
G1 X79.72 Y94.428
G0 F3600 X79.79 Y95.064
G1 F1800 X91.391 Y106.664 E51.13147
G1 X91.461 Y106.734
G0 F3600 X91.15 Y106.989
G1 F1800 X79.79 Y95.629 E51.93298
G1 X79.72 Y95.559
G0 F3600 X79.79 Y96.195
G1 F1800 X90.919 Y107.323 E52.71815
G1 X90.989 Y107.393
G0 F3600 X90.697 Y107.668
G1 F1800 X79.79 Y96.761 E53.4877
G1 X79.72 Y96.691
G0 F3600 X79.79 Y97.326
G1 F1800 X90.487 Y108.023 E54.24243
G1 X90.557 Y108.093
G0 F3600 X90.291 Y108.393
G1 F1800 X79.79 Y97.892 E54.98333
G1 X79.72 Y97.822
G0 F3600 X79.79 Y98.458
G1 F1800 X90.105 Y108.772 E55.71108
G1 X90.175 Y108.842
G0 F3600 X89.929 Y109.163
G1 F1800 X79.79 Y99.023 E56.42647
G1 X79.72 Y98.953
G0 F3600 X79.79 Y99.589
G1 F1800 X89.767 Y109.566 E57.1304
G1 X89.837 Y109.636
G0 F3600 X89.62 Y109.984
G1 F1800 X79.79 Y100.155 E57.82393
G1 X79.72 Y100.085
G0 F3600 X79.789 Y100.72
G1 F1800 X89.486 Y110.416 E58.50807
