;FLAVOR:Marlin
;TIME:2367
;Filament used: 1.24022m
;Layer height: 0.1
;Generated with Cura_SteamEngine 3.0.4
M190 S60
M104 S200
M109 S200
M82 ; absolute extrusion mode
G21 ;metric values
G90 ;absolute positioning
M82 ;set extruder to absolute mode
M107 ;start with the fan off
G28 X0 Y0 ;move X/Y to min endstops
G28 Z0 ;move Z to min endstops
G1 Z15.0 F9000 ;move the platform down 15mm
G92 E0 ;zero the extruded length
G1 F200 E3 ;extrude 3mm of feed stock
G92 E0 ;zero the extruded length again
G1 F9000
;Put printing message on LCD screen
M117 Printing...
;LAYER_COUNT:238
;LAYER:0
M107
G0 F3600 X78.9 Y90.378 Z0.3
;TYPE:SKIRT
G1 F1800 X79.329 Y90.01 E0.0282
G1 X79.587 Y89.835 E0.04375
G1 X81.111 Y88.88 E0.13348
G1 X81.61 Y88.614 E0.16169
G1 X81.915 Y88.493 E0.17806
G1 X83.672 Y87.879 E0.27092
G1 X84.218 Y87.731 E0.29914
G1 X84.541 Y87.681 E0.31545
G1 X86.364 Y87.474 E0.40698
G1 X87.167 Y87.464 E0.44705
G1 X94.012 Y88.069 E0.78987
G1 X99.454 Y88.223 E1.06149
G1 X110.823 Y88.234 E1.62869
G1 X111.387 Y88.274 E1.6569
G1 X111.939 Y88.394 E1.68508
G1 X112.469 Y88.59 E1.71327
G1 X112.967 Y88.859 E1.74151
G1 X113.421 Y89.196 E1.76972
G1 X113.823 Y89.593 E1.79791
G1 X114.166 Y90.043 E1.82613
G1 X114.441 Y90.537 E1.85434
G1 X114.644 Y91.064 E1.88252
G1 X114.771 Y91.615 E1.91073
G1 X114.819 Y92.234 E1.9417
G1 X114.82 Y108.213 E2.7389
G1 X114.78 Y108.777 E2.76711
G1 X114.661 Y109.329 E2.79528
G1 X114.465 Y109.86 E2.82352
G1 X114.197 Y110.357 E2.85169
G1 X113.861 Y110.812 E2.87991
G1 X113.464 Y111.215 E2.90813
G1 X113.014 Y111.557 E2.93633
G1 X112.521 Y111.833 E2.96452
G1 X111.994 Y112.037 E2.99271
G1 X111.443 Y112.164 E3.02092
G1 X110.82 Y112.213 E3.0521
G1 X96.52 Y112.213 E3.76553
G1 X96.296 Y112.207 E3.77671
G1 X93.679 Y112.06 E3.90747
G1 X86.789 Y111.998 E4.25123
G1 X86.368 Y111.972 E4.27228
G1 X84.516 Y111.759 E4.36528
G1 X83.96 Y111.655 E4.3935
G1 X83.652 Y111.561 E4.40957
G1 X81.908 Y110.951 E4.50174
G1 X81.389 Y110.727 E4.52995
G1 X81.094 Y110.558 E4.54691
G1 X79.525 Y109.568 E4.63947
G1 X79.07 Y109.233 E4.66765
G1 X78.827 Y109.009 E4.68414
G1 X77.517 Y107.695 E4.77671
G1 X77.147 Y107.268 E4.8049
G1 X76.958 Y106.991 E4.82163
G1 X75.972 Y105.413 E4.91446
G1 X75.707 Y104.913 E4.94269
G1 X75.587 Y104.609 E4.959
G1 X74.988 Y102.889 E5.04986
G1 X74.84 Y102.343 E5.07809
G1 X74.783 Y101.948 E5.098
G1 X74.592 Y99.922 E5.19952
G1 X74.579 Y99.357 E5.22772
G1 X74.638 Y98.836 E5.25388
G1 X74.887 Y97.457 E5.32379
G1 X74.923 Y97.279 E5.33285
G1 X75.244 Y95.87 E5.40495
G1 X75.399 Y95.353 E5.43187
G1 X75.646 Y94.695 E5.46694
G1 X76.017 Y93.952 E5.50837
G1 X77.023 Y92.373 E5.60178
G1 X77.36 Y91.919 E5.62999
G1 X77.586 Y91.676 E5.64654
G1 X78.9 Y90.378 E5.73869
G0 F3600 X79.181 Y90.663
G1 F1800 X79.799 Y90.173 E5.77804
G1 X81.323 Y89.218 E5.86776
G1 X82.047 Y88.871 E5.90782
G1 X83.804 Y88.257 E6.00067
G1 X84.586 Y88.078 E6.0407
G1 X86.409 Y87.871 E6.13223
G1 X87.132 Y87.862 E6.16831
G1 X93.982 Y88.468 E6.51139
G1 X99.479 Y88.623 E6.78574
G1 X110.822 Y88.634 E7.35165
G1 X111.357 Y88.674 E7.37841
G1 X111.88 Y88.794 E7.40518
G1 X112.379 Y88.99 E7.43193
G1 X112.844 Y89.257 E7.45868
G1 X113.264 Y89.591 E7.48545
G1 X113.629 Y89.984 E7.51221
G1 X113.932 Y90.426 E7.53895
G1 X114.166 Y90.909 E7.56572
G1 X114.326 Y91.421 E7.59249
G1 X114.408 Y91.951 E7.61924
G1 X114.419 Y92.234 E7.63337
G1 X114.42 Y108.213 E8.43057
G1 X114.38 Y108.748 E8.45733
G1 X114.261 Y109.271 E8.48409
G1 X114.066 Y109.77 E8.51082
G1 X113.799 Y110.235 E8.53757
G1 X113.465 Y110.655 E8.56435
G1 X113.073 Y111.021 E8.5911
G1 X112.631 Y111.324 E8.61784
G1 X112.149 Y111.559 E8.64459
G1 X111.637 Y111.719 E8.67135
G1 X111.107 Y111.802 E8.69812
G1 X110.82 Y111.813 E8.71244
G1 X96.52 Y111.813 E9.42587
G1 X96.318 Y111.807 E9.43596
G1 X93.705 Y111.66 E9.56653
G1 X86.793 Y111.598 E9.91138
G1 X86.414 Y111.574 E9.93033
G1 X84.562 Y111.361 E10.02333
G1 X83.784 Y111.183 E10.06315
G1 X82.04 Y110.573 E10.15533
G1 X81.549 Y110.359 E10.18205
G1 X81.308 Y110.22 E10.19593
G1 X79.739 Y109.23 E10.28849
G1 X79.308 Y108.91 E10.31527
G1 X79.111 Y108.727 E10.32868
G1 X77.801 Y107.413 E10.42125
G1 X77.451 Y107.006 E10.44803
G1 X77.297 Y106.779 E10.46172
G1 X76.311 Y105.201 E10.55455
G1 X75.964 Y104.477 E10.5946
G1 X75.365 Y102.757 E10.68547
G1 X75.227 Y102.239 E10.71222
G1 X75.181 Y101.911 E10.72874
G1 X74.99 Y99.885 E10.83026
G1 X74.979 Y99.349 E10.85701
G1 X75.031 Y98.907 E10.87922
G1 X75.28 Y97.528 E10.94913
G1 X75.313 Y97.368 E10.95728
G1 X75.634 Y95.959 E11.02937
G1 X75.774 Y95.494 E11.0536
G1 X76.021 Y94.836 E11.08867
G1 X76.355 Y94.167 E11.12597
G1 X77.361 Y92.588 E11.21938
G1 X77.682 Y92.158 E11.24615
G1 X77.867 Y91.961 E11.25963
G1 X79.181 Y90.663 E11.35178
G0 F3600 X79.462 Y90.947
G1 F1800 X80.012 Y90.512 E11.38676
G1 X81.536 Y89.557 E11.47649
G1 X82.179 Y89.248 E11.51208
G1 X83.936 Y88.634 E11.60494
G1 X84.631 Y88.475 E11.64051
G1 X86.454 Y88.268 E11.73204
G1 X87.097 Y88.26 E11.76412
G1 X93.969 Y88.868 E12.10831
G1 X99.466 Y89.023 E12.38266
G1 X110.822 Y89.034 E12.94922
G1 X111.326 Y89.074 E12.97444
G1 X111.817 Y89.194 E12.99966
G1 X112.284 Y89.389 E13.0249
G1 X112.714 Y89.655 E13.05013
G1 X113.096 Y89.986 E13.07535
G1 X113.422 Y90.372 E13.10055
G1 X113.682 Y90.805 E13.12575
G1 X113.872 Y91.274 E13.151
G1 X113.985 Y91.767 E13.17623
G1 X114.019 Y92.234 E13.19959
G1 X114.02 Y108.213 E13.99679
G1 X113.98 Y108.717 E14.02201
G1 X113.861 Y109.208 E14.04722
G1 X113.667 Y109.675 E14.07245
G1 X113.401 Y110.105 E14.09767
G1 X113.071 Y110.488 E14.12289
G1 X112.684 Y110.814 E14.14814
G1 X112.251 Y111.075 E14.17336
G1 X111.783 Y111.265 E14.19856
G1 X111.29 Y111.378 E14.2238
G1 X110.82 Y111.413 E14.24731
G1 X96.52 Y111.413 E14.96074
G1 X96.341 Y111.408 E14.96967
G1 X93.71 Y111.26 E15.10114
G1 X86.796 Y111.198 E15.4461
G1 X86.459 Y111.177 E15.46294
G1 X84.607 Y110.964 E15.55595
G1 X83.916 Y110.806 E15.59131
G1 X82.172 Y110.196 E15.68349
G1 X81.521 Y109.881 E15.71957
G1 X79.952 Y108.891 E15.81213
G1 X79.394 Y108.444 E15.8478
G1 X78.084 Y107.13 E15.94036
G1 X77.636 Y106.567 E15.97626
G1 X76.65 Y104.989 E16.06909
G1 X76.342 Y104.345 E16.10471
G1 X75.743 Y102.625 E16.19557
G1 X75.615 Y102.136 E16.22079
G1 X75.579 Y101.873 E16.23403
G1 X75.388 Y99.847 E16.33556
G1 X75.381 Y99.342 E16.36076
G1 X75.425 Y98.978 E16.37905
G1 X75.674 Y97.599 E16.44896
G1 X75.703 Y97.457 E16.45619
G1 X76.024 Y96.048 E16.52829
G1 X76.148 Y95.634 E16.54985
G1 X76.395 Y94.976 E16.58491
G1 X76.692 Y94.382 E16.61805
G1 X77.698 Y92.803 E16.71145
G1 X78.148 Y92.245 E16.74722
G1 X79.462 Y90.947 E16.83936
G1 F1500 E10.33936
G0 F3600 X81.145 Y92.821
G0 X82.053 Y93.729
G0 X82.103 Y93.792
G0 X82.041 Y93.714
;TYPE:WALL-INNER
G1 F1500 E16.83936
G1 F1800 X82.072 Y93.695 E16.84118
G1 X83.462 Y92.823 E16.92304
G1 X83.491 Y92.804 E16.92477
G1 X83.533 Y92.79 E16.92698
G1 X85.081 Y92.25 E17.00877
G1 X85.122 Y92.235 E17.01095
G1 X85.157 Y92.231 E17.01271
G1 X86.789 Y92.046 E17.09465
G1 X86.828 Y92.041 E17.09661
G1 X86.867 Y92.045 E17.09857
G1 X88.499 Y92.231 E17.18052
G1 X88.534 Y92.235 E17.18227
G1 X88.574 Y92.249 E17.18439
G1 X90.121 Y92.789 E17.26614
G1 X90.164 Y92.804 E17.26841
G1 X90.193 Y92.822 E17.27011
G1 X91.583 Y93.695 E17.352
G1 X91.614 Y93.715 E17.35384
G1 X91.645 Y93.746 E17.35603
G1 X92.804 Y94.907 E17.43787
G1 X92.832 Y94.935 E17.43985
G1 X92.852 Y94.968 E17.44177
G1 X93.726 Y96.355 E17.52356
G1 X93.747 Y96.389 E17.52556
G1 X93.76 Y96.426 E17.52751
G1 X94.302 Y97.975 E17.60939
G1 X94.315 Y98.012 E17.61134
G1 X94.319 Y98.052 E17.61335
G1 X94.502 Y99.683 E17.69523
G1 X94.507 Y99.726 E17.69739
G1 X94.503 Y99.761 E17.69915
G1 X94.319 Y101.392 E17.78104
G1 X94.314 Y101.429 E17.7829
G1 X94.301 Y101.468 E17.78495
G1 X93.759 Y103.018 E17.86687
G1 X93.744 Y103.059 E17.86905
G1 X93.725 Y103.089 E17.87082
G1 X92.855 Y104.477 E17.95255
G1 X92.833 Y104.511 E17.95457
G1 X92.804 Y104.54 E17.95661
G1 X91.646 Y105.698 E18.03832
G1 X91.618 Y105.726 E18.04029
G1 X91.584 Y105.747 E18.04229
G1 X90.195 Y106.622 E18.12419
G1 X90.161 Y106.643 E18.12618
G1 X90.123 Y106.656 E18.12818
G1 X88.573 Y107.196 E18.21007
G1 X88.534 Y107.21 E18.21214
G1 X88.498 Y107.214 E18.21395
G1 X86.867 Y107.399 E18.29584
G1 X86.828 Y107.404 E18.2978
G1 X86.789 Y107.4 E18.29976
G1 X85.158 Y107.215 E18.38165
G1 X85.122 Y107.21 E18.38346
G1 X85.083 Y107.197 E18.38551
G1 X83.535 Y106.657 E18.46731
G1 X83.492 Y106.642 E18.46958
G1 X83.462 Y106.623 E18.47135
G1 X82.073 Y105.751 E18.55317
G1 X82.039 Y105.729 E18.55519
G1 X82.011 Y105.701 E18.55717
G1 X80.851 Y104.542 E18.63898
G1 X80.822 Y104.513 E18.64103
G1 X80.801 Y104.479 E18.64302
G1 X79.93 Y103.09 E18.72481
G1 X79.91 Y103.059 E18.72665
G1 X79.896 Y103.018 E18.72882
G1 X79.357 Y101.477 E18.81026
G1 X79.34 Y101.428 E18.81285
G1 X79.337 Y101.4 E18.81426
G1 X79.326 Y101.305 E18.81903
G1 X79.301 Y101.089 E18.82988
G1 X79.49 Y101.238
G1 X79.542 Y101.28
G1 X79.694 Y101.359 E18.83404
G1 X80.233 Y102.899 E18.90668
G1 X81.106 Y104.286 E18.97996
G1 X82.264 Y105.446 E19.05346
G1 X83.652 Y106.319 E19.12666
G1 X85.2 Y106.858 E19.19956
G1 X86.828 Y107.043 E19.27282
G1 X88.456 Y106.858 E19.34598
G1 X90.004 Y106.319 E19.41886
G1 X91.392 Y105.445 E19.4919
G1 X92.55 Y104.287 E19.56492
G1 X93.422 Y102.9 E19.63797
G1 X93.963 Y101.351 E19.71082
G1 X94.148 Y99.722 E19.78391
G1 X93.964 Y98.093 E19.8568
G1 X93.424 Y96.545 E19.92969
G1 X92.55 Y95.159 E20.00255
G1 X91.393 Y93.999 E20.0754
G1 X90.003 Y93.127 E20.14868
G1 X88.457 Y92.588 E20.22179
G1 X86.828 Y92.402 E20.2951
G1 X85.199 Y92.588 E20.3684
G1 X83.652 Y93.127 E20.44144
G1 X82.265 Y94 E20.51482
G1 X81.105 Y95.158 E20.59659
G1 X80.233 Y96.546 E20.67837
G1 X80.027 Y97.134 E20.70946
G1 X79.97 Y97.297 E20.71807
G1 X79.689 Y97.016 E20.72745
G1 X79.896 Y96.427 E20.75529
G1 X79.909 Y96.39 E20.75725
G1 X79.93 Y96.357 E20.7592
G1 X80.801 Y94.968 E20.83231
G1 X80.822 Y94.934 E20.8343
G1 X80.85 Y94.905 E20.83621
G1 X82.01 Y93.745 E20.90977
G1 X82.041 Y93.714 E20.91185
G0 F3600 X82.103 Y93.792
G0 X81.074 Y95.134
G0 X80.197 Y96.529
G0 X79.948 Y97.2
G0 X80.241 Y97.731
;TYPE:WALL-OUTER
G1 F1800 X80.137 Y98.03 E20.92765
G1 X79.913 Y97.806 E20.93675
G1 X79.229 Y97.122 E20.98501
G1 X79.548 Y96.212 E21.03312
G1 X80.507 Y94.684 E21.12312
G1 X81.79 Y93.399 E21.21371
G1 X83.317 Y92.441 E21.30365
G1 X85.029 Y91.843 E21.39412
G1 X86.828 Y91.639 E21.48445
G1 X88.627 Y91.843 E21.57478
G1 X90.339 Y92.441 E21.66525
G1 X91.865 Y93.4 E21.75517
G1 X93.147 Y94.684 E21.84569
G1 X94.11 Y96.214 E21.93588
G1 X94.708 Y97.923 E22.02621
G1 X94.91 Y99.722 E22.11653
G1 X94.706 Y101.522 E22.20691
G1 X94.107 Y103.234 E22.2974
G1 X93.148 Y104.762 E22.3874
G1 X91.869 Y106.041 E22.47764
G1 X90.336 Y107.006 E22.56801
G1 X88.627 Y107.602 E22.65831
G1 X86.828 Y107.806 E22.74864
G1 X85.029 Y107.602 E22.83897
G1 X83.317 Y107.005 E22.92942
G1 X81.788 Y106.044 E23.01952
G1 X80.507 Y104.764 E23.10987
G1 X79.547 Y103.234 E23.19998
G1 X78.948 Y101.521 E23.29052
G1 X78.848 Y100.64 E23.33475
G1 X78.785 Y100.074 E23.36317
G1 X79.188 Y100.476 E23.37816
G1 X79.189 Y100.477 E23.37823
G1 X79.25 Y100.538 E23.38254
G1 X79.76 Y100.943 E23.41503
G1 X80.067 Y101.102 E23.43228
G1 X80.084 Y101.262 E23.4403
G1 X80.596 Y102.724 E23.51759
G1 X81.421 Y104.035 E23.59487
G1 X82.515 Y105.131 E23.67212
G1 X83.827 Y105.956 E23.74945
G1 X85.289 Y106.466 E23.8267
G1 X86.828 Y106.64 E23.90397
G1 X88.367 Y106.466 E23.98124
G1 X89.829 Y105.956 E24.05849
G1 X91.141 Y105.13 E24.13583
G1 X92.235 Y104.036 E24.21302
G1 X93.059 Y102.725 E24.29027
G1 X93.571 Y101.261 E24.36765
G1 X93.745 Y99.722 E24.44492
G1 X93.572 Y98.182 E24.52224
G1 X93.061 Y96.72 E24.5995
G1 X92.235 Y95.41 E24.67677
G1 X91.142 Y94.314 E24.75399
G1 X89.829 Y93.49 E24.83133
G1 X88.367 Y92.98 E24.90858
G1 X86.828 Y92.805 E24.98585
G1 X85.289 Y92.98 E25.06313
G1 X83.827 Y93.49 E25.14038
G1 X82.516 Y94.315 E25.21766
G1 X81.42 Y95.409 E25.29491
G1 X80.596 Y96.721 E25.37221
G1 X80.242 Y97.73 E25.42556
G1 X80.241 Y97.731 E25.42563
G0 F3600 X80.176 Y97.92
G1 F1500 E18.92563
G0 F3600 X79.948 Y97.2
G0 X80.197 Y96.529
G0 X81.074 Y95.134
G0 X82.241 Y93.969
G0 X83.635 Y93.091
G0 X85.191 Y92.55
G0 X86.828 Y92.362
G0 X88.465 Y92.55
G0 X90.02 Y93.091
G0 X91.417 Y93.968
G0 X92.817 Y94.947
G0 X93.903 Y94.262
G0 X95.853 Y94.947
G0 X97.138 Y94.947
G0 X97.188 Y92.893
G0 X97.118 Y92.823
;TYPE:WALL-INNER
G1 F1500 E25.42563
G1 F1800 X110.228 Y92.823 E26.07969
G1 X110.229 Y107.423 E26.80808
G1 X110.229 Y107.623 E26.81806
G1 X110.029 Y107.623 E26.82452
G1 X97.118 Y107.623 E27.46866
G1 X97.118 Y92.823 E28.20703
G0 F3600 X97.188 Y92.893
G0 X110.159 Y107.553
G0 X110.629 Y107.823
;TYPE:WALL-OUTER
G1 F1800 X110.629 Y108.023 E28.21701
G1 X110.429 Y108.023 E28.22347
G1 X96.718 Y108.023 E28.90751
G1 X96.718 Y92.423 E29.6858
G1 X110.628 Y92.423 E30.37977
G1 X110.629 Y107.823 E31.14808
G0 F3600 X110.629 Y108.023
G0 X110.159 Y107.553
G0 X109.829 Y107.223
;TYPE:WALL-INNER
G1 F1800 X97.518 Y107.223 E31.76228
G1 X97.518 Y93.223 E32.46074
G1 X109.828 Y93.223 E33.07489
G1 X109.829 Y107.223 E33.77336
G0 F3600 X97.99 Y107.041
;TYPE:SKIN
G1 F1800 X97.697 Y106.748 E33.79403
G0 F3600 X97.697 Y106.182
G1 F1800 X98.556 Y107.041 E33.85464
G1 X98.626 Y107.111
G0 F3600 X99.122 Y107.041
G1 F1800 X97.697 Y105.617 E33.95514
G1 X97.627 Y105.547
G0 F3600 X97.697 Y105.051
G1 F1800 X99.687 Y107.041 E34.09555
G1 X99.757 Y107.111
G0 F3600 X100.253 Y107.041
G1 F1800 X97.697 Y104.485 E34.27589
G1 X97.627 Y104.415
G0 F3600 X97.697 Y103.919
G1 F1800 X100.819 Y107.041 E34.49616
G1 X100.889 Y107.111
G0 F3600 X101.384 Y107.041
G1 F1800 X97.697 Y103.354 E34.7563
G1 X97.627 Y103.284
G0 F3600 X97.697 Y102.788
G1 F1800 X101.95 Y107.041 E35.05637
G1 X102.02 Y107.111
G0 F3600 X102.516 Y107.041
G1 F1800 X97.697 Y102.222 E35.39638
G1 X97.627 Y102.152
G0 F3600 X97.697 Y101.657
G1 F1800 X103.082 Y107.041 E35.77628
G1 X103.152 Y107.111
G0 F3600 X103.647 Y107.041
G1 F1800 X97.697 Y101.091 E36.19609
G1 X97.627 Y101.021
G0 F3600 X97.697 Y100.525
G1 F1800 X104.214 Y107.042 E36.6559
G1 X104.284 Y107.112
G0 F3600 X104.779 Y107.042
G1 F1800 X97.697 Y99.96 E37.15557
G1 X97.627 Y99.89
G0 F3600 X97.697 Y99.394
G1 F1800 X105.345 Y107.042 E37.69518
G1 X105.415 Y107.112
G0 F3600 X105.911 Y107.042
G1 F1800 X97.697 Y98.828 E38.27472
G1 X97.627 Y98.758
G0 F3600 X97.697 Y98.263
G1 F1800 X106.476 Y107.042 E38.89413
G1 X106.546 Y107.112
G0 F3600 X107.042 Y107.042
G1 F1800 X97.697 Y97.697 E39.55347
G1 X97.627 Y97.627
G0 F3600 X97.697 Y97.131
G1 F1800 X107.608 Y107.042 E40.25274
G1 X107.678 Y107.112
G0 F3600 X108.173 Y107.042
G1 F1800 X97.697 Y96.566 E40.99188
G1 X97.627 Y96.496
G0 F3600 X97.697 Y96
G1 F1800 X108.739 Y107.042 E41.77095
G1 X108.809 Y107.112
G0 F3600 X109.305 Y107.042
G1 F1800 X97.697 Y95.434 E42.58996
G1 X97.627 Y95.364
G0 F3600 X97.697 Y94.868
G1 F1800 X109.648 Y106.819 E43.43317
G1 X109.718 Y106.889
G0 F3600 X109.648 Y106.254
G1 F1800 X97.697 Y94.303 E44.27637
G1 X97.627 Y94.233
G0 F3600 X97.697 Y93.737
G1 F1800 X109.648 Y105.688 E45.11958
G1 X109.718 Y105.758
G0 F3600 X109.648 Y105.122
G1 F1800 X97.928 Y93.403 E45.94646
G1 X97.858 Y93.333
G0 F3600 X98.494 Y93.403
G1 F1800 X109.648 Y104.557 E46.73343
G1 X109.718 Y104.627
G0 F3600 X109.648 Y103.991
G1 F1800 X99.06 Y93.403 E47.48047
G1 X98.99 Y93.333
G0 F3600 X99.625 Y93.403
G1 F1800 X109.648 Y103.425 E48.18761
G1 X109.718 Y103.495
G0 F3600 X109.648 Y102.859
G1 F1800 X100.191 Y93.403 E48.85482
G1 X100.121 Y93.333
G0 F3600 X100.757 Y93.403
G1 F1800 X109.648 Y102.294 E49.48213
G1 X109.718 Y102.364
G0 F3600 X109.648 Y101.728
G1 F1800 X101.322 Y93.403 E50.06954
G1 X101.252 Y93.333
G0 F3600 X101.888 Y93.403
G1 F1800 X109.648 Y101.162 E50.61701
G1 X109.718 Y101.232
G0 F3600 X109.648 Y100.597
G1 F1800 X102.454 Y93.403 E51.12459
G1 X102.384 Y93.333
G0 F3600 X103.019 Y93.403
G1 F1800 X109.647 Y100.03 E51.59219
G1 X109.717 Y100.1
G0 F3600 X109.647 Y99.465
G1 F1800 X103.585 Y93.403 E52.0199
G1 X103.515 Y93.333
G0 F3600 X104.151 Y93.403
G1 F1800 X109.647 Y98.899 E52.40767
G1 X109.717 Y98.969
G0 F3600 X109.647 Y98.333
G1 F1800 X104.716 Y93.403 E52.75555
G1 X104.646 Y93.333
G0 F3600 X105.282 Y93.403
G1 F1800 X109.647 Y97.768 E53.06352
