;FLAVOR:RepRap
;TIME:2689
;Filament used: 1.39604m
;Layer height: 0.1
;Generated with Cura_SteamEngine 2.5.0
M190 S50
M104 S210
M109 S210
G21 ;metric values
G90 ;absolute positioning
M82 ;set extruder to absolute mode
M107 ;start with the fan off
G28 X0 Y0 ;move X/Y to min endstops
G28 Z0 ;move Z to min endstops
G1 Z15.0 F9000 ;move the platform down 15mm
G92 E0 ;zero the extruded length
G1 F200 E3 ;extrude 3mm of feed stock
G92 E0 ;zero the extruded length again
G1 F9000
;Put printing message on LCD screen
M117 Printing...
;LAYER_COUNT:238
;LAYER:0
M107
G0 F3600 X80.815 Y88.01 Z0.3
;TYPE:SKIRT
G1 F1800 X81.401 Y87.48 E0.03942
G1 X82.187 Y86.916 E0.08768
G1 X83.76 Y85.929 E0.18033
G1 X84.45 Y85.544 E0.21975
G1 X85.331 Y85.173 E0.26744
G1 X87.084 Y84.56 E0.36009
G1 X87.842 Y84.338 E0.3995
G1 X88.779 Y84.173 E0.44696
G1 X90.62 Y83.964 E0.5394
G1 X91.408 Y83.915 E0.57879
G1 X92.379 Y83.964 E0.6273
G1 X94.221 Y84.173 E0.71978
G1 X95.001 Y84.301 E0.75922
G1 X95.917 Y84.56 E0.80671
G1 X97.67 Y85.173 E0.89936
G1 X98.1 Y85.348 E0.92252
G1 X98.475 Y85.187 E0.94288
G1 X99.228 Y84.95 E0.98227
G1 X100.002 Y84.791 E1.02169
G1 X100.787 Y84.71 E1.06106
G1 X101.189 Y84.7 E1.08112
G1 X115.499 Y84.7 E1.79505
G1 X116.288 Y84.74 E1.83446
G1 X117.068 Y84.859 E1.87383
G1 X117.833 Y85.057 E1.91325
G1 X118.573 Y85.331 E1.95262
G1 X119.282 Y85.679 E1.99202
G1 X119.953 Y86.097 E2.03147
G1 X120.577 Y86.58 E2.07083
G1 X121.15 Y87.123 E2.11022
G1 X121.665 Y87.722 E2.14963
G1 X122.116 Y88.37 E2.18902
G1 X122.5 Y89.061 E2.22846
G1 X122.812 Y89.786 E2.26783
G1 X123.049 Y90.539 E2.30722
G1 X123.208 Y91.313 E2.34664
G1 X123.289 Y92.098 E2.38601
G1 X123.299 Y92.5 E2.40607
G1 X123.3 Y108.5 E3.20432
G1 X123.26 Y109.288 E3.24368
G1 X123.141 Y110.069 E3.28309
G1 X122.943 Y110.833 E3.32247
G1 X122.669 Y111.574 E3.36188
G1 X122.321 Y112.283 E3.40129
G1 X121.904 Y112.953 E3.44066
G1 X121.421 Y113.578 E3.48007
G1 X120.877 Y114.151 E3.51949
G1 X120.278 Y114.665 E3.55886
G1 X119.63 Y115.117 E3.59828
G1 X118.94 Y115.501 E3.63768
G1 X118.214 Y115.812 E3.67708
G1 X117.461 Y116.049 E3.71646
G1 X116.688 Y116.209 E3.75585
G1 X115.902 Y116.29 E3.79527
G1 X115.5 Y116.3 E3.81533
G1 X101.189 Y116.3 E4.52931
G1 X100.4 Y116.26 E4.56872
G1 X99.62 Y116.141 E4.60809
G1 X98.855 Y115.943 E4.64751
G1 X98.115 Y115.669 E4.68688
G1 X97.406 Y115.321 E4.72628
G1 X96.991 Y115.063 E4.75066
G1 X95.909 Y115.44 E4.80783
G1 X95.151 Y115.662 E4.84723
G1 X94.221 Y115.825 E4.89434
G1 X92.379 Y116.034 E4.98682
G1 X91.591 Y116.083 E5.02621
G1 X90.62 Y116.034 E5.07472
G1 X88.779 Y115.825 E5.16716
G1 X88 Y115.697 E5.20654
G1 X87.092 Y115.44 E5.25362
G1 X85.339 Y114.829 E5.34624
G1 X84.607 Y114.532 E5.38565
G1 X83.755 Y114.068 E5.43405
G1 X82.183 Y113.08 E5.52668
G1 X81.537 Y112.626 E5.56608
G1 X80.821 Y111.994 E5.61372
G1 X79.511 Y110.685 E5.70611
G1 X78.981 Y110.099 E5.74553
G1 X78.417 Y109.313 E5.7938
G1 X77.43 Y107.74 E5.88644
G1 X77.045 Y107.05 E5.92587
G1 X76.674 Y106.167 E5.97365
G1 X76.061 Y104.413 E6.06635
G1 X75.838 Y103.656 E6.10572
G1 X75.66 Y102.586 E6.15983
G1 X75.468 Y100.589 E6.25992
G1 X75.432 Y99.801 E6.29928
G1 X75.476 Y99.012 E6.3387
G1 X75.6 Y98.232 E6.37811
G1 X75.802 Y97.469 E6.41748
G1 X75.874 Y97.279 E6.42762
G1 X75.873 Y97.257 E6.42872
G1 X75.933 Y96.47 E6.4681
G1 X76.072 Y95.692 E6.50753
G1 X76.311 Y94.869 E6.55028
G1 X76.678 Y93.823 E6.60559
G1 X76.977 Y93.092 E6.64499
G1 X77.431 Y92.259 E6.69232
G1 X78.418 Y90.686 E6.78497
G1 X78.871 Y90.04 E6.82433
G1 X79.507 Y89.319 E6.87229
G1 X80.815 Y88.01 E6.96462
G0 F3600 X81.098 Y88.292
G1 F1800 X81.67 Y87.777 E7.00302
G1 X82.4 Y87.255 E7.04779
G1 X83.973 Y86.268 E7.14044
G1 X84.645 Y85.893 E7.17883
G1 X85.463 Y85.551 E7.22306
G1 X87.216 Y84.938 E7.31571
G1 X87.955 Y84.722 E7.35412
G1 X88.824 Y84.57 E7.39814
G1 X90.665 Y84.361 E7.49058
G1 X91.433 Y84.314 E7.52896
G1 X92.334 Y84.361 E7.57397
G1 X94.176 Y84.57 E7.66646
G1 X94.935 Y84.696 E7.70485
G1 X95.785 Y84.938 E7.74894
G1 X97.538 Y85.551 E7.84159
G1 X98.096 Y85.779 E7.87166
G1 X98.125 Y85.764 E7.87329
G1 X98.84 Y85.483 E7.91162
G1 X99.582 Y85.277 E7.95004
G1 X100.34 Y85.149 E7.98839
G1 X101.189 Y85.1 E8.03082
G1 X115.499 Y85.1 E8.74475
G1 X116.267 Y85.14 E8.78311
G1 X117.027 Y85.259 E8.82149
G1 X117.77 Y85.457 E8.85985
G1 X118.489 Y85.731 E8.89824
G1 X119.175 Y86.078 E8.9366
G1 X119.822 Y86.494 E8.97497
G1 X120.422 Y86.975 E9.01334
G1 X120.969 Y87.516 E9.05172
G1 X121.457 Y88.111 E9.09011
G1 X121.88 Y88.753 E9.12847
G1 X122.235 Y89.436 E9.16687
G1 X122.516 Y90.151 E9.2052
G1 X122.722 Y90.893 E9.24362
G1 X122.85 Y91.651 E9.28197
G1 X122.899 Y92.5 E9.3244
G1 X122.9 Y108.5 E10.12264
G1 X122.86 Y109.268 E10.16101
G1 X122.741 Y110.027 E10.19934
G1 X122.543 Y110.771 E10.23775
G1 X122.269 Y111.49 E10.27613
G1 X121.922 Y112.176 E10.31449
G1 X121.506 Y112.823 E10.35286
G1 X121.025 Y113.423 E10.39123
G1 X120.484 Y113.97 E10.42961
G1 X119.889 Y114.458 E10.468
G1 X119.247 Y114.881 E10.50636
G1 X118.565 Y115.236 E10.54472
G1 X117.849 Y115.517 E10.58309
G1 X117.108 Y115.723 E10.62146
G1 X116.349 Y115.851 E10.65986
G1 X115.5 Y115.9 E10.70229
G1 X101.189 Y115.9 E11.41627
G1 X100.421 Y115.86 E11.45464
G1 X99.661 Y115.741 E11.49302
G1 X98.918 Y115.543 E11.53138
G1 X98.199 Y115.269 E11.56977
G1 X97.513 Y114.922 E11.60812
G1 X97.045 Y114.621 E11.63588
G1 X95.778 Y115.063 E11.70283
G1 X95.039 Y115.278 E11.74123
G1 X94.176 Y115.428 E11.78493
G1 X92.334 Y115.637 E11.87741
G1 X91.567 Y115.684 E11.91575
G1 X90.665 Y115.637 E11.96081
G1 X88.824 Y115.428 E12.05325
G1 X88.066 Y115.301 E12.0916
G1 X87.223 Y115.063 E12.1353
G1 X85.47 Y114.452 E12.22791
G1 X84.758 Y114.161 E12.26629
G1 X83.968 Y113.729 E12.31121
G1 X82.396 Y112.741 E12.40384
G1 X81.767 Y112.299 E12.44219
G1 X81.103 Y111.711 E12.48644
G1 X79.793 Y110.402 E12.57884
G1 X79.278 Y109.83 E12.61724
G1 X78.756 Y109.1 E12.66201
G1 X77.769 Y107.527 E12.75466
G1 X77.394 Y106.855 E12.79305
G1 X77.051 Y106.035 E12.83739
G1 X76.438 Y104.281 E12.93009
G1 X76.223 Y103.543 E12.96844
G1 X76.058 Y102.548 E13.01876
G1 X75.866 Y100.551 E13.11885
G1 X75.832 Y99.783 E13.1572
G1 X75.878 Y99.015 E13.19559
G1 X76.004 Y98.256 E13.23397
G1 X76.208 Y97.515 E13.27232
G1 X76.28 Y97.33 E13.28222
G1 X76.279 Y97.107 E13.29335
G1 X76.355 Y96.342 E13.3317
G1 X76.509 Y95.588 E13.37009
G1 X76.688 Y95.001 E13.40071
G1 X77.055 Y93.955 E13.45601
G1 X77.347 Y93.243 E13.49441
G1 X77.77 Y92.472 E13.53828
G1 X78.757 Y90.899 E13.63093
G1 X79.199 Y90.27 E13.66928
G1 X79.79 Y89.601 E13.71382
G1 X81.098 Y88.292 E13.80614
G0 F3600 X81.381 Y88.575
G1 F1800 X81.938 Y88.075 E13.84348
G1 X82.613 Y87.594 E13.88483
G1 X84.186 Y86.607 E13.97748
G1 X84.84 Y86.243 E14.01482
G1 X85.595 Y85.928 E14.05564
G1 X87.348 Y85.315 E14.14829
G1 X88.067 Y85.107 E14.18563
G1 X88.869 Y84.968 E14.22624
G1 X90.71 Y84.759 E14.31867
G1 X91.457 Y84.714 E14.35601
G1 X92.289 Y84.759 E14.39758
G1 X94.131 Y84.968 E14.49007
G1 X94.869 Y85.092 E14.5274
G1 X95.653 Y85.315 E14.56807
G1 X97.406 Y85.928 E14.66072
G1 X98.098 Y86.213 E14.69805
G1 X98.114 Y86.222 E14.69897
G1 X98.497 Y86.038 E14.72017
G1 X99.202 Y85.788 E14.75749
G1 X99.93 Y85.614 E14.79483
G1 X100.672 Y85.519 E14.83215
G1 X101.189 Y85.5 E14.85796
G1 X115.499 Y85.5 E15.57189
G1 X116.246 Y85.54 E15.60921
G1 X116.984 Y85.659 E15.64651
G1 X117.706 Y85.857 E15.68386
G1 X118.402 Y86.13 E15.72116
G1 X119.065 Y86.477 E15.75849
G1 X119.688 Y86.892 E15.79584
G1 X120.262 Y87.371 E15.83313
G1 X120.783 Y87.908 E15.87046
G1 X121.242 Y88.498 E15.90776
G1 X121.637 Y89.134 E15.94511
G1 X121.961 Y89.808 E15.98242
G1 X122.211 Y90.513 E16.01974
G1 X122.385 Y91.241 E16.05708
G1 X122.48 Y91.983 E16.0944
G1 X122.499 Y92.5 E16.12021
G1 X122.5 Y108.5 E16.91845
G1 X122.46 Y109.247 E16.95578
G1 X122.341 Y109.985 E16.99307
G1 X122.143 Y110.707 E17.03042
G1 X121.87 Y111.403 E17.06772
G1 X121.524 Y112.066 E17.10503
G1 X121.109 Y112.688 E17.14234
G1 X120.63 Y113.263 E17.17967
G1 X120.092 Y113.783 E17.217
G1 X119.502 Y114.243 E17.25433
G1 X118.866 Y114.637 E17.29165
G1 X118.192 Y114.962 E17.32898
G1 X117.487 Y115.212 E17.3663
G1 X116.76 Y115.386 E17.4036
G1 X116.018 Y115.481 E17.44092
G1 X115.5 Y115.5 E17.46678
G1 X101.189 Y115.5 E18.18076
G1 X100.442 Y115.46 E18.21808
G1 X99.704 Y115.341 E18.25537
G1 X98.982 Y115.143 E18.29272
G1 X98.286 Y114.87 E18.33002
G1 X97.623 Y114.523 E18.36735
G1 X97.104 Y114.177 E18.39847
G1 X95.646 Y114.685 E18.4755
G1 X94.927 Y114.893 E18.51284
G1 X94.131 Y115.03 E18.55314
G1 X92.289 Y115.239 E18.64563
G1 X91.542 Y115.284 E18.68296
G1 X90.71 Y115.239 E18.72453
G1 X88.869 Y115.03 E18.81697
G1 X88.132 Y114.906 E18.85426
G1 X87.355 Y114.685 E18.89456
G1 X85.602 Y114.074 E18.98718
G1 X84.91 Y113.79 E19.0245
G1 X84.181 Y113.391 E19.06596
G1 X82.609 Y112.403 E19.15859
G1 X81.998 Y111.971 E19.19592
G1 X81.386 Y111.428 E19.23674
G1 X80.076 Y110.119 E19.32913
G1 X79.576 Y109.562 E19.36647
G1 X79.095 Y108.887 E19.40782
G1 X78.108 Y107.314 E19.50047
G1 X77.744 Y106.66 E19.53781
G1 X77.429 Y105.903 E19.57872
G1 X76.816 Y104.149 E19.67142
G1 X76.607 Y103.431 E19.70872
G1 X76.456 Y102.51 E19.75529
G1 X76.264 Y100.513 E19.85538
G1 X76.232 Y99.766 E19.89268
G1 X76.281 Y99.019 E19.93003
G1 X76.408 Y98.282 E19.96734
G1 X76.614 Y97.563 E20.00465
G1 X76.681 Y97.397 E20.01358
G1 X76.688 Y96.962 E20.03529
G1 X76.78 Y96.219 E20.07264
G1 X76.951 Y95.491 E20.10995
G1 X77.066 Y95.133 E20.12871
G1 X77.433 Y94.087 E20.18401
G1 X77.718 Y93.396 E20.2213
G1 X78.109 Y92.685 E20.26179
G1 X79.096 Y91.112 E20.35443
G1 X79.526 Y90.5 E20.39175
G1 X80.073 Y89.884 E20.43285
G1 X81.381 Y88.575 E20.52517
G0 F3600 X81.664 Y88.858
G1 F1800 X82.205 Y88.373 E20.56142
G1 X82.825 Y87.932 E20.59938
G1 X84.398 Y86.945 E20.69202
G1 X85.034 Y86.594 E20.72827
G1 X85.727 Y86.306 E20.76571
G1 X87.48 Y85.693 E20.85836
G1 X88.178 Y85.491 E20.89461
G1 X88.915 Y85.365 E20.93191
G1 X90.756 Y85.156 E21.02435
G1 X91.481 Y85.114 E21.06058
G1 X92.244 Y85.156 E21.0987
G1 X94.086 Y85.365 E21.19119
G1 X94.802 Y85.487 E21.22743
G1 X95.521 Y85.693 E21.26474
G1 X97.274 Y86.306 E21.35739
G1 X97.945 Y86.583 E21.39361
G1 X98.105 Y86.671 E21.40272
G1 X98.202 Y86.615 E21.40831
G1 X98.867 Y86.322 E21.44456
G1 X99.56 Y86.104 E21.48081
G1 X100.272 Y85.964 E21.51701
G1 X101.189 Y85.9 E21.56287
G1 X115.499 Y85.9 E22.2768
G1 X116.224 Y85.94 E22.31302
G1 X116.941 Y86.059 E22.34928
G1 X117.64 Y86.257 E22.38553
G1 X118.313 Y86.53 E22.42176
G1 X118.952 Y86.875 E22.45799
G1 X119.549 Y87.289 E22.49424
G1 X120.097 Y87.765 E22.53045
G1 X120.59 Y88.299 E22.56671
G1 X121.02 Y88.884 E22.60293
G1 X121.384 Y89.513 E22.63919
G1 X121.677 Y90.178 E22.67544
G1 X121.895 Y90.871 E22.71169
G1 X122.035 Y91.583 E22.74789
G1 X122.099 Y92.5 E22.79375
G1 X122.1 Y108.5 E23.59199
G1 X122.06 Y109.225 E23.62822
G1 X121.941 Y109.941 E23.66443
G1 X121.743 Y110.64 E23.70068
G1 X121.47 Y111.313 E23.73691
G1 X121.125 Y111.952 E23.77314
G1 X120.712 Y112.55 E23.8094
G1 X120.235 Y113.098 E23.84564
G1 X119.701 Y113.59 E23.88187
G1 X119.116 Y114.021 E23.91812
G1 X118.488 Y114.385 E23.95433
G1 X117.823 Y114.678 E23.99059
G1 X117.13 Y114.896 E24.02683
G1 X116.417 Y115.036 E24.06308
G1 X115.5 Y115.1 E24.10894
G1 X101.189 Y115.1 E24.82292
G1 X100.464 Y115.06 E24.85915
G1 X99.747 Y114.941 E24.89541
G1 X99.048 Y114.743 E24.93165
G1 X98.375 Y114.47 E24.96789
G1 X97.736 Y114.125 E25.00412
G1 X97.167 Y113.731 E25.03865
G1 X95.514 Y114.307 E25.12598
G1 X94.816 Y114.508 E25.16222
G1 X94.086 Y114.633 E25.19917
G1 X92.244 Y114.842 E25.29165
G1 X91.519 Y114.884 E25.32788
G1 X90.756 Y114.842 E25.36601
G1 X88.915 Y114.633 E25.45845
G1 X88.198 Y114.511 E25.49473
G1 X87.487 Y114.307 E25.53163
G1 X85.734 Y113.696 E25.62425
G1 X85.062 Y113.42 E25.6605
G1 X84.394 Y113.052 E25.69855
G1 X82.822 Y112.064 E25.79118
G1 X82.229 Y111.644 E25.82743
G1 X81.669 Y111.145 E25.86485
G1 X80.359 Y109.836 E25.95724
G1 X79.874 Y109.295 E25.99349
G1 X79.433 Y108.675 E26.03145
G1 X78.446 Y107.102 E26.1241
G1 X78.095 Y106.466 E26.16034
G1 X77.807 Y105.771 E26.19787
G1 X77.194 Y104.017 E26.29057
G1 X76.992 Y103.32 E26.32677
G1 X76.854 Y102.472 E26.36964
G1 X76.662 Y100.475 E26.46973
G1 X76.633 Y99.749 E26.50598
G1 X76.683 Y99.024 E26.54223
G1 X76.813 Y98.31 E26.57844
G1 X77.02 Y97.613 E26.61471
G1 X77.075 Y97.484 E26.62171
G1 X77.101 Y96.822 E26.65476
G1 X77.21 Y96.104 E26.691
G1 X77.443 Y95.266 E26.73439
G1 X77.81 Y94.22 E26.78969
G1 X78.088 Y93.549 E26.82593
G1 X78.447 Y92.897 E26.86306
G1 X79.434 Y91.324 E26.95571
G1 X79.854 Y90.731 E26.99196
G1 X80.356 Y90.167 E27.02963
G1 X81.664 Y88.858 E27.12195
G0 F3600 X81.947 Y89.141
G1 F1800 X82.472 Y88.672 E27.15708
G1 X83.038 Y88.271 E27.19168
G1 X84.611 Y87.284 E27.28433
G1 X85.227 Y86.945 E27.31941
G1 X85.859 Y86.684 E27.35352
G1 X87.612 Y86.071 E27.44617
G1 X88.289 Y85.876 E27.48132
G1 X88.96 Y85.763 E27.51527
G1 X90.801 Y85.554 E27.60771
G1 X91.504 Y85.514 E27.64284
G1 X92.199 Y85.554 E27.67757
G1 X94.041 Y85.763 E27.77005
G1 X94.735 Y85.881 E27.80518
G1 X95.389 Y86.071 E27.83915
G1 X97.142 Y86.684 E27.9318
G1 X97.792 Y86.953 E27.9669
G1 X98.108 Y87.128 E27.98492
G1 X98.578 Y86.877 E28.0115
G1 X99.232 Y86.617 E28.04662
G1 X99.912 Y86.433 E28.08176
G1 X100.608 Y86.327 E28.11688
G1 X101.189 Y86.3 E28.1459
G1 X115.499 Y86.3 E28.85983
G1 X116.202 Y86.34 E28.89496
G1 X116.896 Y86.459 E28.93009
G1 X117.571 Y86.657 E28.96518
G1 X118.22 Y86.929 E29.00029
G1 X118.834 Y87.274 E29.03543
G1 X119.405 Y87.685 E29.07053
G1 X119.926 Y88.159 E29.10567
G1 X120.39 Y88.689 E29.14081
G1 X120.79 Y89.268 E29.17592
G1 X121.122 Y89.889 E29.21105
G1 X121.382 Y90.543 E29.24616
G1 X121.566 Y91.223 E29.28131
G1 X121.672 Y91.919 E29.31643
G1 X121.699 Y92.5 E29.34545
G1 X121.7 Y108.5 E30.14369
G1 X121.66 Y109.202 E30.17877
G1 X121.541 Y109.896 E30.2139
G1 X121.344 Y110.572 E30.24903
G1 X121.071 Y111.221 E30.28416
G1 X120.727 Y111.835 E30.31927
G1 X120.315 Y112.406 E30.3544
G1 X119.841 Y112.927 E30.38954
G1 X119.311 Y113.39 E30.42465
G1 X118.732 Y113.791 E30.45979
G1 X118.112 Y114.123 E30.49488
G1 X117.457 Y114.383 E30.53004
G1 X116.778 Y114.567 E30.56513
G1 X116.082 Y114.673 E30.60026
G1 X115.5 Y114.7 E30.62932
G1 X101.189 Y114.7 E31.3433
G1 X100.486 Y114.66 E31.37843
G1 X99.792 Y114.541 E31.41356
G1 X99.117 Y114.343 E31.44866
G1 X98.468 Y114.071 E31.48376
G1 X97.854 Y113.726 E31.5189
G1 X97.283 Y113.315 E31.554
G1 X97.24 Y113.276 E31.5569
G1 X97.136 Y113.319 E31.56251
G1 X95.383 Y113.93 E31.65513
G1 X94.706 Y114.123 E31.69025
G1 X94.041 Y114.235 E31.72389
G1 X92.199 Y114.444 E31.81638
G1 X91.496 Y114.484 E31.85151
G1 X90.801 Y114.444 E31.88624
G1 X88.96 Y114.235 E31.97868
G1 X88.266 Y114.116 E32.01381
G1 X87.618 Y113.93 E32.04744
G1 X85.865 Y113.319 E32.14006
G1 X85.215 Y113.05 E32.17516
G1 X84.607 Y112.713 E32.20984
G1 X83.035 Y111.725 E32.30247
G1 X82.461 Y111.317 E32.3376
G1 X81.952 Y110.862 E32.37166
G1 X80.642 Y109.553 E32.46406
G1 X80.173 Y109.028 E32.49918
G1 X79.772 Y108.462 E32.53378
G1 X78.785 Y106.889 E32.62643
G1 X78.446 Y106.273 E32.66151
G1 X78.184 Y105.639 E32.69573
G1 X77.571 Y103.885 E32.78843
G1 X77.377 Y103.209 E32.82352
G1 X77.252 Y102.433 E32.86273
G1 X77.06 Y100.436 E32.96282
G1 X77.033 Y99.733 E32.99792
G1 X77.085 Y99.031 E33.03304
G1 X77.217 Y98.339 E33.06819
G1 X77.426 Y97.667 E33.1033
G1 X77.478 Y97.548 E33.10978
G1 X77.471 Y97.39 E33.11767
G1 X77.518 Y96.687 E33.15282
G1 X77.644 Y95.995 E33.18791
G1 X77.821 Y95.398 E33.21898
G1 X78.188 Y94.352 E33.27428
G1 X78.458 Y93.702 E33.3094
G1 X78.786 Y93.11 E33.34316
G1 X79.773 Y91.537 E33.43581
G1 X80.181 Y90.963 E33.47094
G1 X80.639 Y90.45 E33.50525
G1 X81.947 Y89.141 E33.59757
G0 F3600 X82.23 Y89.423
G1 F1800 X82.739 Y88.971 E33.63153
G1 X83.25 Y88.61 E33.66275
G1 X84.823 Y87.623 E33.75539
G1 X85.42 Y87.296 E33.78935
G1 X85.991 Y87.061 E33.82016
G1 X87.744 Y86.448 E33.91281
G1 X88.399 Y86.261 E33.94679
G1 X89.005 Y86.16 E33.97745
G1 X90.846 Y85.951 E34.06988
G1 X91.526 Y85.914 E34.10386
G1 X92.154 Y85.951 E34.13524
G1 X93.996 Y86.16 E34.22773
G1 X94.667 Y86.276 E34.2617
G1 X95.257 Y86.448 E34.29236
G1 X97.01 Y87.061 E34.38502
G1 X97.638 Y87.323 E34.41896
G1 X98.119 Y87.59 E34.44641
