;FLAVOR:Marlin
;TIME:5656
;Filament used: 3.12539m
;Layer height: 0.1
;Generated with Cura_SteamEngine 3.0.4
M190 S60
M104 S200
M109 S200
M82 ; absolute extrusion mode
G21 ;metric values
G90 ;absolute positioning
M82 ;set extruder to absolute mode
M107 ;start with the fan off
G28 X0 Y0 ;move X/Y to min endstops
G28 Z0 ;move Z to min endstops
G1 Z15.0 F9000 ;move the platform down 15mm
G92 E0 ;zero the extruded length
G1 F200 E3 ;extrude 3mm of feed stock
G92 E0 ;zero the extruded length again
G1 F9000
;Put printing message on LCD screen
M117 Printing...
;LAYER_COUNT:228
;LAYER:0
M107
G0 F3600 X128.359 Y80.41 Z0.3
;TYPE:SKIRT
G1 F1800 X129.035 Y79.475 E0.05756
G1 X129.482 Y78.944 E0.09219
G1 X130.02 Y78.366 E0.13159
G1 X130.614 Y77.846 E0.17097
G1 X131.544 Y77.215 E0.22704
G1 X132.144 Y76.868 E0.26162
G1 X132.847 Y76.508 E0.30103
G1 X133.582 Y76.22 E0.34041
G1 X134.703 Y75.937 E0.39809
G1 X135.388 Y75.817 E0.43279
G1 X136.172 Y75.72 E0.4722
G1 X136.734 Y75.7 E0.50025
G1 X144.732 Y75.7 E0.89928
G1 X145.521 Y75.74 E0.93869
G1 X146.078 Y75.817 E0.96674
G1 X146.763 Y75.937 E1.00144
G1 X147.533 Y76.112 E1.04083
G1 X148.281 Y76.365 E1.08023
G1 X149.317 Y76.865 E1.13762
G1 X149.918 Y77.212 E1.17224
G1 X150.581 Y77.641 E1.21164
G1 X151.197 Y78.135 E1.25103
G1 X151.995 Y78.956 E1.30815
G1 X152.441 Y79.488 E1.34279
G1 X152.917 Y80.118 E1.38218
G1 X153.327 Y80.793 E1.42158
G1 X153.789 Y81.818 E1.47768
G1 X154.028 Y82.471 E1.51237
G1 X154.261 Y83.225 E1.55174
G1 X154.417 Y84 E1.59118
G1 X154.503 Y85.143 E1.64837
G1 X154.533 Y112.424 E3.00942
G1 X154.494 Y113.213 E3.04883
G1 X154.375 Y113.994 E3.08825
G1 X154.178 Y114.759 E3.12766
G1 X153.905 Y115.499 E3.16701
G1 X153.558 Y116.209 E3.20644
G1 X153.141 Y116.88 E3.24585
G1 X152.659 Y117.505 E3.28523
G1 X152.116 Y118.078 E3.32461
G1 X151.517 Y118.593 E3.36402
G1 X150.87 Y119.046 E3.40343
G1 X150.18 Y119.43 E3.44282
G1 X149.455 Y119.743 E3.48222
G1 X148.702 Y119.98 E3.5216
G1 X147.929 Y120.141 E3.561
G1 X147.143 Y120.222 E3.60042
G1 X146.734 Y120.233 E3.62083
G1 X134.734 Y120.234 E4.21951
G1 X133.945 Y120.194 E4.25893
G1 X133.164 Y120.075 E4.29834
G1 X132.4 Y119.877 E4.33772
G1 X131.659 Y119.603 E4.37713
G1 X130.95 Y119.255 E4.41653
G1 X130.28 Y118.838 E4.45591
G1 X129.655 Y118.355 E4.49531
G1 X129.083 Y117.811 E4.5347
G1 X128.568 Y117.212 E4.57411
G1 X128.116 Y116.564 E4.61352
G1 X127.733 Y115.874 E4.65289
G1 X127.421 Y115.149 E4.69227
G1 X127.184 Y114.395 E4.7317
G1 X127.024 Y113.622 E4.77109
G1 X126.943 Y112.836 E4.81051
G1 X126.933 Y112.434 E4.83057
G1 X126.933 Y107 E5.10167
G1 X126.973 Y106.211 E5.14109
G1 X127.092 Y105.431 E5.18045
G1 X127.29 Y104.666 E5.21988
G1 X127.564 Y103.926 E5.25924
G1 X127.772 Y103.502 E5.28281
G1 X127.675 Y103.32 E5.29309
G1 X127.375 Y102.589 E5.33252
G1 X127.151 Y101.832 E5.3719
G1 X127.005 Y101.056 E5.4113
G1 X126.933 Y99.984 E5.4649
G1 X126.964 Y85.136 E6.20567
G1 X127.006 Y84.347 E6.24509
G1 X127.127 Y83.567 E6.28447
G1 X127.434 Y82.485 E6.34058
G1 X127.672 Y81.831 E6.3753
G1 X127.98 Y81.103 E6.41474
G1 X128.359 Y80.41 E6.45415
G0 F3600 X128.721 Y80.586
G1 F1800 X129.341 Y79.732 E6.5068
G1 X129.788 Y79.201 E6.54143
G1 X130.313 Y78.639 E6.57979
G1 X130.894 Y78.135 E6.61817
G1 X131.744 Y77.561 E6.66934
G1 X132.344 Y77.214 E6.70392
G1 X133.029 Y76.864 E6.74229
G1 X133.747 Y76.587 E6.78069
G1 X134.772 Y76.331 E6.8334
G1 X135.457 Y76.211 E6.86809
G1 X136.221 Y76.118 E6.90649
G1 X136.734 Y76.1 E6.9321
G1 X144.732 Y76.1 E7.33112
G1 X145.5 Y76.14 E7.36949
G1 X146.009 Y76.211 E7.39513
G1 X146.694 Y76.331 E7.42982
G1 X147.444 Y76.503 E7.46821
G1 X148.171 Y76.752 E7.50655
G1 X149.117 Y77.211 E7.55901
G1 X149.718 Y77.558 E7.59363
G1 X150.363 Y77.977 E7.63201
G1 X150.962 Y78.461 E7.67043
G1 X151.689 Y79.213 E7.72261
G1 X152.135 Y79.745 E7.75724
G1 X152.598 Y80.359 E7.79561
G1 X152.994 Y81.018 E7.83397
G1 X153.413 Y81.956 E7.88522
G1 X153.652 Y82.609 E7.91991
G1 X153.879 Y83.344 E7.95829
G1 X154.028 Y84.098 E7.99663
G1 X154.103 Y85.144 E8.04895
G1 X154.133 Y112.425 E9.41001
G1 X154.094 Y113.193 E9.44837
G1 X153.975 Y113.953 E9.48675
G1 X153.778 Y114.696 E9.5251
G1 X153.505 Y115.416 E9.56352
G1 X153.159 Y116.102 E9.60185
G1 X152.744 Y116.75 E9.64024
G1 X152.263 Y117.35 E9.67861
G1 X151.723 Y117.898 E9.71699
G1 X151.129 Y118.386 E9.75534
G1 X150.487 Y118.81 E9.79373
G1 X149.805 Y119.165 E9.83209
G1 X149.089 Y119.448 E9.8705
G1 X148.348 Y119.655 E9.90888
G1 X147.59 Y119.783 E9.94723
G1 X146.734 Y119.833 E9.99001
G1 X134.734 Y119.834 E10.58869
G1 X133.965 Y119.794 E10.62711
G1 X133.206 Y119.675 E10.66544
G1 X132.462 Y119.477 E10.70385
G1 X131.744 Y119.203 E10.74219
G1 X131.057 Y118.856 E10.78059
G1 X130.41 Y118.44 E10.81897
G1 X129.81 Y117.959 E10.85733
G1 X129.263 Y117.418 E10.89571
G1 X128.775 Y116.824 E10.93407
G1 X128.352 Y116.181 E10.97247
G1 X127.998 Y115.499 E11.0108
G1 X127.716 Y114.783 E11.04919
G1 X127.51 Y114.042 E11.08756
G1 X127.382 Y113.284 E11.12592
G1 X127.333 Y112.434 E11.16839
G1 X127.333 Y107 E11.4395
G1 X127.373 Y106.232 E11.47786
G1 X127.492 Y105.472 E11.51624
G1 X127.69 Y104.729 E11.5546
G1 X127.964 Y104.01 E11.59299
G1 X128.221 Y103.502 E11.62139
G1 X127.946 Y102.949 E11.65221
G1 X127.677 Y102.229 E11.69055
G1 X127.483 Y101.484 E11.72896
G1 X127.368 Y100.724 E11.76731
G1 X127.333 Y99.985 E11.80422
G1 X127.364 Y85.137 E12.54499
G1 X127.406 Y84.369 E12.58336
G1 X127.527 Y83.609 E12.62176
G1 X127.81 Y82.621 E12.67303
G1 X128.048 Y81.967 E12.70775
G1 X128.348 Y81.259 E12.74612
G1 X128.721 Y80.586 E12.7845
G0 F3600 X129.082 Y80.763
G1 F1800 X129.647 Y79.99 E12.83227
G1 X130.094 Y79.459 E12.8669
G1 X130.605 Y78.913 E12.90421
G1 X131.172 Y78.425 E12.94153
G1 X131.945 Y77.907 E12.98796
G1 X132.545 Y77.56 E13.02254
G1 X133.211 Y77.221 E13.05982
G1 X133.91 Y76.955 E13.09713
G1 X134.841 Y76.725 E13.14498
G1 X135.526 Y76.605 E13.17967
G1 X136.269 Y76.515 E13.21701
G1 X136.734 Y76.5 E13.24022
G1 X144.732 Y76.5 E13.63924
G1 X145.479 Y76.54 E13.67656
G1 X145.94 Y76.605 E13.69979
G1 X146.625 Y76.725 E13.73449
G1 X147.354 Y76.893 E13.77181
G1 X148.061 Y77.138 E13.80914
G1 X148.917 Y77.558 E13.85671
G1 X149.518 Y77.905 E13.89133
G1 X150.145 Y78.313 E13.92865
G1 X150.725 Y78.786 E13.96599
G1 X151.382 Y79.47 E14.01331
G1 X151.828 Y80.002 E14.04794
G1 X152.278 Y80.6 E14.08528
G1 X152.66 Y81.243 E14.1226
G1 X153.038 Y82.093 E14.16901
G1 X153.277 Y82.746 E14.2037
G1 X153.496 Y83.461 E14.24101
G1 X153.637 Y84.196 E14.27834
G1 X153.703 Y85.144 E14.32575
G1 X153.733 Y112.425 E15.68681
G1 X153.694 Y113.172 E15.72413
G1 X153.575 Y113.911 E15.76147
G1 X153.378 Y114.633 E15.79881
G1 X153.106 Y115.329 E15.83609
G1 X152.76 Y115.993 E15.87345
G1 X152.346 Y116.616 E15.91076
G1 X151.868 Y117.191 E15.94807
G1 X151.331 Y117.711 E15.98536
G1 X150.741 Y118.172 E16.02272
G1 X150.106 Y118.567 E16.06003
G1 X149.432 Y118.892 E16.09736
G1 X148.727 Y119.143 E16.13469
G1 X148 Y119.317 E16.17199
G1 X147.258 Y119.413 E16.20931
G1 X146.734 Y119.433 E16.23548
G1 X134.734 Y119.434 E16.83416
G1 X133.987 Y119.394 E16.87148
G1 X133.248 Y119.275 E16.90882
G1 X132.527 Y119.077 E16.94613
G1 X131.83 Y118.804 E16.98347
G1 X131.167 Y118.458 E17.02078
G1 X130.545 Y118.043 E17.05809
G1 X129.97 Y117.564 E17.09542
G1 X129.45 Y117.026 E17.13275
G1 X128.99 Y116.436 E17.17008
G1 X128.596 Y115.8 E17.2074
G1 X128.271 Y115.126 E17.24473
G1 X128.021 Y114.421 E17.28205
G1 X127.847 Y113.694 E17.31935
G1 X127.752 Y112.952 E17.35667
G1 X127.733 Y112.434 E17.38253
G1 X127.733 Y107 E17.65363
G1 X127.773 Y106.253 E17.69095
G1 X127.892 Y105.515 E17.72825
G1 X128.09 Y104.793 E17.7656
G1 X128.363 Y104.097 E17.8029
G1 X128.678 Y103.495 E17.83679
G1 X128.539 Y103.261 E17.85037
G1 X128.226 Y102.581 E17.88772
G1 X127.988 Y101.872 E17.92503
G1 X127.827 Y101.142 E17.96233
G1 X127.744 Y100.398 E17.99968
G1 X127.733 Y99.985 E18.02029
G1 X127.764 Y85.137 E18.76106
G1 X127.806 Y84.39 E18.79839
G1 X127.927 Y83.652 E18.8357
G1 X128.186 Y82.758 E18.88213
G1 X128.424 Y82.104 E18.91685
G1 X128.717 Y81.416 E18.95416
G1 X129.082 Y80.763 E18.99148
G0 F3600 X129.443 Y80.941
G1 F1800 X129.953 Y80.248 E19.03441
G1 X130.4 Y79.717 E19.06904
G1 X130.897 Y79.187 E19.10529
G1 X131.45 Y78.716 E19.14153
G1 X132.145 Y78.254 E19.18316
G1 X132.745 Y77.907 E19.21774
G1 X133.393 Y77.578 E19.254
G1 X134.073 Y77.323 E19.29023
G1 X134.91 Y77.119 E19.33321
G1 X135.595 Y76.999 E19.36791
G1 X136.316 Y76.913 E19.40413
G1 X136.734 Y76.9 E19.425
G1 X144.732 Y76.9 E19.82402
G1 X145.457 Y76.94 E19.86025
G1 X145.871 Y76.999 E19.88111
G1 X146.556 Y77.119 E19.9158
G1 X147.263 Y77.284 E19.95202
G1 X147.948 Y77.525 E19.98825
G1 X148.717 Y77.904 E20.03102
G1 X149.318 Y78.251 E20.06565
G1 X149.926 Y78.649 E20.1019
G1 X150.487 Y79.11 E20.13813
G1 X151.076 Y79.727 E20.18068
G1 X151.522 Y80.259 E20.21532
G1 X151.957 Y80.84 E20.25153
G1 X152.326 Y81.466 E20.28778
G1 X152.662 Y82.231 E20.32947
G1 X152.901 Y82.884 E20.36416
G1 X153.113 Y83.578 E20.40036
G1 X153.247 Y84.292 E20.43661
G1 X153.303 Y85.145 E20.47925
G1 X153.333 Y112.426 E21.84031
G1 X153.294 Y113.151 E21.87653
G1 X153.175 Y113.868 E21.91279
G1 X152.979 Y114.567 E21.94901
G1 X152.706 Y115.24 E21.98524
G1 X152.362 Y115.88 E22.02149
G1 X151.949 Y116.477 E22.05771
G1 X151.473 Y117.026 E22.09396
G1 X150.939 Y117.519 E22.13022
G1 X150.355 Y117.95 E22.16643
G1 X149.727 Y118.315 E22.20267
G1 X149.062 Y118.608 E22.23893
G1 X148.37 Y118.827 E22.27514
G1 X147.657 Y118.968 E22.3114
G1 X146.734 Y119.033 E22.35756
G1 X134.734 Y119.034 E22.95624
G1 X134.008 Y118.994 E22.99252
G1 X133.292 Y118.875 E23.02873
G1 X132.593 Y118.677 E23.06498
G1 X131.92 Y118.404 E23.10121
G1 X131.281 Y118.059 E23.13744
G1 X130.683 Y117.646 E23.1737
G1 X130.135 Y117.169 E23.20994
G1 X129.643 Y116.635 E23.24617
G1 X129.212 Y116.05 E23.28242
G1 X128.848 Y115.422 E23.31863
G1 X128.555 Y114.757 E23.35489
G1 X128.337 Y114.064 E23.39113
G1 X128.197 Y113.351 E23.42738
G1 X128.133 Y112.434 E23.47324
G1 X128.133 Y107 E23.74435
G1 X128.173 Y106.275 E23.78057
G1 X128.292 Y105.558 E23.81683
G1 X128.49 Y104.859 E23.85308
G1 X128.763 Y104.186 E23.88931
G1 X129.108 Y103.547 E23.92554
G1 X129.14 Y103.501 E23.92834
G1 X128.798 Y102.886 E23.96344
G1 X128.516 Y102.217 E23.99966
G1 X128.31 Y101.52 E24.03592
G1 X128.182 Y100.805 E24.07216
G1 X128.133 Y99.986 E24.1131
G1 X128.164 Y85.138 E24.85387
G1 X128.205 Y84.413 E24.8901
G1 X128.326 Y83.697 E24.92632
G1 X128.562 Y82.895 E24.96803
G1 X128.8 Y82.241 E25.00275
G1 X129.085 Y81.573 E25.03899
G1 X129.443 Y80.941 E25.07522
G0 F3600 X129.803 Y81.12
G1 F1800 X130.259 Y80.505 E25.11342
G1 X130.706 Y79.974 E25.14805
G1 X131.189 Y79.462 E25.18317
G1 X131.727 Y79.008 E25.21829
G1 X132.345 Y78.6 E25.25523
G1 X132.945 Y78.253 E25.28981
G1 X133.573 Y77.936 E25.32491
G1 X134.234 Y77.692 E25.36006
G1 X134.979 Y77.513 E25.39829
G1 X135.664 Y77.393 E25.43298
G1 X136.363 Y77.311 E25.46809
G1 X136.734 Y77.3 E25.48661
G1 X144.732 Y77.3 E25.88563
G1 X145.435 Y77.34 E25.92076
G1 X145.802 Y77.393 E25.93926
G1 X146.487 Y77.513 E25.97396
G1 X147.172 Y77.674 E26.00906
G1 X147.835 Y77.911 E26.04419
G1 X148.517 Y78.251 E26.08221
G1 X149.118 Y78.598 E26.11683
G1 X149.707 Y78.984 E26.15197
G1 X150.248 Y79.434 E26.18707
G1 X150.769 Y79.984 E26.22487
G1 X151.215 Y80.516 E26.2595
G1 X151.636 Y81.08 E26.29462
G1 X151.99 Y81.688 E26.32972
G1 X152.286 Y82.368 E26.36672
G1 X152.525 Y83.021 E26.40141
G1 X152.729 Y83.695 E26.43654
G1 X152.856 Y84.387 E26.47164
G1 X152.903 Y85.145 E26.50953
G1 X152.933 Y112.426 E27.87059
G1 X152.894 Y113.129 E27.90571
G1 X152.775 Y113.823 E27.94084
G1 X152.579 Y114.499 E27.97596
G1 X152.307 Y115.148 E28.01107
G1 X151.963 Y115.763 E28.04622
G1 X151.552 Y116.334 E28.08132
G1 X151.079 Y116.855 E28.11643
G1 X150.549 Y117.319 E28.15157
G1 X149.971 Y117.721 E28.1867
G1 X149.35 Y118.053 E28.22183
G1 X148.696 Y118.314 E28.25696
G1 X148.017 Y118.499 E28.29207
G1 X147.321 Y118.605 E28.32719
G1 X146.734 Y118.633 E28.35651
G1 X134.734 Y118.634 E28.95519
G1 X134.031 Y118.594 E28.99032
G1 X133.337 Y118.475 E29.02545
G1 X132.661 Y118.278 E29.06058
G1 X132.012 Y118.005 E29.09571
G1 X131.398 Y117.661 E29.13082
G1 X130.827 Y117.249 E29.16595
G1 X130.306 Y116.775 E29.20109
G1 X129.843 Y116.245 E29.2362
G1 X129.442 Y115.666 E29.27134
G1 X129.11 Y115.046 E29.30643
G1 X128.85 Y114.391 E29.34158
G1 X128.666 Y113.712 E29.37668
G1 X128.56 Y113.016 E29.41181
G1 X128.533 Y112.434 E29.44087
G1 X128.533 Y107 E29.71198
G1 X128.573 Y106.297 E29.74711
G1 X128.692 Y105.603 E29.78223
G1 X128.89 Y104.928 E29.81733
G1 X129.162 Y104.279 E29.85244
G1 X129.507 Y103.665 E29.88757
G1 X129.626 Y103.499 E29.89776
G1 X129.388 Y103.141 E29.91921
G1 X129.066 Y102.515 E29.95433
G1 X128.817 Y101.856 E29.98948
G1 X128.645 Y101.174 E30.02457
G1 X128.551 Y100.476 E30.05971
G1 X128.533 Y99.987 E30.08412
G1 X128.564 Y85.139 E30.82489
G1 X128.605 Y84.436 E30.86002
G1 X128.726 Y83.743 E30.89512
G1 X128.938 Y83.032 E30.93214
G1 X129.176 Y82.378 E30.96686
G1 X129.454 Y81.731 E31.00199
G1 X129.803 Y81.12 E31.03709
G0 F3600 X130.163 Y81.3
G1 F1800 X130.565 Y80.763 E31.07056
G1 X131.012 Y80.232 E31.10519
G1 X131.48 Y79.738 E31.13914
G1 X132.003 Y79.302 E31.17311
G1 X132.545 Y78.946 E31.20546
G1 X133.145 Y78.599 E31.24004
G1 X133.754 Y78.294 E31.27402
G1 X134.394 Y78.061 E31.308
G1 X135.048 Y77.907 E31.34152
G1 X135.733 Y77.787 E31.37622
G1 X136.734 Y77.7 E31.42635
G1 X144.732 Y77.7 E31.82537
G1 X145.733 Y77.787 E31.8755
G1 X146.418 Y77.907 E31.91019
G1 X147.08 Y78.064 E31.94413
G1 X147.72 Y78.297 E31.97811
G1 X148.317 Y78.597 E32.01145
G1 X148.918 Y78.944 E32.04607
G1 X149.487 Y79.319 E32.08007
G1 X150.008 Y79.757 E32.11403
G1 X150.463 Y80.241 E32.14717
G1 X150.909 Y80.773 E32.1818
G1 X151.315 Y81.319 E32.21575
G1 X151.654 Y81.91 E32.24974
G1 X151.911 Y82.506 E32.28212
G1 X152.15 Y83.159 E32.31681
G1 X152.346 Y83.811 E32.35078
G1 X152.464 Y84.481 E32.38472
G1 X152.503 Y85.146 E32.41795
G1 X152.533 Y112.427 E33.77901
G1 X152.494 Y113.106 E33.81294
G1 X152.375 Y113.777 E33.84694
G1 X152.179 Y114.429 E33.88091
G1 X151.907 Y115.053 E33.91487
G1 X151.565 Y115.642 E33.94885
G1 X151.155 Y116.186 E33.98283
G1 X150.685 Y116.678 E34.01678
G1 X150.16 Y117.112 E34.05076
G1 X149.588 Y117.481 E34.08472
G1 X148.977 Y117.781 E34.11868
G1 X148.335 Y118.007 E34.15264
G1 X147.671 Y118.157 E34.1866
G1 X146.733 Y118.233 E34.23355
G1 X134.733 Y118.234 E34.83223
G1 X134.054 Y118.194 E34.86616
G1 X133.383 Y118.075 E34.90016
G1 X132.732 Y117.878 E34.9341
G1 X132.107 Y117.606 E34.9681
G1 X131.52 Y117.262 E35.00205
G1 X130.976 Y116.853 E35.036
G1 X130.484 Y116.382 E35.06998
G1 X130.051 Y115.857 E35.10393
G1 X129.682 Y115.284 E35.13794
G1 X129.382 Y114.673 E35.1719
G1 X129.157 Y114.03 E35.20588
G1 X129.008 Y113.366 E35.23983
G1 X128.933 Y112.434 E35.28648
G1 X128.933 Y107 E35.55758
G1 X128.973 Y106.32 E35.59157
G1 X129.092 Y105.65 E35.62552
G1 X129.289 Y104.998 E35.6595
G1 X129.561 Y104.374 E35.69346
G1 X129.905 Y103.786 E35.72745
G1 X130.12 Y103.501 E35.74526
G1 X129.993 Y103.342 E35.75541
G1 X129.634 Y102.763 E35.7894
G1 X129.345 Y102.147 E35.82334
G1 X129.13 Y101.5 E35.85736
G1 X128.993 Y100.834 E35.89128
G1 X128.933 Y99.988 E35.93359
G1 X128.964 Y85.14 E36.67437
G1 X129.005 Y84.46 E36.70835
G1 X129.126 Y83.79 E36.74232
G1 X129.314 Y83.169 E36.77469
G1 X129.552 Y82.515 E36.80941
G1 X129.822 Y81.889 E36.84342
G1 X130.163 Y81.3 E36.87738
G0 F3600 X130.522 Y81.483
G1 F1800 X130.871 Y81.02 E36.90631
G1 X131.318 Y80.489 E36.94093
G1 X131.771 Y80.013 E36.97372
G1 X132.278 Y79.596 E37.00647
G1 X132.746 Y79.292 E37.03431
G1 X133.346 Y78.945 E37.06889
G1 X133.933 Y78.652 E37.10162
G1 X134.552 Y78.432 E37.1344
G1 X135.117 Y78.301 E37.16333
G1 X135.802 Y78.181 E37.19803
G1 X136.734 Y78.1 E37.2447
G1 X144.732 Y78.1 E37.64372
G1 X145.664 Y78.181 E37.69039
G1 X146.349 Y78.301 E37.72509
G1 X146.988 Y78.454 E37.75787
G1 X147.604 Y78.683 E37.79066
G1 X148.117 Y78.944 E37.81937
G1 X148.718 Y79.291 E37.854
G1 X149.266 Y79.653 E37.88676
G1 X149.766 Y80.079 E37.91953
G1 X150.156 Y80.498 E37.94809
G1 X150.602 Y81.03 E37.98273
G1 X150.993 Y81.558 E38.0155
G1 X151.316 Y82.13 E38.04828
