;FLAVOR:RepRap
;TIME:333
;Filament used: 0.153195m
;Layer height: 0.1
;Generated with Cura_SteamEngine 2.5.0
M190 S59
M104 S200
M109 S200
G21 ;metric values
G90 ;absolute positioning
M82 ;set extruder to absolute mode
M107 ;start with the fan off
G28 X0 Y0 ;move X/Y to min endstops
G28 Z0 ;move Z to min endstops
G1 Z15.0 F9000 ;move the platform down 15mm
G92 E0 ;zero the extruded length
G1 F200 E3 ;extrude 3mm of feed stock
G92 E0 ;zero the extruded length again
G1 F9000
;Put printing message on LCD screen
M117 Printing...
;LAYER_COUNT:56
;LAYER:0
M107
G0 F3600 X91.265 Y90.375 Z0.3
;TYPE:SKIRT
G1 F1800 X91.924 Y89.838 E0.04241
G1 X92.82 Y89.186 E0.0977
G1 X93.481 Y88.754 E0.13709
G1 X94.249 Y88.362 E0.18011
G1 X95.235 Y87.925 E0.23392
G1 X95.972 Y87.642 E0.2733
G1 X96.809 Y87.419 E0.31652
G1 X97.926 Y87.187 E0.37343
G1 X98.706 Y87.066 E0.41281
G1 X99.504 Y87.024 E0.45268
G1 X100.479 Y87.023 E0.50132
G1 X101.268 Y87.062 E0.54074
G1 X102.078 Y87.187 E0.58162
G1 X103.196 Y87.42 E0.6386
G1 X103.96 Y87.62 E0.678
G1 X104.765 Y87.925 E0.72095
G1 X105.749 Y88.361 E0.77464
G1 X106.454 Y88.717 E0.81405
G1 X107.176 Y89.184 E0.85695
G1 X108.074 Y89.837 E0.91234
G1 X108.689 Y90.333 E0.95176
G1 X109.292 Y90.936 E0.9943
G1 X110.009 Y91.735 E1.04786
G1 X110.506 Y92.348 E1.08723
G1 X110.974 Y93.07 E1.13016
G1 X111.541 Y94.061 E1.18712
G1 X111.898 Y94.766 E1.22655
G1 X112.219 Y95.619 E1.27202
G1 X112.548 Y96.677 E1.32729
G1 X112.744 Y97.442 E1.36669
G1 X112.863 Y98.237 E1.4068
G1 X112.961 Y99.243 E1.45722
G1 X112.986 Y100.424 E1.51616
G1 X112.954 Y101.011 E1.54549
G1 X112.872 Y101.796 E1.58486
G1 X112.787 Y102.246 E1.60771
G1 X112.565 Y103.265 E1.65974
G1 X112.358 Y104.027 E1.69913
G1 X112.087 Y104.739 E1.73714
G1 X111.668 Y105.694 E1.78917
G1 X111.314 Y106.4 E1.82857
G1 X110.891 Y107.067 E1.86798
G1 X110.642 Y107.4 E1.88872
G1 X109.653 Y108.65 E1.96824
G1 X109.132 Y109.243 E2.00763
G1 X108.554 Y109.781 E2.04702
G1 X108.2 Y110.062 E2.06957
G1 X107.31 Y110.726 E2.12497
G1 X106.654 Y111.165 E2.16435
G1 X106.228 Y111.403 E2.18869
G1 X105.698 Y111.677 E2.21846
G1 X104.979 Y112.004 E2.25787
G1 X104.508 Y112.172 E2.28282
G1 X103.431 Y112.519 E2.33927
G1 X102.668 Y112.723 E2.37867
G1 X101.808 Y112.857 E2.42209
G1 X100.769 Y112.96 E2.47418
G1 X99.981 Y112.998 E2.51354
G1 X99.19 Y112.956 E2.55306
G1 X98.108 Y112.843 E2.60734
G1 X97.328 Y112.721 E2.64672
G1 X96.87 Y112.611 E2.67022
G1 X96.315 Y112.46 E2.69892
G1 X95.565 Y112.215 E2.73828
G1 X95.164 Y112.048 E2.75995
G1 X94.201 Y111.615 E2.81263
G1 X93.498 Y111.255 E2.85204
G1 X92.772 Y110.779 E2.89535
G1 X91.836 Y110.089 E2.95336
G1 X91.225 Y109.589 E2.99275
G1 X90.915 Y109.293 E3.01413
G1 X90.588 Y108.962 E3.03735
G1 X90.055 Y108.363 E3.07735
G1 X89.713 Y107.937 E3.1046
G1 X89.053 Y106.976 E3.16277
G1 X88.512 Y106.046 E3.21644
G1 X88.15 Y105.344 E3.25585
G1 X87.835 Y104.533 E3.29925
G1 X87.493 Y103.48 E3.35449
G1 X87.288 Y102.718 E3.39386
G1 X87.194 Y102.2 E3.42012
G1 X87.104 Y101.585 E3.45113
G1 X87.03 Y100.799 E3.49052
G1 X87.022 Y100.393 E3.51078
G1 X87.03 Y99.395 E3.56057
G1 X87.077 Y98.607 E3.59995
G1 X87.199 Y97.843 E3.63855
G1 X87.424 Y96.78 E3.69276
G1 X87.626 Y96.016 E3.73219
G1 X87.797 Y95.537 E3.75756
G1 X88.025 Y94.958 E3.78861
G1 X88.352 Y94.239 E3.82801
G1 X88.559 Y93.863 E3.84943
G1 X89.071 Y92.992 E3.89983
G1 X89.505 Y92.333 E3.9392
G1 X89.99 Y91.735 E3.97761
G1 X90.708 Y90.935 E4.03124
G1 X91.265 Y90.375 E4.07065
G0 F3600 X91.549 Y90.657
G1 F1800 X92.159 Y90.162 E4.10984
G1 X93.055 Y89.51 E4.16513
G1 X93.7 Y89.09 E4.20353
G1 X94.411 Y88.728 E4.24333
G1 X95.397 Y88.291 E4.29714
G1 X96.115 Y88.016 E4.3355
G1 X96.89 Y87.811 E4.37549
G1 X98.007 Y87.579 E4.43241
G1 X98.767 Y87.462 E4.47077
G1 X99.504 Y87.424 E4.50759
G1 X100.479 Y87.423 E4.55623
G1 X101.248 Y87.462 E4.59465
G1 X101.997 Y87.579 E4.63247
G1 X103.115 Y87.812 E4.68944
G1 X103.859 Y88.007 E4.72782
G1 X104.603 Y88.29 E4.76753
G1 X105.587 Y88.726 E4.82122
G1 X106.273 Y89.074 E4.8596
G1 X106.941 Y89.507 E4.89932
G1 X107.839 Y90.16 E4.95471
G1 X108.437 Y90.644 E4.99309
G1 X108.995 Y91.203 E5.0325
G1 X109.712 Y92.002 E5.08606
G1 X110.195 Y92.6 E5.12441
G1 X110.627 Y93.269 E5.16414
G1 X111.194 Y94.26 E5.2211
G1 X111.541 Y94.947 E5.2595
G1 X111.837 Y95.738 E5.30163
G1 X112.166 Y96.796 E5.35691
G1 X112.356 Y97.541 E5.39527
G1 X112.465 Y98.276 E5.43234
G1 X112.563 Y99.282 E5.48276
G1 X112.587 Y100.402 E5.53865
G1 X112.555 Y100.989 E5.56798
G1 X112.473 Y101.754 E5.60637
G1 X112.396 Y102.161 E5.62703
G1 X112.174 Y103.18 E5.67906
G1 X111.972 Y103.922 E5.71743
G1 X111.72 Y104.578 E5.75249
G1 X111.301 Y105.533 E5.80452
G1 X110.956 Y106.22 E5.84287
G1 X110.328 Y107.152 E5.89894
G1 X109.339 Y108.402 E5.97846
G1 X108.831 Y108.979 E6.01682
G1 X108.266 Y109.501 E6.05519
G1 X107.961 Y109.741 E6.07456
G1 X107.071 Y110.405 E6.12995
G1 X106.432 Y110.832 E6.1683
G1 X106.044 Y111.048 E6.19045
G1 X105.514 Y111.322 E6.22022
G1 X104.814 Y111.639 E6.25856
G1 X104.385 Y111.791 E6.28126
G1 X103.308 Y112.138 E6.33771
G1 X102.565 Y112.336 E6.37608
G1 X101.769 Y112.459 E6.41626
G1 X100.73 Y112.562 E6.46835
G1 X99.962 Y112.598 E6.50671
G1 X99.231 Y112.558 E6.54323
G1 X98.149 Y112.445 E6.59751
G1 X97.39 Y112.325 E6.63584
G1 X96.975 Y112.225 E6.65714
G1 X96.42 Y112.074 E6.68584
G1 X95.69 Y111.834 E6.72417
G1 X95.328 Y111.683 E6.74374
G1 X94.365 Y111.25 E6.79642
G1 X93.681 Y110.899 E6.83478
G1 X93.009 Y110.457 E6.8749
G1 X92.073 Y109.767 E6.93292
G1 X91.478 Y109.279 E6.97131
G1 X91.2 Y109.012 E6.99054
G1 X90.873 Y108.681 E7.01375
G1 X90.367 Y108.113 E7.0517
G1 X90.025 Y107.687 E7.07896
G1 X89.399 Y106.775 E7.13415
G1 X88.858 Y105.845 E7.18782
G1 X88.506 Y105.161 E7.2262
G1 X88.216 Y104.41 E7.26637
G1 X87.874 Y103.357 E7.3216
G1 X87.675 Y102.614 E7.35998
G1 X87.59 Y102.143 E7.38385
G1 X87.5 Y101.528 E7.41486
G1 X87.422 Y100.397 E7.47142
G1 X87.43 Y99.399 E7.52122
G1 X87.476 Y98.631 E7.5596
G1 X87.59 Y97.926 E7.59523
G1 X87.815 Y96.863 E7.64944
G1 X88.014 Y96.119 E7.68786
G1 X88.17 Y95.684 E7.71092
G1 X88.398 Y95.105 E7.74196
G1 X88.716 Y94.405 E7.78032
G1 X88.904 Y94.066 E7.79966
G1 X89.416 Y93.195 E7.85007
G1 X89.839 Y92.553 E7.88842
G1 X90.288 Y92.002 E7.92388
G1 X91.006 Y91.202 E7.97751
G1 X91.549 Y90.657 E8.0159
G0 F3600 X91.832 Y90.94
G1 F1800 X92.394 Y90.485 E8.05197
G1 X93.29 Y89.833 E8.10725
G1 X93.918 Y89.426 E8.14459
G1 X94.573 Y89.093 E8.18125
G1 X95.559 Y88.656 E8.23506
G1 X96.258 Y88.39 E8.27237
G1 X96.971 Y88.202 E8.30916
G1 X98.088 Y87.97 E8.36607
G1 X98.828 Y87.857 E8.40342
G1 X99.505 Y87.824 E8.43724
G1 X100.48 Y87.823 E8.48588
G1 X101.227 Y87.862 E8.5232
G1 X101.915 Y87.97 E8.55794
G1 X103.033 Y88.203 E8.61492
G1 X103.756 Y88.395 E8.65224
G1 X104.441 Y88.656 E8.68881
G1 X105.425 Y89.092 E8.7425
G1 X106.091 Y89.431 E8.77979
G1 X106.706 Y89.831 E8.81639
G1 X107.604 Y90.484 E8.87178
G1 X108.184 Y90.955 E8.90906
G1 X108.697 Y91.47 E8.94533
G1 X109.414 Y92.269 E8.99888
G1 X109.883 Y92.851 E9.03617
G1 X110.28 Y93.468 E9.07278
G1 X110.847 Y94.459 E9.12974
G1 X111.183 Y95.127 E9.16705
G1 X111.455 Y95.856 E9.20586
G1 X111.784 Y96.914 E9.26114
G1 X111.968 Y97.64 E9.29851
G1 X112.067 Y98.314 E9.33249
G1 X112.165 Y99.32 E9.38292
G1 X112.188 Y100.38 E9.43582
G1 X112.156 Y100.967 E9.46515
G1 X112.006 Y102.076 E9.52098
G1 X111.784 Y103.095 E9.57301
G1 X111.586 Y103.816 E9.61031
G1 X111.354 Y104.417 E9.64245
G1 X110.935 Y105.372 E9.69448
G1 X110.598 Y106.04 E9.73181
G1 X110.015 Y106.903 E9.78377
G1 X109.026 Y108.153 E9.86329
G1 X108.531 Y108.714 E9.90062
G1 X107.722 Y109.421 E9.95422
G1 X106.832 Y110.085 E10.00962
G1 X106.209 Y110.499 E10.04693
G1 X105.861 Y110.692 E10.06679
G1 X105.331 Y110.966 E10.09655
G1 X104.649 Y111.274 E10.13389
G1 X104.263 Y111.411 E10.15432
G1 X103.186 Y111.758 E10.21077
G1 X102.462 Y111.949 E10.24813
G1 X101.73 Y112.061 E10.28507
G1 X100.691 Y112.164 E10.33716
G1 X99.943 Y112.198 E10.37452
G1 X99.273 Y112.16 E10.408
G1 X98.191 Y112.047 E10.46228
G1 X97.452 Y111.93 E10.4996
G1 X97.08 Y111.839 E10.51871
G1 X96.525 Y111.688 E10.54741
G1 X95.492 Y111.318 E10.60215
G1 X94.529 Y110.885 E10.65483
G1 X93.864 Y110.543 E10.69213
G1 X93.246 Y110.135 E10.72908
G1 X92.31 Y109.445 E10.78709
G1 X91.484 Y108.731 E10.84156
G1 X91.157 Y108.4 E10.86478
G1 X90.678 Y107.862 E10.90072
G1 X90.336 Y107.436 E10.92797
G1 X89.744 Y106.574 E10.98014
G1 X89.203 Y105.644 E11.03382
G1 X88.862 Y104.978 E11.07115
G1 X88.596 Y104.286 E11.10813
G1 X88.254 Y103.233 E11.16337
G1 X88.062 Y102.511 E11.20064
G1 X87.986 Y102.085 E11.22223
G1 X87.896 Y101.47 E11.25324
G1 X87.822 Y100.4 E11.30675
G1 X87.83 Y99.402 E11.35654
G1 X87.876 Y98.655 E11.39388
G1 X87.982 Y98.008 E11.42659
G1 X88.207 Y96.945 E11.4808
G1 X88.401 Y96.223 E11.5181
G1 X88.542 Y95.83 E11.53893
G1 X88.77 Y95.251 E11.56997
G1 X89.248 Y94.269 E11.62446
G1 X89.76 Y93.398 E11.67487
G1 X90.173 Y92.774 E11.7122
G1 X90.585 Y92.269 E11.74471
G1 X91.303 Y91.469 E11.79834
G1 X91.832 Y90.94 E11.83567
G0 F3600 X92.115 Y91.224
G1 F1800 X92.63 Y90.808 E11.8687
G1 X93.526 Y90.156 E11.92398
G1 X94.136 Y89.762 E11.96021
G1 X94.735 Y89.459 E11.9937
G1 X95.721 Y89.022 E12.04751
G1 X96.4 Y88.765 E12.08373
G1 X97.053 Y88.594 E12.1174
G1 X98.17 Y88.362 E12.17432
G1 X98.888 Y88.254 E12.21055
G1 X99.505 Y88.224 E12.24136
G1 X100.48 Y88.223 E12.29001
G1 X101.206 Y88.262 E12.32628
G1 X101.834 Y88.362 E12.35801
G1 X102.952 Y88.595 E12.41498
G1 X103.653 Y88.782 E12.45118
G1 X104.279 Y89.022 E12.48462
G1 X105.263 Y89.458 E12.53832
G1 X105.91 Y89.788 E12.57456
G1 X106.471 Y90.154 E12.60797
G1 X107.369 Y90.807 E12.66337
G1 X107.932 Y91.266 E12.69961
G1 X108.399 Y91.737 E12.7327
G1 X109.116 Y92.536 E12.78626
G1 X109.571 Y93.102 E12.82249
G1 X109.933 Y93.666 E12.85592
G1 X110.5 Y94.657 E12.91289
G1 X110.825 Y95.307 E12.94914
G1 X111.073 Y95.975 E12.98469
G1 X111.402 Y97.033 E13.03997
G1 X111.58 Y97.738 E13.07624
G1 X111.669 Y98.353 E13.10725
G1 X111.767 Y99.359 E13.15767
G1 X111.788 Y100.358 E13.20752
G1 X111.756 Y100.945 E13.23685
G1 X111.615 Y101.991 E13.28951
G1 X111.393 Y103.01 E13.34154
G1 X111.199 Y103.71 E13.37778
G1 X110.988 Y104.257 E13.40703
G1 X110.569 Y105.212 E13.45906
G1 X110.241 Y105.86 E13.49529
G1 X109.701 Y106.655 E13.54324
G1 X108.712 Y107.905 E13.62276
G1 X108.231 Y108.449 E13.65899
G1 X107.483 Y109.1 E13.70846
G1 X106.593 Y109.764 E13.76386
G1 X105.677 Y110.337 E13.81777
G1 X105.147 Y110.611 E13.84753
G1 X104.484 Y110.908 E13.88378
G1 X104.14 Y111.03 E13.90199
G1 X103.063 Y111.377 E13.95844
G1 X102.36 Y111.561 E13.99469
G1 X101.69 Y111.663 E14.0285
G1 X100.651 Y111.766 E14.08059
G1 X99.925 Y111.798 E14.11685
G1 X99.314 Y111.762 E14.14738
G1 X98.232 Y111.649 E14.20166
G1 X97.185 Y111.453 E14.2548
G1 X96.63 Y111.302 E14.2835
G1 X95.656 Y110.954 E14.3351
G1 X94.693 Y110.521 E14.38778
G1 X94.048 Y110.187 E14.42401
G1 X93.484 Y109.814 E14.45775
G1 X92.548 Y109.124 E14.51576
G1 X91.769 Y108.449 E14.56719
G1 X91.442 Y108.118 E14.5904
G1 X90.99 Y107.612 E14.62425
G1 X90.648 Y107.186 E14.65151
G1 X90.09 Y106.373 E14.7007
G1 X89.549 Y105.443 E14.75438
G1 X89.219 Y104.796 E14.79061
G1 X88.977 Y104.163 E14.82442
G1 X88.635 Y103.11 E14.87966
G1 X88.449 Y102.408 E14.91589
G1 X88.382 Y102.027 E14.93519
G1 X88.292 Y101.412 E14.9662
G1 X88.222 Y100.403 E15.01666
G1 X88.23 Y99.405 E15.06645
G1 X88.276 Y98.68 E15.1027
G1 X88.373 Y98.091 E15.13248
G1 X88.598 Y97.028 E15.18668
G1 X88.787 Y96.327 E15.22291
G1 X88.914 Y95.977 E15.24148
G1 X89.142 Y95.398 E15.27253
G1 X89.593 Y94.471 E15.32396
G1 X90.105 Y93.6 E15.37436
G1 X90.507 Y92.995 E15.4106
G1 X90.883 Y92.537 E15.44017
G1 X91.601 Y91.737 E15.4938
G1 X92.115 Y91.224 E15.53003
G0 F3600 X92.865 Y91.132
G1 F1800 X93.761 Y90.48 E15.58531
G1 X94.353 Y90.099 E15.62043
G1 X94.897 Y89.825 E15.65082
G1 X95.883 Y89.388 E15.70463
G1 X96.542 Y89.14 E15.73976
G1 X97.134 Y88.986 E15.77028
G1 X98.251 Y88.754 E15.82719
G1 X98.947 Y88.65 E15.8623
G1 X99.506 Y88.624 E15.89022
G1 X100.481 Y88.623 E15.93886
G1 X101.184 Y88.662 E15.97399
G1 X101.752 Y88.753 E16.00269
G1 X102.87 Y88.986 E16.05967
G1 X103.55 Y89.169 E16.0948
G1 X104.117 Y89.388 E16.12512
G1 X105.101 Y89.824 E16.17882
G1 X105.727 Y90.145 E16.21392
G1 X106.235 Y90.478 E16.24422
G1 X107.133 Y91.131 E16.29961
G1 X107.678 Y91.576 E16.33472
G1 X108.101 Y92.004 E16.36474
G1 X108.818 Y92.803 E16.4183
G1 X109.258 Y93.353 E16.45344
G1 X109.585 Y93.865 E16.48375
G1 X110.152 Y94.856 E16.54071
G1 X110.467 Y95.486 E16.57585
G1 X110.691 Y96.094 E16.60817
G1 X111.02 Y97.152 E16.66345
G1 X111.191 Y97.835 E16.69858
G1 X111.271 Y98.392 E16.72665
G1 X111.369 Y99.398 E16.77708
G1 X111.389 Y100.336 E16.82389
G1 X111.357 Y100.923 E16.85322
G1 X111.224 Y101.906 E16.90271
G1 X111.002 Y102.925 E16.95474
G1 X110.813 Y103.603 E16.98985
G1 X110.622 Y104.096 E17.01623
G1 X110.203 Y105.051 E17.06826
G1 X109.884 Y105.679 E17.1034
G1 X109.387 Y106.407 E17.14738
G1 X108.398 Y107.657 E17.2269
G1 X107.931 Y108.183 E17.26199
G1 X107.243 Y108.779 E17.3074
G1 X106.353 Y109.443 E17.3628
G1 X105.493 Y109.982 E17.41344
G1 X104.963 Y110.256 E17.4432
G1 X104.017 Y110.649 E17.49431
G1 X102.94 Y110.996 E17.55076
G1 X102.259 Y111.174 E17.58588
G1 X101.651 Y111.265 E17.61655
G1 X100.612 Y111.368 E17.66864
G1 X99.908 Y111.397 E17.70379
G1 X99.356 Y111.364 E17.73138
G1 X98.274 Y111.251 E17.78566
G1 X97.29 Y111.068 E17.83559
G1 X96.735 Y110.917 E17.86428
G1 X95.82 Y110.589 E17.91278
G1 X94.857 Y110.156 E17.96546
G1 X94.233 Y109.831 E18.00056
G1 X93.721 Y109.492 E18.03119
G1 X92.785 Y108.802 E18.08921
G1 X92.053 Y108.168 E18.13752
G1 X91.726 Y107.837 E18.16073
G1 X91.302 Y107.361 E18.19254
G1 X90.96 Y106.935 E18.21979
G1 X90.436 Y106.172 E18.26597
G1 X89.895 Y105.242 E18.31965
G1 X89.576 Y104.614 E18.35479
G1 X89.357 Y104.039 E18.38549
G1 X89.015 Y102.986 E18.44072
G1 X88.777 Y101.969 E18.49283
G1 X88.687 Y101.354 E18.52384
G1 X88.622 Y100.406 E18.57125
G1 X88.63 Y99.408 E18.62104
G1 X88.676 Y98.706 E18.65614
G1 X88.764 Y98.174 E18.68304
G1 X88.989 Y97.111 E18.73725
G1 X89.286 Y96.123 E18.78872
G1 X89.514 Y95.544 E18.81976
G1 X89.938 Y94.674 E18.86805
G1 X90.45 Y93.803 E18.91845
G1 X90.841 Y93.217 E18.9536
G1 X91.181 Y92.804 E18.98029
G1 X91.899 Y92.004 E19.03392
G1 X92.398 Y91.507 E19.06905
G1 X92.865 Y91.132 E19.09894
G0 F3600 X93.1 Y91.455
G1 F1800 X93.996 Y90.803 E19.15422
G1 X94.569 Y90.436 E19.18817
G1 X95.059 Y90.19 E19.21552
G1 X96.045 Y89.753 E19.26933
G1 X96.682 Y89.515 E19.30325
G1 X97.216 Y89.377 E19.33077
G1 X98.333 Y89.145 E19.38769
G1 X99.006 Y89.046 E19.42162
G1 X99.506 Y89.024 E19.44659
G1 X100.481 Y89.023 E19.49524
G1 X101.161 Y89.062 E19.52922
G1 X101.67 Y89.145 E19.55495
G1 X102.788 Y89.378 E19.61192
G1 X103.446 Y89.556 E19.64593
G1 X103.955 Y89.753 E19.67316
G1 X104.939 Y90.189 E19.72686
G1 X105.544 Y90.501 E19.76082
G1 X106 Y90.801 E19.78805
G1 X106.898 Y91.454 E19.84344
G1 X107.424 Y91.886 E19.8774
G1 X107.804 Y92.271 E19.90439
G1 X108.521 Y93.07 E19.95795
G1 X108.945 Y93.603 E19.99193
G1 X109.238 Y94.064 E20.01918
G1 X109.805 Y95.055 E20.07614
G1 X110.108 Y95.664 E20.11008
G1 X110.309 Y96.213 E20.13924
G1 X110.638 Y97.271 E20.19452
G1 X110.802 Y97.932 E20.2285
G1 X110.873 Y98.431 E20.25364
G1 X110.971 Y99.437 E20.30407
G1 X110.989 Y100.315 E20.34788
G1 X110.957 Y100.902 E20.37721
G1 X110.833 Y101.821 E20.42348
G1 X110.611 Y102.84 E20.47551
G1 X110.427 Y103.495 E20.50945
G1 X110.255 Y103.935 E20.53302
G1 X109.836 Y104.89 E20.58505
G1 X109.527 Y105.497 E20.61903
G1 X109.073 Y106.159 E20.65908
G1 X108.084 Y107.409 E20.7386
G1 X107.631 Y107.917 E20.77256
G1 X107.004 Y108.459 E20.81391
G1 X106.114 Y109.123 E20.8693
G1 X105.31 Y109.626 E20.91662
G1 X104.78 Y109.9 E20.94639
G1 X103.895 Y110.269 E20.99422
G1 X102.818 Y110.616 E21.05067
G1 X102.158 Y110.786 E21.08468
G1 X101.611 Y110.867 E21.11226
G1 X100.572 Y110.97 E21.16435
G1 X99.892 Y110.997 E21.19831
G1 X99.398 Y110.967 E21.223
G1 X98.316 Y110.854 E21.27727
G1 X97.395 Y110.682 E21.32402
G1 X96.84 Y110.531 E21.35271
G1 X95.984 Y110.224 E21.39808
G1 X95.021 Y109.791 E21.45076
G1 X94.418 Y109.476 E21.4847
G1 X93.958 Y109.17 E21.51226
G1 X93.022 Y108.48 E21.57028
G1 X92.338 Y107.887 E21.61544
