;FLAVOR:RepRap
;TIME:2320
;Filament used: 1.26242m
;Layer height: 0.1
;Generated with Cura_SteamEngine 2.5.0
M190 S59
M104 S200
M109 S200
G21 ;metric values
G90 ;absolute positioning
M82 ;set extruder to absolute mode
M107 ;start with the fan off
G28 X0 Y0 ;move X/Y to min endstops
G28 Z0 ;move Z to min endstops
G1 Z15.0 F9000 ;move the platform down 15mm
G92 E0 ;zero the extruded length
G1 F200 E3 ;extrude 3mm of feed stock
G92 E0 ;zero the extruded length again
G1 F9000
;Put printing message on LCD screen
M117 Printing...
;LAYER_COUNT:143
;LAYER:0
M107
G0 F3600 X73.148 Y62.255 Z0.3
;TYPE:SKIRT
G1 F1800 X73.789 Y61.643 E0.04421
G1 X74.937 Y60.664 E0.11949
G1 X75.563 Y60.183 E0.15887
G1 X76.58 Y59.588 E0.21766
G1 X77.097 Y59.336 E0.24635
G1 X77.824 Y59.026 E0.28578
G1 X78.578 Y58.791 E0.32518
G1 X79.352 Y58.634 E0.36458
G1 X80.138 Y58.556 E0.40399
G1 X81.023 Y58.564 E0.44815
G1 X81.575 Y58.6 E0.47574
G1 X82.359 Y58.691 E0.51512
G1 X83.13 Y58.861 E0.55451
G1 X83.88 Y59.108 E0.5939
G1 X84.601 Y59.43 E0.6333
G1 X85.34 Y59.858 E0.6759
G1 X86.186 Y60.412 E0.72636
G1 X86.824 Y60.877 E0.76574
G1 X87.179 Y61.183 E0.78913
G1 X87.886 Y61.83 E0.83694
G1 X88.441 Y62.392 E0.87634
G1 X88.936 Y63.007 E0.91573
G1 X89.366 Y63.669 E0.95511
G1 X89.728 Y64.371 E0.99452
G1 X90.016 Y65.106 E1.0339
G1 X90.229 Y65.867 E1.07333
G1 X90.374 Y66.736 E1.11728
G1 X90.397 Y66.951 E1.12807
G1 X91.209 Y70.624 E1.31574
G1 X91.301 Y71.111 E1.34047
G1 X91.673 Y73.508 E1.46149
G1 X91.742 Y74.108 E1.49162
G1 X92.019 Y77.723 E1.6725
G1 X92.041 Y78.432 E1.70789
G1 X91.991 Y81.876 E1.87973
G1 X91.94 Y82.664 E1.91912
G1 X91.809 Y83.443 E1.95853
G1 X91.6 Y84.205 E1.99795
G1 X91.315 Y84.941 E2.03733
G1 X90.957 Y85.645 E2.07673
G1 X90.53 Y86.309 E2.11612
G1 X90.038 Y86.927 E2.15553
G1 X89.807 Y87.173 E2.17237
G1 X89.807 Y88.792 E2.25314
G1 X89.994 Y88.738 E2.26285
G1 X90.771 Y88.596 E2.30225
G1 X91.811 Y88.53 E2.35424
G1 X92.35 Y88.532 E2.38114
G1 X93.138 Y88.575 E2.42051
G1 X93.919 Y88.697 E2.45994
G1 X94.682 Y88.898 E2.49931
G1 X95.393 Y89.164 E2.53718
G1 X99.424 Y89.164 E2.73829
G1 X99.766 Y89.017 E2.75686
G1 X100.519 Y88.78 E2.79625
G1 X101.293 Y88.621 E2.83567
G1 X102.078 Y88.54 E2.87504
G1 X102.48 Y88.53 E2.8951
G1 X103.019 Y88.53 E2.92199
G1 X103.808 Y88.57 E2.96141
G1 X104.588 Y88.689 E3.00077
G1 X105.353 Y88.887 E3.04019
G1 X106.093 Y89.161 E3.07956
G1 X106.802 Y89.509 E3.11897
G1 X107.495 Y89.942 E3.15973
G1 X108.631 Y90.738 E3.22894
G1 X109.254 Y91.223 E3.26833
G1 X109.825 Y91.769 E3.30774
G1 X110.337 Y92.37 E3.34713
G1 X110.786 Y93.019 E3.3865
G1 X111.132 Y93.638 E3.42188
G1 X111.235 Y93.844 E3.43337
G1 X111.551 Y94.567 E3.47274
G1 X111.794 Y95.319 E3.51217
G1 X111.959 Y96.091 E3.55155
G1 X112.045 Y96.876 E3.59095
G1 X112.058 Y97.332 E3.61371
G1 X112.058 Y98.488 E3.67138
G1 X112.018 Y99.277 E3.7108
G1 X111.899 Y100.057 E3.75016
G1 X111.701 Y100.822 E3.78958
G1 X111.427 Y101.562 E3.82895
G1 X111.193 Y102.039 E3.85546
G1 X111.26 Y102.16 E3.86236
G1 X111.572 Y102.885 E3.90174
G1 X111.809 Y103.638 E3.94112
G1 X111.968 Y104.412 E3.98054
G1 X112.049 Y105.197 E4.01991
G1 X112.059 Y105.636 E4.04182
G1 X112.053 Y106.886 E4.10419
G1 X112.009 Y107.675 E4.14361
G1 X111.886 Y108.455 E4.18301
G1 X111.684 Y109.218 E4.22238
G1 X111.407 Y109.958 E4.2618
G1 X111.056 Y110.665 E4.30118
G1 X110.635 Y111.333 E4.34058
G1 X110.436 Y111.589 E4.35675
G1 X110.82 Y112.214 E4.39335
G1 X110.925 Y112.41 E4.40444
G1 X111.262 Y113.124 E4.44383
G1 X111.525 Y113.868 E4.4832
G1 X111.712 Y114.636 E4.52264
G1 X111.837 Y115.667 E4.57445
G1 X111.9 Y116.82 E4.63206
G1 X111.903 Y117.61 E4.67147
G1 X111.827 Y118.396 E4.71087
G1 X111.671 Y119.17 E4.75026
G1 X111.438 Y119.925 E4.78968
G1 X111.228 Y120.419 E4.81646
G1 X111.301 Y120.535 E4.8233
G1 X111.652 Y121.242 E4.86268
G1 X111.929 Y121.982 E4.9021
G1 X112.131 Y122.745 E4.94148
G1 X112.253 Y123.525 E4.98087
G1 X112.295 Y124.17 E5.01311
G1 X112.325 Y125.483 E5.07864
G1 X112.303 Y126.272 E5.11801
G1 X112.201 Y127.055 E5.15741
G1 X112.021 Y127.824 E5.19681
G1 X111.764 Y128.571 E5.23622
G1 X111.433 Y129.288 E5.27562
G1 X111.031 Y129.967 E5.31499
G1 X110.562 Y130.603 E5.35441
G1 X110.031 Y131.188 E5.39383
G1 X109.361 Y131.782 E5.4385
G1 X108.21 Y132.691 E5.51167
G1 X107.567 Y133.149 E5.55106
G1 X106.88 Y133.539 E5.59047
G1 X106.157 Y133.857 E5.62988
G1 X105.406 Y134.101 E5.66927
G1 X104.634 Y134.268 E5.70868
G1 X103.81 Y134.358 E5.75003
G1 X103.272 Y134.388 E5.77691
G1 X102.483 Y134.392 E5.81628
G1 X101.697 Y134.316 E5.85568
G1 X100.922 Y134.161 E5.89511
G1 X100.168 Y133.929 E5.93446
G1 X100.15 Y133.921 E5.93545
G1 X96.133 Y134.139 E6.13615
G1 X95.807 Y134.301 E6.15431
G1 X95.068 Y134.579 E6.1937
G1 X94.304 Y134.781 E6.23313
G1 X93.524 Y134.905 E6.27253
G1 X93.115 Y134.938 E6.293
G1 X92.578 Y134.967 E6.31983
G1 X91.788 Y134.969 E6.35925
G1 X91.002 Y134.892 E6.39865
G1 X90.228 Y134.736 E6.43804
G1 X89.807 Y134.605 E6.46004
G1 X89.807 Y138.272 E6.64298
G1 X89.767 Y139.061 E6.6824
G1 X89.648 Y139.841 E6.72176
G1 X89.45 Y140.606 E6.76119
G1 X89.176 Y141.346 E6.80055
G1 X88.828 Y142.055 E6.83996
G1 X88.41 Y142.726 E6.8794
G1 X87.927 Y143.35 E6.91877
G1 X87.384 Y143.923 E6.95815
G1 X86.785 Y144.438 E6.99756
G1 X86.137 Y144.889 E7.03695
G1 X85.446 Y145.273 E7.07639
G1 X84.721 Y145.585 E7.11577
G1 X83.968 Y145.822 E7.15515
G1 X83.194 Y145.981 E7.19457
G1 X82.409 Y146.062 E7.23394
G1 X82.01 Y146.072 E7.25386
G1 X79.47 Y146.073 E7.38058
G1 X78.681 Y146.033 E7.41999
G1 X77.901 Y145.914 E7.45936
G1 X77.136 Y145.717 E7.49877
G1 X76.395 Y145.443 E7.53818
G1 X75.686 Y145.095 E7.57759
G1 X75.016 Y144.678 E7.61696
G1 X74.391 Y144.195 E7.65637
G1 X73.818 Y143.652 E7.69575
G1 X73.303 Y143.053 E7.73516
G1 X72.852 Y142.405 E7.77455
G1 X72.468 Y141.715 E7.81394
G1 X72.155 Y140.99 E7.85334
G1 X71.918 Y140.237 E7.89273
G1 X71.758 Y139.463 E7.93216
G1 X71.678 Y138.678 E7.97152
G1 X71.667 Y138.273 E7.99174
G1 X71.667 Y87.17 E10.54128
G1 X71.241 Y86.699 E10.57296
G1 X70.773 Y86.062 E10.61239
G1 X70.371 Y85.382 E10.65181
G1 X70.041 Y84.665 E10.69118
G1 X69.785 Y83.918 E10.73058
G1 X69.606 Y83.149 E10.76997
G1 X69.485 Y81.994 E10.82791
G1 X69.42 Y79.783 E10.93826
G1 X69.42 Y79.34 E10.96037
G1 X69.487 Y76.898 E11.08224
G1 X69.518 Y76.386 E11.10783
G1 X69.743 Y73.98 E11.22839
G1 X69.801 Y73.511 E11.25197
G1 X70.173 Y71.112 E11.37309
G1 X70.272 Y70.591 E11.39954
G1 X71.001 Y67.358 E11.56489
G1 X71.13 Y66.464 E11.60995
G1 X71.282 Y65.689 E11.64935
G1 X71.512 Y64.934 E11.68873
G1 X71.817 Y64.205 E11.72816
G1 X72.194 Y63.511 E11.76756
G1 X72.639 Y62.859 E11.80694
G1 X73.148 Y62.255 E11.84635
G0 F3600 X73.523 Y62.441
G1 F1800 X74.048 Y61.947 E11.88231
G1 X75.196 Y60.968 E11.95758
G1 X75.807 Y60.5 E11.99598
G1 X76.756 Y59.947 E12.05078
G1 X77.273 Y59.695 E12.07947
G1 X77.981 Y59.395 E12.11784
G1 X78.716 Y59.169 E12.1562
G1 X79.471 Y59.021 E12.19458
G1 X80.237 Y58.952 E12.23295
G1 X80.997 Y58.963 E12.27087
G1 X81.549 Y58.999 E12.29847
G1 X82.312 Y59.089 E12.3368
G1 X83.063 Y59.257 E12.3752
G1 X83.792 Y59.503 E12.41358
G1 X84.491 Y59.823 E12.45194
G1 X85.121 Y60.192 E12.48836
G1 X85.967 Y60.746 E12.53881
G1 X86.588 Y61.201 E12.57722
G1 X86.909 Y61.478 E12.59837
G1 X87.616 Y62.125 E12.64619
G1 X88.155 Y62.673 E12.68453
G1 X88.635 Y63.274 E12.72291
G1 X89.05 Y63.922 E12.7613
G1 X89.396 Y64.609 E12.79967
G1 X89.668 Y65.328 E12.83803
G1 X89.864 Y66.072 E12.87641
G1 X89.976 Y66.78 E12.91217
G1 X90.001 Y67.008 E12.92362
G1 X90.819 Y70.711 E13.11281
G1 X90.905 Y71.172 E13.13621
G1 X91.277 Y73.569 E13.25723
G1 X91.343 Y74.139 E13.28585
G1 X91.62 Y77.754 E13.46674
G1 X91.641 Y78.426 E13.50028
G1 X91.591 Y81.87 E13.67212
G1 X91.54 Y82.638 E13.71052
G1 X91.41 Y83.396 E13.74889
G1 X91.201 Y84.136 E13.78725
G1 X90.917 Y84.851 E13.82563
G1 X90.56 Y85.532 E13.86399
G1 X90.134 Y86.173 E13.90239
G1 X89.423 Y86.997 E13.95669
G1 X89.407 Y87.013 E13.95782
G1 X89.407 Y89.322 E14.07302
G1 X89.423 Y89.316 E14.07387
G1 X90.163 Y89.109 E14.1122
G1 X90.922 Y88.98 E14.15061
G1 X91.809 Y88.93 E14.19494
G1 X92.348 Y88.932 E14.22183
G1 X93.116 Y88.975 E14.2602
G1 X93.876 Y89.097 E14.2986
G1 X94.618 Y89.298 E14.33696
G1 X95.31 Y89.564 E14.37394
G1 X99.492 Y89.564 E14.58259
G1 X100.131 Y89.313 E14.61684
G1 X100.873 Y89.107 E14.65525
G1 X101.631 Y88.979 E14.69361
G1 X102.48 Y88.93 E14.73603
G1 X103.019 Y88.93 E14.76293
G1 X103.787 Y88.97 E14.80129
G1 X104.547 Y89.089 E14.83967
G1 X105.29 Y89.287 E14.87803
G1 X106.009 Y89.561 E14.91642
G1 X106.695 Y89.908 E14.95477
G1 X107.265 Y90.27 E14.98846
G1 X108.401 Y91.066 E15.05767
G1 X109.008 Y91.539 E15.09606
G1 X109.561 Y92.073 E15.13441
G1 X110.057 Y92.662 E15.17283
G1 X110.488 Y93.298 E15.21116
G1 X110.774 Y93.817 E15.24072
G1 X110.877 Y94.023 E15.25221
G1 X111.185 Y94.728 E15.2906
G1 X111.417 Y95.461 E15.32895
G1 X111.573 Y96.214 E15.36732
G1 X111.658 Y97.332 E15.42326
G1 X111.658 Y98.488 E15.48093
G1 X111.618 Y99.256 E15.5193
G1 X111.499 Y100.016 E15.55768
G1 X111.301 Y100.759 E15.59604
G1 X111.027 Y101.478 E15.63442
G1 X110.74 Y102.045 E15.66613
G1 X110.995 Y102.535 E15.69369
G1 X111.276 Y103.25 E15.73202
G1 X111.482 Y103.992 E15.77043
G1 X111.61 Y104.75 E15.80879
G1 X111.659 Y105.635 E15.85301
G1 X111.653 Y106.885 E15.91537
G1 X111.609 Y107.652 E15.9537
G1 X111.486 Y108.412 E15.99211
G1 X111.285 Y109.154 E16.03046
G1 X111.008 Y109.871 E16.06881
G1 X110.657 Y110.556 E16.10721
G1 X110.238 Y111.201 E16.14558
G1 X109.939 Y111.571 E16.16932
G1 X110.056 Y111.725 E16.17896
G1 X110.467 Y112.403 E16.21852
G1 X110.572 Y112.599 E16.22961
G1 X110.899 Y113.295 E16.26798
G1 X111.153 Y114.021 E16.30635
G1 X111.33 Y114.769 E16.3447
G1 X111.438 Y115.689 E16.39091
G1 X111.501 Y116.842 E16.44852
G1 X111.503 Y117.611 E16.48689
G1 X111.425 Y118.377 E16.5253
G1 X111.268 Y119.13 E16.56368
G1 X111.034 Y119.862 E16.60202
G1 X110.777 Y120.449 E16.63399
G1 X111.057 Y120.924 E16.6615
G1 X111.377 Y121.623 E16.69985
G1 X111.623 Y122.352 E16.73823
G1 X111.791 Y123.102 E16.77658
G1 X111.895 Y124.179 E16.83056
G1 X111.925 Y125.492 E16.89608
G1 X111.903 Y126.261 E16.93447
G1 X111.801 Y127.023 E16.97282
G1 X111.62 Y127.771 E17.01122
G1 X111.363 Y128.496 E17.04959
G1 X111.031 Y129.19 E17.08797
G1 X110.63 Y129.846 E17.12633
G1 X110.163 Y130.457 E17.1647
G1 X109.634 Y131.016 E17.2031
G1 X109.113 Y131.468 E17.23751
G1 X107.962 Y132.377 E17.31068
G1 X107.335 Y132.822 E17.34904
G1 X106.664 Y133.199 E17.38744
G1 X105.959 Y133.505 E17.42578
G1 X105.225 Y133.735 E17.46415
G1 X104.471 Y133.889 E17.50255
G1 X103.788 Y133.959 E17.5368
G1 X103.25 Y133.989 E17.56368
G1 X102.481 Y133.991 E17.60205
G1 X101.716 Y133.914 E17.64041
G1 X100.962 Y133.758 E17.67882
G1 X100.229 Y133.525 E17.71719
G1 X100.211 Y133.517 E17.71818
G1 X96.046 Y133.742 E17.92627
G1 X95.426 Y134.026 E17.9603
G1 X94.697 Y134.273 E17.9987
G1 X93.947 Y134.442 E18.03705
G1 X93.093 Y134.538 E18.07993
G1 X92.556 Y134.567 E18.10676
G1 X91.787 Y134.569 E18.14512
G1 X91.022 Y134.49 E18.18349
G1 X90.269 Y134.333 E18.22187
G1 X89.536 Y134.098 E18.26027
G1 X89.407 Y134.041 E18.26731
G1 X89.407 Y138.272 E18.47839
G1 X89.367 Y139.04 E18.51676
G1 X89.248 Y139.8 E18.55514
G1 X89.05 Y140.543 E18.5935
G1 X88.776 Y141.262 E18.63189
G1 X88.429 Y141.948 E18.67024
G1 X88.013 Y142.595 E18.70862
G1 X87.532 Y143.195 E18.74698
G1 X86.991 Y143.742 E18.78536
G1 X86.396 Y144.23 E18.82376
G1 X85.754 Y144.653 E18.86211
G1 X85.071 Y145.008 E18.90052
G1 X84.356 Y145.289 E18.93884
G1 X83.614 Y145.495 E18.97726
G1 X82.856 Y145.623 E19.01561
G1 X82.01 Y145.672 E19.05789
G1 X79.47 Y145.673 E19.18461
G1 X78.702 Y145.633 E19.22298
G1 X77.942 Y145.514 E19.26136
G1 X77.199 Y145.317 E19.29971
G1 X76.48 Y145.043 E19.3381
G1 X75.793 Y144.697 E19.37647
G1 X75.146 Y144.28 E19.41488
G1 X74.546 Y143.8 E19.45321
G1 X73.999 Y143.259 E19.49159
G1 X73.511 Y142.664 E19.52998
G1 X73.087 Y142.022 E19.56837
G1 X72.732 Y141.34 E19.60673
G1 X72.45 Y140.624 E19.64512
G1 X72.244 Y139.883 E19.68349
G1 X72.116 Y139.125 E19.72184
G1 X72.067 Y138.273 E19.76442
G1 X72.067 Y87.015 E22.32169
G1 X72.053 Y87.001 E22.32268
G1 X71.538 Y86.43 E22.36104
G1 X71.085 Y85.809 E22.39939
G1 X70.698 Y85.144 E22.43778
G1 X70.383 Y84.442 E22.47616
G1 X70.143 Y83.711 E22.51455
G1 X69.979 Y82.96 E22.5529
G1 X69.885 Y81.982 E22.60192
G1 X69.82 Y79.771 E22.71227
G1 X69.82 Y79.351 E22.73323
G1 X69.887 Y76.909 E22.8551
G1 X69.916 Y76.423 E22.87939
G1 X70.141 Y74.017 E22.99995
G1 X70.196 Y73.572 E23.02232
G1 X70.568 Y71.173 E23.14344
G1 X70.662 Y70.679 E23.16853
G1 X71.395 Y67.427 E23.33484
G1 X71.526 Y66.521 E23.38051
G1 X71.675 Y65.767 E23.41886
G1 X71.902 Y65.032 E23.45723
G1 X72.204 Y64.324 E23.49564
G1 X72.577 Y63.652 E23.53398
G1 X73.019 Y63.022 E23.57237
G1 X73.523 Y62.441 E23.61075
G0 F3600 X73.897 Y62.631
G1 F1800 X74.308 Y62.252 E23.63864
G1 X75.456 Y61.273 E23.71391
G1 X76.05 Y60.818 E23.75124
G1 X76.931 Y60.307 E23.80205
G1 X77.448 Y60.055 E23.83075
G1 X78.137 Y59.763 E23.86808
G1 X78.853 Y59.547 E23.90539
G1 X79.588 Y59.409 E23.9427
G1 X80.334 Y59.349 E23.98004
G1 X80.971 Y59.362 E24.01183
G1 X81.523 Y59.398 E24.03943
G1 X82.265 Y59.486 E24.0767
G1 X82.994 Y59.654 E24.11403
G1 X83.702 Y59.898 E24.15139
G1 X84.379 Y60.216 E24.1887
G1 X84.902 Y60.527 E24.21906
G1 X85.748 Y61.081 E24.26951
G1 X86.351 Y61.524 E24.30684
G1 X86.639 Y61.773 E24.32584
G1 X87.346 Y62.42 E24.37365
G1 X87.87 Y62.954 E24.41098
G1 X88.334 Y63.54 E24.44827
G1 X88.733 Y64.173 E24.4856
G1 X89.062 Y64.845 E24.52293
G1 X89.317 Y65.548 E24.56023
G1 X89.496 Y66.275 E24.59759
G1 X89.579 Y66.823 E24.62524
G1 X89.607 Y67.082 E24.63824
G1 X90.428 Y70.797 E24.82805
G1 X90.51 Y71.233 E24.85018
G1 X90.882 Y73.63 E24.9712
G1 X90.945 Y74.169 E24.99828
G1 X91.222 Y77.784 E25.17916
G1 X91.241 Y78.421 E25.21095
G1 X91.191 Y81.865 E25.38279
G1 X91.14 Y82.611 E25.4201
G1 X91.01 Y83.348 E25.45743
G1 X90.802 Y84.066 E25.49473
G1 X90.519 Y84.758 E25.53203
G1 X90.163 Y85.416 E25.56935
G1 X89.739 Y86.033 E25.6067
G1 X89.141 Y86.714 E25.65192
G1 X89.007 Y86.848 E25.66137
G1 X89.007 Y89.909 E25.81408
G1 X89.609 Y89.676 E25.84629
G1 X90.331 Y89.482 E25.88359
G1 X91.07 Y89.366 E25.92091
G1 X91.808 Y89.33 E25.95777
G1 X92.347 Y89.332 E25.98466
G1 X93.094 Y89.375 E26.02199
G1 X93.832 Y89.497 E26.05931
G1 X94.553 Y89.697 E26.09664
G1 X95.225 Y89.964 E26.13272
G1 X99.588 Y89.964 E26.35039
G1 X99.788 Y89.868 E26.36145
G1 X100.493 Y89.618 E26.39877
G1 X101.221 Y89.444 E26.43612
G1 X101.963 Y89.349 E26.47344
G1 X102.48 Y89.33 E26.49925
G1 X103.019 Y89.33 E26.52614
G1 X103.766 Y89.37 E26.56346
G1 X104.504 Y89.489 E26.60075
G1 X105.226 Y89.687 E26.6381
G1 X105.922 Y89.96 E26.6754
G1 X106.585 Y90.307 E26.71274
G1 X107.036 Y90.597 E26.73949
G1 X108.172 Y91.393 E26.80869
G1 X108.761 Y91.855 E26.84604
G1 X109.297 Y92.376 E26.88333
G1 X109.774 Y92.952 E26.92064
G1 X110.188 Y93.576 E26.958
G1 X110.416 Y93.996 E26.98184
G1 X110.519 Y94.202 E26.99333
G1 X110.817 Y94.888 E27.03065
G1 X111.041 Y95.601 E27.06794
G1 X111.187 Y96.335 E27.10527
G1 X111.258 Y97.332 E27.15514
G1 X111.258 Y98.488 E27.21281
G1 X111.218 Y99.235 E27.25013
G1 X111.099 Y99.973 E27.28743
G1 X110.901 Y100.695 E27.32478
G1 X110.628 Y101.391 E27.36208
G1 X110.283 Y102.05 E27.39919
G1 X110.397 Y102.233 E27.40994
G1 X110.721 Y102.907 E27.44725
G1 X110.971 Y103.612 E27.48457
G1 X111.145 Y104.34 E27.52192
G1 X111.24 Y105.082 E27.55924
G1 X111.259 Y105.633 E27.58674
G1 X111.253 Y106.883 E27.64911
G1 X111.209 Y107.629 E27.68639
G1 X111.086 Y108.367 E27.72372
G1 X110.885 Y109.088 E27.76106
G1 X110.609 Y109.783 E27.79837
G1 X110.259 Y110.444 E27.83568
G1 X109.841 Y111.065 E27.87303
G1 X109.427 Y111.557 E27.90511
G1 X109.771 Y112.018 E27.9338
G1 X110.114 Y112.591 E27.96712
G1 X110.219 Y112.787 E27.97821
G1 X110.537 Y113.465 E28.01558
G1 X110.78 Y114.172 E28.05287
G1 X110.947 Y114.901 E28.09019
G1 X111.039 Y115.711 E28.13086
G1 X111.102 Y116.864 E28.18847
G1 X111.102 Y117.612 E28.22578
G1 X111.023 Y118.356 E28.26311
G1 X110.866 Y119.087 E28.30041
G1 X110.63 Y119.797 E28.33774
G1 X110.321 Y120.478 E28.37505
G1 X110.32 Y120.479 E28.37512
G1 X110.443 Y120.655 E28.38583
G1 X110.804 Y121.311 E28.42319
