;FLAVOR:RepRap
;TIME:1875
;Filament used: 0.944034m
;Layer height: 0.1
;Generated with Cura_SteamEngine 2.5.0
M190 S59
M104 S200
M109 S200
G21 ;metric values
G90 ;absolute positioning
M82 ;set extruder to absolute mode
M107 ;start with the fan off
G28 X0 Y0 ;move X/Y to min endstops
G28 Z0 ;move Z to min endstops
G1 Z15.0 F9000 ;move the platform down 15mm
G92 E0 ;zero the extruded length
G1 F200 E3 ;extrude 3mm of feed stock
G92 E0 ;zero the extruded length again
G1 F9000
;Put printing message on LCD screen
M117 Printing...
;LAYER_COUNT:143
;LAYER:0
M107
G0 F3600 X74.482 Y73.248 Z0.3
;TYPE:SKIRT
G1 F1800 X75.584 Y72.284 E0.07305
G1 X76.013 Y71.962 E0.09981
G1 X76.317 Y71.788 E0.11728
G1 X76.879 Y71.501 E0.14877
G1 X77.373 Y71.293 E0.17551
G1 X77.893 Y71.161 E0.20227
G1 X78.245 Y71.117 E0.21997
G1 X78.563 Y71.093 E0.23588
G1 X79.099 Y71.093 E0.26262
G1 X79.63 Y71.172 E0.2894
G1 X80.206 Y71.355 E0.31956
G1 X80.725 Y71.569 E0.34756
G1 X81.204 Y71.81 E0.37432
G1 X81.626 Y72.106 E0.40003
G1 X82.698 Y72.979 E0.46901
G1 X82.901 Y73.157 E0.48248
G1 X87.457 Y77.474 E0.79561
G1 X91.628 Y80.978 E1.06739
G1 X95.995 Y84.245 E1.33948
G1 X100.534 Y87.255 E1.6112
G1 X107.939 Y91.533 E2.03785
G1 X108.297 Y91.769 E2.05925
G1 X108.963 Y92.268 E2.10076
G1 X109.367 Y92.621 E2.12753
G1 X109.714 Y93.029 E2.15425
G1 X109.996 Y93.485 E2.181
G1 X110.208 Y93.978 E2.20777
G1 X110.344 Y94.497 E2.23454
G1 X110.389 Y94.821 E2.25086
G1 X110.443 Y95.412 E2.28047
G1 X110.457 Y95.818 E2.30074
G1 X110.398 Y98.574 E2.43826
G1 X110.458 Y103.967 E2.70734
G1 X110.458 Y104.065 E2.71223
G1 X110.348 Y110.867 E3.05163
G1 X110.404 Y112.856 E3.1509
G1 X110.457 Y114.707 E3.24328
G1 X110.457 Y114.887 E3.25226
G1 X110.397 Y117.66 E3.39064
G1 X110.447 Y123.772 E3.69558
G1 X110.411 Y124.307 E3.72233
G1 X110.297 Y124.831 E3.74908
G1 X110.105 Y125.332 E3.77585
G1 X109.842 Y125.799 E3.80259
G1 X109.463 Y126.274 E3.83291
G1 X109.116 Y126.641 E3.85811
G1 X108.719 Y127.002 E3.88488
G1 X108.448 Y127.195 E3.90148
G1 X102.553 Y130.989 E4.25122
G1 X98.142 Y134.172 E4.5226
G1 X93.888 Y137.623 E4.79589
G1 X89.866 Y141.28 E5.06709
G1 X86.038 Y145.18 E5.33973
G1 X82.681 Y148.99 E5.59307
G1 X82.298 Y149.365 E5.61981
G1 X81.863 Y149.678 E5.64655
G1 X81.386 Y149.924 E5.67333
G1 X80.878 Y150.096 E5.70008
G1 X80.35 Y150.191 E5.72685
G1 X79.953 Y150.21 E5.74668
G1 X77.455 Y150.191 E5.87131
G1 X76.92 Y150.147 E5.89809
G1 X76.398 Y150.024 E5.92484
G1 X75.9 Y149.825 E5.9516
G1 X75.437 Y149.554 E5.97836
G1 X75.02 Y149.217 E6.00511
G1 X74.657 Y148.822 E6.03188
G1 X74.357 Y148.378 E6.05861
G1 X74.126 Y147.894 E6.08537
G1 X73.97 Y147.381 E6.11212
G1 X73.882 Y146.592 E6.15173
G1 X73.873 Y110.832 E7.9358
G1 X73.717 Y105.306 E8.2116
G1 X73.256 Y99.882 E8.48318
G1 X72.485 Y94.476 E8.75562
G1 X71.783 Y90.786 E8.94302
G1 X71.723 Y90.255 E8.96968
G1 X71.661 Y88.689 E9.04786
G1 X71.66 Y88.437 E9.06044
G1 X71.773 Y84.742 E9.24487
G1 X71.797 Y84.42 E9.26098
G1 X72.2 Y81.089 E9.42837
G1 X72.239 Y80.838 E9.44105
G1 X73.046 Y76.659 E9.65339
G1 X73.048 Y76.65 E9.65385
G1 X73.319 Y75.266 E9.72421
G1 X73.461 Y74.749 E9.75096
G1 X73.678 Y74.259 E9.77769
G1 X73.966 Y73.806 E9.80447
G1 X74.482 Y73.248 E9.84239
G0 F3600 X74.745 Y73.549
G1 F1800 X75.847 Y72.585 E9.91544
G1 X76.253 Y72.284 E9.94065
G1 X76.499 Y72.144 E9.95477
G1 X77.061 Y71.857 E9.98626
G1 X77.528 Y71.663 E10.01148
G1 X78.019 Y71.546 E10.03667
G1 X78.275 Y71.516 E10.04953
G1 X78.593 Y71.492 E10.06544
G1 X79.099 Y71.494 E10.09068
G1 X79.598 Y71.575 E10.1159
G1 X80.054 Y71.725 E10.13985
G1 X80.573 Y71.939 E10.16786
G1 X81.024 Y72.168 E10.19309
G1 X81.374 Y72.416 E10.21449
G1 X82.446 Y73.289 E10.28347
G1 X82.626 Y73.447 E10.29542
G1 X87.198 Y77.78 E10.60968
G1 X91.378 Y81.292 E10.88206
G1 X95.756 Y84.567 E11.15483
G1 X100.323 Y87.595 E11.4282
G1 X107.739 Y91.879 E11.85549
G1 X108.057 Y92.089 E11.8745
G1 X108.723 Y92.588 E11.91602
G1 X109.102 Y92.922 E11.94122
G1 X109.424 Y93.312 E11.96645
G1 X109.681 Y93.748 E11.9917
G1 X109.866 Y94.218 E12.0169
G1 X109.991 Y94.858 E12.04944
G1 X110.045 Y95.449 E12.07904
G1 X110.057 Y95.809 E12.09701
G1 X109.997 Y98.567 E12.23464
G1 X110.058 Y103.971 E12.50427
G1 X110.058 Y104.059 E12.50866
G1 X109.948 Y110.883 E12.84915
G1 X110.004 Y112.867 E12.94817
G1 X110.057 Y114.718 E13.04056
G1 X110.057 Y114.879 E13.04859
G1 X109.997 Y117.646 E13.18667
G1 X110.047 Y123.775 E13.49246
G1 X110.011 Y124.279 E13.51767
G1 X109.896 Y124.772 E13.54292
G1 X109.705 Y125.24 E13.56814
G1 X109.443 Y125.672 E13.59335
G1 X109.172 Y125.999 E13.61453
G1 X108.825 Y126.366 E13.63973
G1 X108.45 Y126.705 E13.66495
G1 X108.232 Y126.859 E13.67827
G1 X102.324 Y130.662 E14.02881
G1 X97.89 Y133.861 E14.30158
G1 X93.631 Y137.316 E14.57519
G1 X89.594 Y140.987 E14.84742
G1 X85.736 Y144.917 E15.12217
G1 X82.381 Y148.725 E15.37537
G1 X82.018 Y149.077 E15.4006
G1 X81.604 Y149.367 E15.42581
G1 X81.149 Y149.589 E15.45107
G1 X80.666 Y149.736 E15.47626
G1 X79.956 Y149.81 E15.51187
G1 X77.458 Y149.791 E15.6365
G1 X76.954 Y149.747 E15.66174
G1 X76.463 Y149.625 E15.68699
G1 X75.998 Y149.426 E15.71222
G1 X75.57 Y149.157 E15.73744
G1 X75.19 Y148.824 E15.76265
G1 X74.867 Y148.435 E15.78787
G1 X74.609 Y148 E15.8131
G1 X74.423 Y147.53 E15.83832
G1 X74.313 Y147.037 E15.86352
G1 X74.282 Y146.592 E15.88578
G1 X74.273 Y110.809 E17.671
G1 X74.117 Y105.295 E17.9462
G1 X73.652 Y99.828 E18.21994
G1 X72.879 Y94.407 E18.49313
G1 X72.176 Y90.711 E18.68083
G1 X72.123 Y90.24 E18.70448
G1 X72.061 Y88.674 E18.78267
G1 X72.059 Y88.449 E18.79389
G1 X72.172 Y84.754 E18.97832
G1 X72.194 Y84.468 E18.99263
G1 X72.597 Y81.137 E19.16003
G1 X72.632 Y80.914 E19.17129
G1 X73.439 Y76.735 E19.38363
G1 X73.441 Y76.727 E19.38404
G1 X73.712 Y75.343 E19.4544
G1 X73.848 Y74.856 E19.47963
G1 X74.059 Y74.397 E19.50483
G1 X74.339 Y73.976 E19.53006
G1 X74.745 Y73.549 E19.55945
G1 F1500 E13.05945
G0 F3600 X76.586 Y75.275
G0 X77.459 Y76.215
G0 X77.492 Y76.608
G0 X77.393 Y76.598
;TYPE:WALL-INNER
G1 F1500 E19.55945
G1 F1800 X77.401 Y76.433 E19.5677
G1 X77.442 Y76.206 E19.5792
G1 X77.871 Y75.808 E19.6084
G1 X78.329 Y75.452 E19.63734
G1 X78.588 Y75.307 E19.65215
G1 X78.688 Y75.272 E19.65743
G1 X78.789 Y75.273 E19.66247
G1 X78.866 Y75.303 E19.6666
G1 X79.124 Y75.447 E19.68134
G1 X79.505 Y75.743 E19.70541
G1 X79.753 Y75.961 E19.72188
G1 X79.838 Y76.047 E19.72791
G1 X79.979 Y76.169 E19.73722
G1 X79.973 Y76.202 E19.73889
G1 X80.062 Y76.553 E19.75695
G1 X80.06 Y76.607 E19.75965
G1 X80.186 Y77.26 E19.79283
G1 X80.338 Y77.97 E19.82905
G1 X80.486 Y78.528 E19.85786
G1 X80.971 Y80.788 E19.97317
G1 X81.33 Y83.123 E20.09104
G1 X81.547 Y85.49 E20.20962
G1 X81.601 Y86.691 E20.2696
G1 X81.614 Y88.121 E20.34095
G1 X81.593 Y89.096 E20.3896
G1 X81.561 Y89.853 E20.4274
G1 X79.387 Y92.048 E20.58153
G1 X79.387 Y146.019 E23.27416
G1 X78.273 Y146.02 E23.32973
G1 X78.073 Y146.02 E23.33971
G1 X78.073 Y145.82 E23.34617
G1 X78.073 Y92.048 E26.02887
G1 X75.899 Y89.853 E26.183
G1 X75.866 Y89.093 E26.22095
G1 X75.846 Y87.906 E26.28018
G1 X75.861 Y86.706 E26.34005
G1 X75.913 Y85.489 E26.40082
G1 X76.113 Y83.373 E26.50686
G1 X76.133 Y83.112 E26.51992
G1 X76.415 Y81.313 E26.61077
G1 X76.492 Y80.772 E26.63803
G1 X76.938 Y78.7 E26.74377
G1 X77.268 Y77.284 E26.81631
G1 X77.346 Y76.902 E26.83576
G1 X77.393 Y76.598 E26.85111
G0 F3600 X76.995 Y76.557
;TYPE:WALL-OUTER
G1 F1800 X77.004 Y76.383 E26.8598
G1 X77.053 Y76.107 E26.87379
G1 X77.058 Y76.016 E26.87833
G1 X77.613 Y75.502 E26.91607
G1 X78.11 Y75.116 E26.94747
G1 X78.424 Y74.94 E26.96543
G1 X78.602 Y74.878 E26.97483
G1 X78.648 Y74.872 E26.97714
G1 X78.81 Y74.872 E26.98523
G1 X78.894 Y74.885 E26.98947
G1 X79.036 Y74.94 E26.99706
G1 X79.346 Y75.113 E27.01478
G1 X79.766 Y75.439 E27.0413
G1 X80.03 Y75.672 E27.05887
G1 X80.112 Y75.755 E27.06469
G1 X80.35 Y75.961 E27.08039
G1 X80.402 Y76.016 E27.08417
G1 X80.406 Y76.072 E27.08697
G1 X80.383 Y76.19 E27.09297
G1 X80.465 Y76.511 E27.1095
G1 X80.462 Y76.578 E27.11284
G1 X80.578 Y77.18 E27.14343
G1 X80.727 Y77.877 E27.17899
G1 X80.873 Y78.425 E27.20728
G1 X81.362 Y80.704 E27.32357
G1 X81.727 Y83.075 E27.44325
G1 X81.947 Y85.472 E27.56334
G1 X82.001 Y86.673 E27.62332
G1 X82.014 Y88.13 E27.69601
G1 X81.993 Y89.113 E27.74507
G1 X81.955 Y90.023 E27.79051
G1 X79.787 Y92.213 E27.94425
G1 X79.787 Y146.419 E30.6486
G1 X77.873 Y146.42 E30.74409
G1 X77.673 Y146.42 E30.75406
G1 X77.673 Y146.22 E30.76053
G1 X77.673 Y92.213 E33.45495
G1 X75.506 Y90.024 E33.60862
G1 X75.466 Y89.111 E33.65421
G1 X75.446 Y87.901 E33.71459
G1 X75.461 Y86.689 E33.77506
G1 X75.513 Y85.472 E33.83583
G1 X75.714 Y83.339 E33.94272
G1 X75.734 Y83.076 E33.95588
G1 X76.019 Y81.254 E34.04788
G1 X76.098 Y80.704 E34.0756
G1 X76.548 Y78.609 E34.18251
G1 X76.877 Y77.199 E34.25474
G1 X76.952 Y76.831 E34.27348
G1 X76.995 Y76.557 E34.28732
G0 F3600 X77.004 Y76.383
G0 X77.008 Y76.358
G0 X77.58 Y76.448
;TYPE:SKIN
G1 F1800 X80.477 Y79.345 E34.49171
G1 X80.547 Y79.415
G0 F3600 X80.632 Y80.066
G1 F1800 X77.517 Y76.952 E34.71146
G1 X77.447 Y76.882
G0 F3600 X77.419 Y77.419
G1 F1800 X80.787 Y80.787 E34.94909
G1 X80.857 Y80.857
G0 F3600 X80.893 Y81.458
G1 F1800 X77.312 Y77.878 E35.20171
G1 X77.242 Y77.808
G0 F3600 X77.206 Y78.337
G1 F1800 X80.995 Y82.126 E35.46905
G1 X81.065 Y82.196
G0 F3600 X81.097 Y82.794
G1 F1800 X77.1 Y78.797 E35.75106
G1 X77.03 Y78.727
G0 F3600 X77 Y79.263
G1 F1800 X81.178 Y83.441 E36.04584
G1 X81.248 Y83.511
G0 F3600 X81.235 Y84.064
G1 F1800 X76.899 Y79.728 E36.35177
G1 X76.829 Y79.658
G0 F3600 X76.799 Y80.193
G1 F1800 X81.293 Y84.687 E36.66884
G1 X81.363 Y84.757
G0 F3600 X81.349 Y85.309
G1 F1800 X76.699 Y80.659 E36.99693
G1 X76.629 Y80.589
G0 F3600 X76.619 Y81.145
G1 F1800 X81.385 Y85.911 E37.33319
G1 X81.455 Y85.981
G0 F3600 X81.412 Y86.503
G1 F1800 X76.545 Y81.636 E37.67659
G1 X76.475 Y81.566
G0 F3600 X76.469 Y82.126
G1 F1800 X81.424 Y87.081 E38.02619
G1 X81.494 Y87.151
G0 F3600 X81.429 Y87.652
G1 F1800 X76.392 Y82.615 E38.38157
G1 X76.322 Y82.545
G0 F3600 X76.315 Y83.104
G1 F1800 X81.431 Y88.22 E38.74254
G1 X81.501 Y88.29
G0 F3600 X81.419 Y88.773
G1 F1800 X76.269 Y83.623 E39.1059
G1 X76.199 Y83.553
G0 F3600 X76.22 Y84.14
G1 F1800 X81.403 Y89.323 E39.47159
G1 X81.473 Y89.393
G0 F3600 X81.337 Y89.823
G1 F1800 X76.171 Y84.656 E39.83611
G1 X76.101 Y84.586
G0 F3600 X76.122 Y85.173
G1 F1800 X81.056 Y90.107 E40.18423
G1 X81.126 Y90.177
G0 F3600 X80.774 Y90.391
G1 F1800 X76.083 Y85.7 E40.51521
G1 X76.013 Y85.63
G0 F3600 X76.06 Y86.242
G1 F1800 X80.493 Y90.675 E40.82798
G1 X80.563 Y90.745
G0 F3600 X80.212 Y90.96
G1 F1800 X76.039 Y86.787 E41.12241
G1 X75.969 Y86.717
G0 F3600 X76.032 Y87.346
G1 F1800 X79.93 Y91.244 E41.39743
G1 X80 Y91.314
G0 F3600 X79.648 Y91.527
G1 F1800 X76.025 Y87.905 E41.65302
G1 X75.955 Y87.835
G0 F3600 X76.035 Y88.48
G1 F1800 X79.367 Y91.812 E41.88811
G1 X79.437 Y91.882
G0 F3600 X79.207 Y92.218
G1 F1800 X76.045 Y89.056 E42.1112
G1 X75.975 Y88.986
G0 F3600 X76.07 Y89.646
G1 F1800 X79.207 Y92.783 E42.33254
G1 X79.277 Y92.853
G0 F3600 X79.207 Y93.349
G1 F1800 X78.252 Y92.394 E42.39992
G1 X78.182 Y92.324
G0 F3600 X78.252 Y92.96
G1 F1800 X79.207 Y93.915 E42.4673
G1 X79.277 Y93.985
G0 F3600 X79.207 Y94.48
G1 F1800 X78.252 Y93.526 E42.53464
G1 X78.182 Y93.456
G0 F3600 X78.252 Y94.091
G1 F1800 X79.207 Y95.046 E42.60202
G1 X79.277 Y95.116
G0 F3600 X79.207 Y95.612
G1 F1800 X78.252 Y94.657 E42.6694
G1 X78.182 Y94.587
G0 F3600 X78.252 Y95.223
G1 F1800 X79.207 Y96.177 E42.73675
G1 X79.277 Y96.247
G0 F3600 X79.207 Y96.743
G1 F1800 X78.252 Y95.788 E42.80413
G1 X78.182 Y95.718
G0 F3600 X78.252 Y96.354
G1 F1800 X79.207 Y97.309 E42.87151
G1 X79.277 Y97.379
G0 F3600 X79.207 Y97.874
G1 F1800 X78.252 Y96.92 E42.93885
G1 X78.182 Y96.85
G0 F3600 X78.252 Y97.485
G1 F1800 X79.207 Y98.44 E43.00623
G1 X79.277 Y98.51
G0 F3600 X79.207 Y99.006
G1 F1800 X78.252 Y98.051 E43.07361
G1 X78.182 Y97.981
G0 F3600 X78.252 Y98.617
G1 F1800 X79.207 Y99.571 E43.14096
G1 X79.277 Y99.641
G0 F3600 X79.207 Y100.137
G1 F1800 X78.252 Y99.183 E43.20831
G1 X78.182 Y99.113
G0 F3600 X78.252 Y99.748
G1 F1800 X79.207 Y100.703 E43.27569
G1 X79.277 Y100.773
G0 F3600 X79.207 Y101.269
G1 F1800 X78.252 Y100.314 E43.34307
G1 X78.182 Y100.244
G0 F3600 X78.252 Y100.88
G1 F1800 X79.207 Y101.834 E43.41041
G1 X79.277 Y101.904
G0 F3600 X79.207 Y102.4
G1 F1800 X78.252 Y101.445 E43.47779
G1 X78.182 Y101.375
G0 F3600 X78.252 Y102.011
G1 F1800 X79.207 Y102.966 E43.54517
G1 X79.277 Y103.036
G0 F3600 X79.207 Y103.531
G1 F1800 X78.252 Y102.577 E43.61252
G1 X78.182 Y102.507
G0 F3600 X78.252 Y103.142
G1 F1800 X79.207 Y104.097 E43.6799
G1 X79.277 Y104.167
G0 F3600 X79.207 Y104.663
G1 F1800 X78.252 Y103.708 E43.74728
G1 X78.182 Y103.638
G0 F3600 X78.252 Y104.274
G1 F1800 X79.207 Y105.228 E43.81462
G1 X79.277 Y105.298
G0 F3600 X79.207 Y105.794
G1 F1800 X78.252 Y104.839 E43.882
G1 X78.182 Y104.769
G0 F3600 X78.252 Y105.405
G1 F1800 X79.207 Y106.36 E43.94938
G1 X79.277 Y106.43
G0 F3600 X79.207 Y106.925
G1 F1800 X78.252 Y105.971 E44.01673
G1 X78.182 Y105.901
G0 F3600 X78.252 Y106.536
G1 F1800 X79.207 Y107.491 E44.08411
G1 X79.277 Y107.561
G0 F3600 X79.207 Y108.057
G1 F1800 X78.252 Y107.102 E44.15149
G1 X78.182 Y107.032
G0 F3600 X78.252 Y107.668
G1 F1800 X79.207 Y108.622 E44.21883
G1 X79.277 Y108.692
G0 F3600 X79.207 Y109.188
G1 F1800 X78.252 Y108.234 E44.28618
G1 X78.182 Y108.164
G0 F3600 X78.252 Y108.799
G1 F1800 X79.207 Y109.754 E44.35356
G1 X79.277 Y109.824
G0 F3600 X79.207 Y110.319
G1 F1800 X78.252 Y109.365 E44.42091
G1 X78.182 Y109.295
G0 F3600 X78.252 Y109.931
G1 F1800 X79.207 Y110.885 E44.48825
G1 X79.277 Y110.955
G0 F3600 X79.207 Y111.451
G1 F1800 X78.252 Y110.496 E44.55563
G1 X78.182 Y110.426
G0 F3600 X78.252 Y111.062
G1 F1800 X79.207 Y112.017 E44.62301
G1 X79.277 Y112.087
G0 F3600 X79.207 Y112.582
G1 F1800 X78.252 Y111.628 E44.69036
G1 X78.182 Y111.558
G0 F3600 X78.252 Y112.193
G1 F1800 X79.207 Y113.148 E44.75774
G1 X79.277 Y113.218
G0 F3600 X79.207 Y113.714
G1 F1800 X78.252 Y112.759 E44.82512
G1 X78.182 Y112.689
G0 F3600 X78.252 Y113.325
G1 F1800 X79.207 Y114.279 E44.89246
G1 X79.277 Y114.349
G0 F3600 X79.207 Y114.845
G1 F1800 X78.252 Y113.89 E44.95984
G1 X78.182 Y113.82
G0 F3600 X78.252 Y114.456
G1 F1800 X79.207 Y115.411 E45.02722
G1 X79.277 Y115.481
G0 F3600 X79.207 Y115.976
G1 F1800 X78.252 Y115.022 E45.09457
G1 X78.182 Y114.952
G0 F3600 X78.252 Y115.587
G1 F1800 X79.207 Y116.542 E45.16195
G1 X79.277 Y116.612
G0 F3600 X79.207 Y117.108
G1 F1800 X78.252 Y116.153 E45.22933
G1 X78.182 Y116.083
G0 F3600 X78.252 Y116.719
G1 F1800 X79.207 Y117.673 E45.29667
G1 X79.277 Y117.743
G0 F3600 X79.207 Y118.239
G1 F1800 X78.252 Y117.284 E45.36405
G1 X78.182 Y117.214
G0 F3600 X78.252 Y117.85
G1 F1800 X79.207 Y118.805 E45.43144
G1 X79.277 Y118.875
G0 F3600 X79.207 Y119.37
G1 F1800 X78.252 Y118.416 E45.49878
G1 X78.182 Y118.346
G0 F3600 X78.252 Y118.982
G1 F1800 X79.207 Y119.936 E45.56613
G1 X79.277 Y120.006
G0 F3600 X79.207 Y120.502
G1 F1800 X78.252 Y119.547 E45.63351
G1 X78.182 Y119.477
G0 F3600 X78.252 Y120.113
G1 F1800 X79.207 Y121.067 E45.70085
G1 X79.277 Y121.137
G0 F3600 X79.207 Y121.633
G1 F1800 X78.252 Y120.679 E45.7682
G1 X78.182 Y120.609
G0 F3600 X78.252 Y121.244
G1 F1800 X79.207 Y122.199 E45.83558
G1 X79.277 Y122.269
G0 F3600 X79.207 Y122.765
G1 F1800 X78.252 Y121.81 E45.90296
G1 X78.182 Y121.74
G0 F3600 X78.252 Y122.376
G1 F1800 X79.207 Y123.33 E45.9703
G1 X79.277 Y123.4
G0 F3600 X79.207 Y123.896
G1 F1800 X78.252 Y122.941 E46.03768
G1 X78.182 Y122.871
G0 F3600 X78.252 Y123.507
G1 F1800 X79.207 Y124.462 E46.10506
G1 X79.277 Y124.532
G0 F3600 X79.207 Y125.027
G1 F1800 X78.252 Y124.073 E46.17241
G1 X78.182 Y124.003
G0 F3600 X78.252 Y124.638
G1 F1800 X79.207 Y125.593 E46.23979
G1 X79.277 Y125.663
G0 F3600 X79.207 Y126.159
G1 F1800 X78.252 Y125.204 E46.30717
G1 X78.182 Y125.134
G0 F3600 X78.252 Y125.77
G1 F1800 X79.207 Y126.724 E46.37451
G1 X79.277 Y126.794
G0 F3600 X79.207 Y127.29
G1 F1800 X78.252 Y126.335 E46.44189
G1 X78.182 Y126.265
G0 F3600 X78.252 Y126.901
G1 F1800 X79.207 Y127.856 E46.50927
G1 X79.277 Y127.926
G0 F3600 X79.207 Y128.421
G1 F1800 X78.252 Y127.467 E46.57662
G1 X78.182 Y127.397
G0 F3600 X78.252 Y128.032
