;FLAVOR:RepRap
;TIME:1536
;Filament used: 0.793021m
;Layer height: 0.1
;Generated with Cura_SteamEngine 2.5.0
M190 S59
M104 S200
M109 S200
G21 ;metric values
G90 ;absolute positioning
M82 ;set extruder to absolute mode
M107 ;start with the fan off
G28 X0 Y0 ;move X/Y to min endstops
G28 Z0 ;move Z to min endstops
G1 Z15.0 F9000 ;move the platform down 15mm
G92 E0 ;zero the extruded length
G1 F200 E3 ;extrude 3mm of feed stock
G92 E0 ;zero the extruded length again
G1 F9000
;Put printing message on LCD screen
M117 Printing...
;LAYER_COUNT:143
;LAYER:0
M107
G0 F3600 X133.457 Y74.262 Z0.3
;TYPE:SKIRT
G1 F1800 X133.739 Y73.806 E0.02675
G1 X134.115 Y73.368 E0.05555
G1 X134.392 Y73.093 E0.07502
G1 X134.572 Y72.926 E0.08727
G1 X135.309 Y72.288 E0.1359
G1 X135.739 Y71.968 E0.16265
G1 X136.069 Y71.783 E0.18152
G1 X136.728 Y71.457 E0.2182
G1 X137.225 Y71.256 E0.24495
G1 X137.746 Y71.131 E0.27168
G1 X138.324 Y71.084 E0.30061
G1 X138.538 Y71.084 E0.31129
G1 X139.073 Y71.124 E0.33805
G1 X139.596 Y71.243 E0.36481
G1 X140.042 Y71.413 E0.38862
G1 X140.614 Y71.676 E0.42003
G1 X141.083 Y71.936 E0.44679
G1 X141.516 Y72.269 E0.47404
G1 X142.616 Y73.257 E0.5478
G1 X142.987 Y73.644 E0.57455
G1 X143.296 Y74.082 E0.60129
G1 X143.537 Y74.561 E0.62804
G1 X143.75 Y75.282 E0.66555
G1 X144.933 Y81.7 E0.99114
G1 X144.977 Y82.009 E1.00671
G1 X145.302 Y85.392 E1.17627
G1 X145.318 Y85.72 E1.19265
G1 X145.335 Y89.501 E1.38129
G1 X145.289 Y90.093 E1.41091
G1 X144.16 Y97.054 E1.76274
G1 X143.561 Y102.467 E2.03444
G1 X143.268 Y107.928 E2.30728
G1 X143.226 Y146.614 E4.23734
G1 X143.185 Y147.149 E4.26411
G1 X143.066 Y147.671 E4.29082
G1 X142.87 Y148.171 E4.31761
G1 X142.602 Y148.635 E4.34434
G1 X142.268 Y149.055 E4.37111
G1 X141.876 Y149.42 E4.39784
G1 X141.433 Y149.723 E4.42461
G1 X140.951 Y149.957 E4.45134
G1 X140.439 Y150.117 E4.47811
G1 X139.909 Y150.199 E4.50486
G1 X139.626 Y150.21 E4.51899
G1 X137.233 Y150.21 E4.63838
G1 X136.698 Y150.17 E4.66515
G1 X136.175 Y150.051 E4.6919
G1 X135.676 Y149.856 E4.71863
G1 X135.211 Y149.588 E4.74541
G1 X134.791 Y149.255 E4.77215
G1 X134.425 Y148.863 E4.79891
G1 X134.122 Y148.421 E4.82564
G1 X133.887 Y147.938 E4.85244
G1 X133.727 Y147.427 E4.87915
G1 X133.644 Y146.897 E4.90592
G1 X133.633 Y146.611 E4.9202
G1 X133.623 Y110.408 E6.72637
G1 X133.467 Y104.882 E7.00218
G1 X133.006 Y99.459 E7.27371
G1 X132.234 Y94.042 E7.54669
G1 X131.633 Y90.853 E7.70859
G1 X131.575 Y90.354 E7.73366
G1 X131.5 Y88.739 E7.81431
G1 X131.497 Y88.473 E7.82759
G1 X131.597 Y84.854 E8.00821
G1 X131.614 Y84.589 E8.02146
G1 X131.864 Y82.129 E8.14482
G1 X131.905 Y81.844 E8.15918
G1 X133.11 Y75.274 E8.49243
G1 X133.246 Y74.755 E8.5192
G1 X133.457 Y74.262 E8.54595
G0 F3600 X133.839 Y74.395
G1 F1800 X134.115 Y73.972 E8.57115
G1 X134.396 Y73.652 E8.5924
G1 X134.673 Y73.377 E8.61187
G1 X134.834 Y73.229 E8.62278
G1 X135.571 Y72.591 E8.67141
G1 X135.978 Y72.291 E8.69664
G1 X136.246 Y72.142 E8.71194
G1 X136.905 Y71.816 E8.74862
G1 X137.375 Y71.628 E8.77387
G1 X137.868 Y71.517 E8.79908
G1 X138.324 Y71.484 E8.82189
G1 X138.538 Y71.484 E8.83257
G1 X139.042 Y71.524 E8.85779
G1 X139.533 Y71.643 E8.883
G1 X139.875 Y71.777 E8.90132
G1 X140.447 Y72.04 E8.93273
G1 X140.888 Y72.286 E8.95792
G1 X141.248 Y72.566 E8.98068
G1 X142.348 Y73.554 E9.05444
G1 X142.697 Y73.921 E9.07971
G1 X142.983 Y74.338 E9.10494
G1 X143.2 Y74.794 E9.13013
G1 X143.357 Y75.355 E9.1592
G1 X144.54 Y81.773 E9.48479
G1 X144.578 Y82.047 E9.49859
G1 X144.903 Y85.43 E9.66814
G1 X144.918 Y85.722 E9.68273
G1 X144.935 Y89.503 E9.87137
G1 X144.894 Y90.029 E9.89769
G1 X143.766 Y96.986 E10.24931
G1 X143.16 Y102.455 E10.52383
G1 X142.868 Y107.905 E10.79612
G1 X142.826 Y146.613 E12.72727
G1 X142.786 Y147.117 E12.75249
G1 X142.666 Y147.609 E12.77776
G1 X142.471 Y148.075 E12.80296
G1 X142.205 Y148.505 E12.82819
G1 X141.874 Y148.887 E12.8534
G1 X141.487 Y149.213 E12.87865
G1 X141.054 Y149.474 E12.90387
G1 X140.585 Y149.663 E12.9291
G1 X140.093 Y149.776 E12.95428
G1 X139.626 Y149.81 E12.97764
G1 X137.233 Y149.81 E13.09703
G1 X136.729 Y149.77 E13.12225
G1 X136.238 Y149.651 E13.14746
G1 X135.771 Y149.457 E13.17269
G1 X135.341 Y149.191 E13.19791
G1 X134.958 Y148.861 E13.22314
G1 X134.632 Y148.474 E13.24838
G1 X134.371 Y148.041 E13.27361
G1 X134.181 Y147.573 E13.29881
G1 X134.068 Y147.08 E13.32404
G1 X134.033 Y146.611 E13.3475
G1 X134.023 Y110.397 E15.15423
G1 X133.867 Y104.871 E15.43003
G1 X133.402 Y99.405 E15.70371
G1 X132.628 Y93.978 E15.97721
G1 X132.026 Y90.779 E16.13961
G1 X131.974 Y90.335 E16.16191
G1 X131.899 Y88.72 E16.24257
G1 X131.897 Y88.484 E16.25434
G1 X131.997 Y84.865 E16.43497
G1 X132.012 Y84.629 E16.44676
G1 X132.262 Y82.169 E16.57013
G1 X132.299 Y81.916 E16.58288
G1 X133.504 Y75.346 E16.91613
G1 X133.634 Y74.857 E16.94137
G1 X133.839 Y74.395 E16.96659
G1 F1500 E10.46659
G0 F3600 X136.341 Y75.287
G0 X137.234 Y76.208
G0 X137.268 Y76.607
G0 X137.169 Y76.597
;TYPE:WALL-INNER
G1 F1500 E16.96659
G1 F1800 X137.179 Y76.422 E16.97533
G1 X137.217 Y76.199 E16.98662
G1 X137.634 Y75.796 E17.01555
G1 X138.068 Y75.444 E17.04343
G1 X138.309 Y75.305 E17.05731
G1 X138.398 Y75.272 E17.06205
G1 X138.477 Y75.273 E17.06599
G1 X138.543 Y75.3 E17.06955
G1 X138.791 Y75.443 E17.08383
G1 X139.149 Y75.735 E17.10688
G1 X139.606 Y76.163 E17.13811
G1 X139.599 Y76.203 E17.14014
G1 X139.684 Y76.545 E17.15772
G1 X139.681 Y76.605 E17.16072
G1 X139.802 Y77.255 E17.1937
G1 X139.947 Y77.964 E17.22981
G1 X140.089 Y78.522 E17.25853
G1 X140.55 Y80.756 E17.37234
G1 X140.901 Y83.132 E17.49216
G1 X141.108 Y85.488 E17.61016
G1 X141.159 Y86.69 E17.67018
G1 X141.172 Y88.122 E17.74162
G1 X141.152 Y89.097 E17.79028
G1 X141.122 Y89.86 E17.82837
G1 X139.036 Y92.055 E17.97945
G1 X139.036 Y146.019 E20.67172
G1 X138.023 Y146.02 E20.72226
G1 X137.823 Y146.02 E20.73224
G1 X137.823 Y145.82 E20.7387
G1 X137.823 Y92.055 E23.42105
G1 X135.737 Y89.86 E23.57212
G1 X135.705 Y89.095 E23.61032
G1 X135.685 Y87.906 E23.66965
G1 X135.699 Y86.705 E23.72957
G1 X135.75 Y85.488 E23.79034
G1 X135.941 Y83.37 E23.89643
G1 X135.958 Y83.125 E23.90869
G1 X136.232 Y81.31 E24.00026
G1 X136.303 Y80.783 E24.02679
G1 X136.735 Y78.688 E24.13351
G1 X137.052 Y77.278 E24.20561
G1 X137.124 Y76.897 E24.22496
G1 X137.169 Y76.597 E24.24009
G0 F3600 X136.771 Y76.556
;TYPE:WALL-OUTER
G1 F1800 X136.781 Y76.379 E24.24894
G1 X136.827 Y76.106 E24.26275
G1 X136.832 Y76.014 E24.26735
G1 X137.368 Y75.496 E24.30453
G1 X137.84 Y75.114 E24.33483
G1 X138.14 Y74.94 E24.35213
G1 X138.309 Y74.878 E24.36111
G1 X138.351 Y74.872 E24.36323
G1 X138.504 Y74.872 E24.37086
G1 X138.582 Y74.885 E24.37481
G1 X138.719 Y74.939 E24.38215
G1 X139.015 Y75.111 E24.39923
G1 X139.415 Y75.436 E24.42494
G1 X139.66 Y75.662 E24.44157
G1 X139.748 Y75.752 E24.44785
G1 X139.977 Y75.959 E24.46325
G1 X140.025 Y76.012 E24.46682
G1 X140.029 Y76.071 E24.46977
G1 X140.008 Y76.19 E24.4758
G1 X140.086 Y76.508 E24.49214
G1 X140.083 Y76.577 E24.49558
G1 X140.195 Y77.178 E24.52608
G1 X140.337 Y77.875 E24.56157
G1 X140.477 Y78.423 E24.58979
G1 X140.945 Y80.691 E24.70532
G1 X141.297 Y83.074 E24.8255
G1 X141.508 Y85.471 E24.94555
G1 X141.559 Y86.673 E25.00557
G1 X141.572 Y88.13 E25.07827
G1 X141.552 Y89.113 E25.12732
G1 X141.516 Y90.026 E25.1729
G1 X139.436 Y92.215 E25.32355
G1 X139.436 Y146.419 E28.0278
G1 X137.623 Y146.42 E28.11825
G1 X137.423 Y146.42 E28.12823
G1 X137.423 Y146.22 E28.13469
G1 X137.423 Y92.215 E30.82901
G1 X135.343 Y90.027 E30.97962
G1 X135.305 Y89.112 E31.02531
G1 X135.285 Y87.901 E31.08574
G1 X135.299 Y86.688 E31.14626
G1 X135.35 Y85.471 E31.20703
G1 X135.542 Y83.338 E31.31388
G1 X135.561 Y83.075 E31.32703
G1 X135.836 Y81.253 E31.41896
G1 X135.911 Y80.702 E31.4467
G1 X136.343 Y78.607 E31.55342
G1 X136.66 Y77.197 E31.62552
G1 X136.73 Y76.83 E31.64416
G1 X136.771 Y76.556 E31.65798
G0 F3600 X136.781 Y76.379
G0 X136.784 Y76.357
G0 X137.382 Y76.288
;TYPE:SKIN
G1 F1800 X139.979 Y78.885 E31.84122
G1 X140.049 Y78.955
G0 F3600 X140.126 Y79.598
G1 F1800 X137.32 Y76.791 E32.03923
G1 X137.25 Y76.721
G0 F3600 X137.234 Y77.271
G1 F1800 X140.274 Y80.311 E32.25372
G1 X140.344 Y80.381
G0 F3600 X140.405 Y81.008
G1 F1800 X137.132 Y77.735 E32.48465
G1 X137.062 Y77.665
G0 F3600 X137.028 Y78.196
G1 F1800 X140.502 Y81.671 E32.72979
G1 X140.572 Y81.741
G0 F3600 X140.601 Y82.335
G1 F1800 X136.924 Y78.659 E32.98919
G1 X136.854 Y78.589
G0 F3600 X136.826 Y79.126
G1 F1800 X140.698 Y82.998 E33.26238
G1 X140.768 Y83.068
G0 F3600 X140.763 Y83.629
G1 F1800 X136.729 Y79.595 E33.547
G1 X136.659 Y79.525
G0 F3600 X136.632 Y80.064
G1 F1800 X140.818 Y84.249 E33.84231
G1 X140.888 Y84.319
G0 F3600 X140.872 Y84.869
G1 F1800 X136.536 Y80.533 E34.14824
G1 X136.466 Y80.463
G0 F3600 X136.451 Y81.013
G1 F1800 X140.927 Y85.489 E34.46404
G1 X140.997 Y85.559
G0 F3600 X140.952 Y86.081
G1 F1800 X136.381 Y81.51 E34.78655
G1 X136.311 Y81.44
G0 F3600 X136.307 Y82.001
G1 F1800 X140.978 Y86.672 E35.11612
G1 X141.048 Y86.742
G0 F3600 X140.983 Y87.243
G1 F1800 X136.233 Y82.493 E35.45125
G1 X136.163 Y82.423
G0 F3600 X136.159 Y82.985
G1 F1800 X140.989 Y87.814 E35.792
G1 X141.059 Y87.884
G0 F3600 X140.986 Y88.377
G1 F1800 X136.108 Y83.499 E36.13617
G1 X136.038 Y83.429
G0 F3600 X136.061 Y84.018
G1 F1800 X140.974 Y88.931 E36.48281
G1 X141.044 Y89.001
G0 F3600 X140.956 Y89.478
G1 F1800 X136.014 Y84.537 E36.83146
G1 X135.944 Y84.467
G0 F3600 X135.968 Y85.056
G1 F1800 X140.823 Y89.912 E37.17404
G1 X140.893 Y89.982
G0 F3600 X140.548 Y90.202
G1 F1800 X135.925 Y85.579 E37.50022
G1 X135.855 Y85.509
G0 F3600 X135.902 Y86.122
G1 F1800 X140.272 Y90.491 E37.80851
G1 X140.342 Y90.561
G0 F3600 X139.996 Y90.781
G1 F1800 X135.879 Y86.665 E38.09895
G1 X135.809 Y86.595
G0 F3600 X135.871 Y87.223
G1 F1800 X139.721 Y91.072 E38.37056
G1 X139.791 Y91.142
G0 F3600 X139.445 Y91.362
G1 F1800 X135.865 Y87.782 E38.62314
G1 X135.795 Y87.712
G0 F3600 X135.871 Y88.353
G1 F1800 X139.169 Y91.652 E38.85587
G1 X139.239 Y91.722
G0 F3600 X138.894 Y91.942
G1 F1800 X135.881 Y88.929 E39.06845
G1 X135.811 Y88.859
G0 F3600 X135.901 Y89.515
G1 F1800 X138.855 Y92.469 E39.27687
G1 X138.925 Y92.539
G0 F3600 X138.855 Y93.035
G1 F1800 X138.002 Y92.181 E39.33709
G1 X137.932 Y92.111
G0 F3600 X138.002 Y92.747
G1 F1800 X138.855 Y93.601 E39.39731
G1 X138.925 Y93.671
G0 F3600 X138.855 Y94.166
G1 F1800 X138.002 Y93.313 E39.4575
G1 X137.932 Y93.243
G0 F3600 X138.002 Y93.879
G1 F1800 X138.855 Y94.732 E39.51768
G1 X138.925 Y94.802
G0 F3600 X138.855 Y95.298
G1 F1800 X138.002 Y94.444 E39.5779
G1 X137.932 Y94.374
G0 F3600 X138.002 Y95.01
G1 F1800 X138.855 Y95.863 E39.63808
G1 X138.925 Y95.933
G0 F3600 X138.855 Y96.429
G1 F1800 X138.002 Y95.576 E39.69827
G1 X137.932 Y95.506
G0 F3600 X138.002 Y96.141
G1 F1800 X138.855 Y96.995 E39.75849
G1 X138.925 Y97.065
G0 F3600 X138.855 Y97.56
G1 F1800 X138.002 Y96.707 E39.81867
G1 X137.932 Y96.637
G0 F3600 X138.002 Y97.273
G1 F1800 X138.855 Y98.126 E39.87885
G1 X138.925 Y98.196
G0 F3600 X138.855 Y98.692
G1 F1800 X138.002 Y97.838 E39.93907
G1 X137.932 Y97.768
G0 F3600 X138.002 Y98.404
G1 F1800 X138.855 Y99.257 E39.99926
G1 X138.925 Y99.327
G0 F3600 X138.855 Y99.823
G1 F1800 X138.002 Y98.97 E40.05944
G1 X137.932 Y98.9
G0 F3600 X138.002 Y99.535
G1 F1800 X138.855 Y100.389 E40.11966
G1 X138.925 Y100.459
G0 F3600 X138.855 Y100.955
G1 F1800 X138.002 Y100.101 E40.17988
G1 X137.932 Y100.031
G0 F3600 X138.002 Y100.667
G1 F1800 X138.855 Y101.52 E40.24006
G1 X138.925 Y101.59
G0 F3600 X138.855 Y102.086
G1 F1800 X138.002 Y101.232 E40.30028
G1 X137.932 Y101.162
G0 F3600 X138.002 Y101.798
G1 F1800 X138.855 Y102.652 E40.3605
G1 X138.925 Y102.722
G0 F3600 X138.855 Y103.217
G1 F1800 X138.002 Y102.364 E40.42068
G1 X137.932 Y102.294
G0 F3600 X138.002 Y102.929
G1 F1800 X138.855 Y103.783 E40.4809
G1 X138.925 Y103.853
G0 F3600 X138.855 Y104.349
G1 F1800 X138.002 Y103.495 E40.54112
G1 X137.932 Y103.425
G0 F3600 X138.002 Y104.061
G1 F1800 X138.855 Y104.914 E40.60131
G1 X138.925 Y104.984
G0 F3600 X138.855 Y105.48
G1 F1800 X138.002 Y104.627 E40.66149
G1 X137.932 Y104.557
G0 F3600 X138.002 Y105.192
G1 F1800 X138.855 Y106.046 E40.72171
G1 X138.925 Y106.116
G0 F3600 X138.855 Y106.611
G1 F1800 X138.002 Y105.758 E40.78189
G1 X137.932 Y105.688
G0 F3600 X138.002 Y106.324
G1 F1800 X138.855 Y107.177 E40.84208
G1 X138.925 Y107.247
G0 F3600 X138.855 Y107.743
G1 F1800 X138.002 Y106.889 E40.90229
G1 X137.932 Y106.819
G0 F3600 X138.002 Y107.455
G1 F1800 X138.855 Y108.308 E40.96248
G1 X138.925 Y108.378
G0 F3600 X138.855 Y108.874
G1 F1800 X138.002 Y108.021 E41.02266
G1 X137.932 Y107.951
G0 F3600 X138.002 Y108.586
G1 F1800 X138.855 Y109.44 E41.08288
G1 X138.925 Y109.51
G0 F3600 X138.855 Y110.006
G1 F1800 X138.002 Y109.152 E41.1431
G1 X137.932 Y109.082
G0 F3600 X138.002 Y109.718
G1 F1800 X138.855 Y110.571 E41.20328
G1 X138.925 Y110.641
G0 F3600 X138.855 Y111.137
G1 F1800 X138.002 Y110.283 E41.2635
G1 X137.932 Y110.213
G0 F3600 X138.002 Y110.849
G1 F1800 X138.855 Y111.703 E41.32372
G1 X138.925 Y111.773
G0 F3600 X138.855 Y112.268
G1 F1800 X138.002 Y111.415 E41.38391
G1 X137.932 Y111.345
G0 F3600 X138.002 Y111.98
G1 F1800 X138.855 Y112.834 E41.44413
G1 X138.925 Y112.904
G0 F3600 X138.855 Y113.4
G1 F1800 X138.002 Y112.546 E41.50434
G1 X137.932 Y112.476
G0 F3600 X138.002 Y113.112
G1 F1800 X138.855 Y113.965 E41.56453
G1 X138.925 Y114.035
G0 F3600 X138.855 Y114.531
G1 F1800 X138.002 Y113.678 E41.62471
G1 X137.932 Y113.608
G0 F3600 X138.002 Y114.243
G1 F1800 X138.855 Y115.097 E41.68493
G1 X138.925 Y115.167
G0 F3600 X138.855 Y115.662
G1 F1800 X138.002 Y114.809 E41.74511
G1 X137.932 Y114.739
G0 F3600 X138.002 Y115.375
G1 F1800 X138.855 Y116.228 E41.8053
G1 X138.925 Y116.298
G0 F3600 X138.855 Y116.794
G1 F1800 X138.002 Y115.94 E41.86552
G1 X137.932 Y115.87
G0 F3600 X138.002 Y116.506
G1 F1800 X138.855 Y117.359 E41.9257
G1 X138.925 Y117.429
G0 F3600 X138.855 Y117.925
G1 F1800 X138.002 Y117.072 E41.98588
G1 X137.932 Y117.002
G0 F3600 X138.002 Y117.637
G1 F1800 X138.855 Y118.491 E42.0461
G1 X138.925 Y118.561
G0 F3600 X138.855 Y119.056
G1 F1800 X138.002 Y118.203 E42.10629
G1 X137.932 Y118.133
G0 F3600 X138.002 Y118.769
G1 F1800 X138.855 Y119.622 E42.16647
G1 X138.925 Y119.692
G0 F3600 X138.855 Y120.188
G1 F1800 X138.002 Y119.334 E42.22669
G1 X137.932 Y119.264
G0 F3600 X138.002 Y119.9
G1 F1800 X138.855 Y120.754 E42.28691
G1 X138.925 Y120.824
G0 F3600 X138.855 Y121.319
G1 F1800 X138.002 Y120.466 E42.34709
G1 X137.932 Y120.396
G0 F3600 X138.002 Y121.031
G1 F1800 X138.855 Y121.885 E42.40731
G1 X138.925 Y121.955
G0 F3600 X138.855 Y122.451
G1 F1800 X138.002 Y121.597 E42.46753
G1 X137.932 Y121.527
G0 F3600 X138.002 Y122.163
G1 F1800 X138.855 Y123.016 E42.52772
G1 X138.925 Y123.086
G0 F3600 X138.855 Y123.582
G1 F1800 X138.002 Y122.728 E42.58793
G1 X137.932 Y122.658
G0 F3600 X138.002 Y123.294
G1 F1800 X138.855 Y124.148 E42.64815
G1 X138.925 Y124.218
G0 F3600 X138.855 Y124.713
G1 F1800 X138.002 Y123.86 E42.70834
G1 X137.932 Y123.79
G0 F3600 X138.002 Y124.426
G1 F1800 X138.855 Y125.279 E42.76852
G1 X138.925 Y125.349
G0 F3600 X138.855 Y125.845
G1 F1800 X138.002 Y124.991 E42.82874
G1 X137.932 Y124.921
G0 F3600 X138.002 Y125.557
G1 F1800 X138.855 Y126.41 E42.88892
G1 X138.925 Y126.48
G0 F3600 X138.855 Y126.976
G1 F1800 X138.002 Y126.123 E42.94911
G1 X137.932 Y126.053
G0 F3600 X138.002 Y126.688
G1 F1800 X138.855 Y127.542 E43.00933
G1 X138.925 Y127.612
G0 F3600 X138.855 Y128.107
G1 F1800 X138.002 Y127.254 E43.06951
G1 X137.932 Y127.184
G0 F3600 X138.002 Y127.82
G1 F1800 X138.855 Y128.673 E43.12969
G1 X138.925 Y128.743
G0 F3600 X138.855 Y129.239
G1 F1800 X138.002 Y128.385 E43.18991
G1 X137.932 Y128.315
G0 F3600 X138.002 Y128.951
G1 F1800 X138.855 Y129.805 E43.25013
G1 X138.925 Y129.875
G0 F3600 X138.855 Y130.37
G1 F1800 X138.002 Y129.517 E43.31032
G1 X137.932 Y129.447
G0 F3600 X138.002 Y130.082
G1 F1800 X138.855 Y130.936 E43.37053
G1 X138.925 Y131.006
G0 F3600 X138.855 Y131.502
G1 F1800 X138.002 Y130.648 E43.43075
G1 X137.932 Y130.578
G0 F3600 X138.002 Y131.214
G1 F1800 X138.855 Y132.067 E43.49094
G1 X138.925 Y132.137
G0 F3600 X138.855 Y132.633
G1 F1800 X138.002 Y131.779 E43.55116
G1 X137.932 Y131.709
G0 F3600 X138.002 Y132.345
