;FLAVOR:RepRap
;TIME:4286
;Filament used: 2.30538m
;Layer height: 0.1
;Generated with Cura_SteamEngine 2.5.0
M190 S60
M104 S200
M109 S200
G21 ;metric values
G90 ;absolute positioning
M82 ;set extruder to absolute mode
M107 ;start with the fan off
G28 X0 Y0 ;move X/Y to min endstops
G28 Z0 ;move Z to min endstops
G1 Z15.0 F9000 ;move the platform down 15mm
G92 E0 ;zero the extruded length
G1 F200 E3 ;extrude 3mm of feed stock
G92 E0 ;zero the extruded length again
G1 F9000
;Put printing message on LCD screen
M117 Printing...
;LAYER_COUNT:328
;LAYER:0
M107
G0 F3600 X90.765 Y95.738 Z0.3
;TYPE:SKIRT
G1 F1800 X91.221 Y95.358 E0.02961
G1 X91.724 Y95.044 E0.0592
G1 X92.264 Y94.8 E0.08876
G1 X92.832 Y94.63 E0.11834
G1 X93.418 Y94.539 E0.14793
G1 X93.802 Y94.522 E0.1671
G1 X106.198 Y94.523 E0.78554
G1 X106.79 Y94.563 E0.81514
G1 X107.371 Y94.682 E0.84473
G1 X107.93 Y94.878 E0.87428
G1 X108.458 Y95.148 E0.90387
G1 X108.946 Y95.486 E0.93349
G1 X109.383 Y95.887 E0.96308
G1 X109.762 Y96.343 E0.99266
G1 X110.077 Y96.845 E1.02223
G1 X110.321 Y97.386 E1.05184
G1 X110.49 Y97.954 E1.0814
G1 X110.581 Y98.54 E1.11099
G1 X110.598 Y98.923 E1.13011
G1 X110.598 Y108.926 E1.62916
G1 X110.558 Y109.518 E1.65877
G1 X110.439 Y110.098 E1.68831
G1 X110.243 Y110.658 E1.71791
G1 X109.973 Y111.186 E1.74749
G1 X109.635 Y111.673 E1.77707
G1 X109.234 Y112.11 E1.80666
G1 X108.779 Y112.49 E1.83623
G1 X108.276 Y112.804 E1.86582
G1 X107.51 Y113.126 E1.90727
G1 X107.302 Y113.191 E1.91814
G1 X106.726 Y113.329 E1.94769
G1 X105.925 Y113.391 E1.98778
G1 X101.45 Y113.325 E2.21106
G1 X94.756 Y113.4 E2.54504
G1 X94.353 Y113.386 E2.56516
G1 X93.449 Y113.313 E2.61041
G1 X92.862 Y113.225 E2.64002
G1 X92.293 Y113.06 E2.66958
G1 X91.751 Y112.819 E2.69917
G1 X91.246 Y112.508 E2.72876
G1 X90.788 Y112.132 E2.75833
G1 X90.385 Y111.697 E2.78791
G1 X90.043 Y111.212 E2.81752
G1 X89.77 Y110.686 E2.84708
G1 X89.57 Y110.128 E2.87666
G1 X89.447 Y109.548 E2.90624
G1 X89.403 Y108.927 E2.9373
G1 X89.402 Y98.922 E3.43645
G1 X89.442 Y98.331 E3.466
G1 X89.561 Y97.75 E3.49559
G1 X89.757 Y97.19 E3.52519
G1 X90.027 Y96.662 E3.55477
G1 X90.365 Y96.175 E3.58435
G1 X90.765 Y95.738 E3.61391
G0 F3600 X91.158 Y95.921
G1 F1800 X91.607 Y95.578 E3.64209
G1 X92.101 Y95.302 E3.67033
G1 X92.628 Y95.098 E3.69852
G1 X93.179 Y94.971 E3.72673
G1 X93.802 Y94.922 E3.75791
G1 X106.198 Y94.923 E4.37635
G1 X106.762 Y94.963 E4.40455
G1 X107.315 Y95.082 E4.43278
G1 X107.845 Y95.278 E4.46097
G1 X108.343 Y95.547 E4.48921
G1 X108.797 Y95.883 E4.51738
G1 X109.2 Y96.279 E4.54557
G1 X109.543 Y96.729 E4.5738
G1 X109.819 Y97.222 E4.60199
G1 X110.022 Y97.75 E4.63021
G1 X110.149 Y98.301 E4.65842
G1 X110.198 Y98.923 E4.68955
G1 X110.198 Y108.926 E5.1886
G1 X110.158 Y109.49 E5.21681
G1 X110.039 Y110.043 E5.24503
G1 X109.843 Y110.573 E5.27322
G1 X109.575 Y111.07 E5.30139
G1 X109.239 Y111.525 E5.32961
G1 X108.842 Y111.928 E5.35783
G1 X108.392 Y112.27 E5.38603
G1 X107.899 Y112.546 E5.41422
G1 X107.391 Y112.744 E5.44142
G1 X107.183 Y112.809 E5.45229
G1 X106.633 Y112.939 E5.48049
G1 X105.931 Y112.991 E5.51561
G1 X101.452 Y112.925 E5.73909
G1 X94.752 Y113 E6.07338
G1 X94.385 Y112.987 E6.0917
G1 X93.481 Y112.914 E6.13695
G1 X92.922 Y112.829 E6.16515
G1 X92.381 Y112.666 E6.19334
G1 X91.868 Y112.428 E6.22156
G1 X91.394 Y112.12 E6.24976
G1 X90.968 Y111.749 E6.27794
G1 X90.598 Y111.321 E6.30617
G1 X90.293 Y110.845 E6.33437
G1 X90.057 Y110.331 E6.36259
G1 X89.897 Y109.789 E6.39078
G1 X89.814 Y109.23 E6.41898
G1 X89.803 Y108.927 E6.43411
G1 X89.802 Y98.922 E6.93326
G1 X89.842 Y98.358 E6.96147
G1 X89.961 Y97.806 E6.98964
G1 X90.157 Y97.275 E7.01788
G1 X90.425 Y96.778 E7.04605
G1 X90.761 Y96.323 E7.07427
G1 X91.158 Y95.921 E7.10245
G0 F3600 X91.549 Y96.114
G1 F1800 X91.991 Y95.811 E7.12919
G1 X92.473 Y95.576 E7.15594
G1 X92.985 Y95.416 E7.1827
G1 X93.515 Y95.333 E7.20947
G1 X93.802 Y95.322 E7.2238
G1 X106.198 Y95.323 E7.84224
G1 X106.733 Y95.363 E7.869
G1 X107.256 Y95.482 E7.89576
G1 X107.755 Y95.677 E7.92249
G1 X108.22 Y95.945 E7.94927
G1 X108.64 Y96.278 E7.97601
G1 X109.006 Y96.67 E8.00276
G1 X109.31 Y97.112 E8.02953
G1 X109.544 Y97.595 E8.0563
G1 X109.704 Y98.107 E8.08306
G1 X109.787 Y98.637 E8.10983
G1 X109.798 Y98.923 E8.12411
G1 X109.798 Y108.926 E8.62316
G1 X109.758 Y109.461 E8.64993
G1 X109.639 Y109.984 E8.67668
G1 X109.444 Y110.483 E8.70341
G1 X109.176 Y110.948 E8.73019
G1 X108.843 Y111.368 E8.75693
G1 X108.451 Y111.734 E8.78369
G1 X108.009 Y112.037 E8.81042
G1 X107.526 Y112.272 E8.83722
G1 X107.272 Y112.362 E8.85066
G1 X107.064 Y112.427 E8.86154
G1 X106.541 Y112.549 E8.88833
G1 X105.937 Y112.591 E8.91854
G1 X101.453 Y112.525 E9.14227
G1 X94.747 Y112.6 E9.47685
G1 X94.417 Y112.588 E9.49333
G1 X93.513 Y112.515 E9.53857
G1 X92.983 Y112.432 E9.56534
G1 X92.472 Y112.272 E9.59205
G1 X91.99 Y112.037 E9.61881
G1 X91.548 Y111.733 E9.64557
G1 X91.156 Y111.367 E9.67233
G1 X90.823 Y110.947 E9.69907
G1 X90.556 Y110.481 E9.72586
G1 X90.361 Y109.982 E9.75259
G1 X90.242 Y109.459 E9.77935
G1 X90.203 Y108.927 E9.80596
G1 X90.202 Y98.922 E10.30511
G1 X90.242 Y98.388 E10.33183
G1 X90.361 Y97.865 E10.35859
G1 X90.556 Y97.365 E10.38536
G1 X90.823 Y96.9 E10.41211
G1 X91.157 Y96.48 E10.43889
G1 X91.549 Y96.114 E10.46564
G0 F3600 X91.938 Y96.321
G1 F1800 X92.37 Y96.06 E10.49082
G1 X92.839 Y95.87 E10.51607
G1 X93.332 Y95.757 E10.5413
G1 X93.802 Y95.722 E10.56482
G1 X106.198 Y95.723 E11.18326
G1 X106.702 Y95.763 E11.20848
G1 X107.194 Y95.882 E11.23373
G1 X107.66 Y96.077 E11.25893
G1 X108.09 Y96.342 E11.28413
G1 X108.473 Y96.673 E11.30939
G1 X108.799 Y97.059 E11.3346
G1 X109.06 Y97.492 E11.35982
G1 X109.25 Y97.961 E11.38507
G1 X109.363 Y98.453 E11.41025
G1 X109.398 Y98.923 E11.43376
G1 X109.398 Y108.926 E11.93282
G1 X109.358 Y109.43 E11.95804
G1 X109.239 Y109.921 E11.98324
G1 X109.045 Y110.388 E12.00847
G1 X108.779 Y110.818 E12.0337
G1 X108.449 Y111.201 E12.05892
G1 X108.062 Y111.527 E12.08417
G1 X107.629 Y111.788 E12.10939
G1 X107.152 Y111.98 E12.13504
G1 X106.944 Y112.045 E12.14592
G1 X106.452 Y112.158 E12.1711
G1 X105.943 Y112.191 E12.19655
G1 X101.455 Y112.125 E12.42048
G1 X94.743 Y112.2 E12.75536
G1 X94.449 Y112.19 E12.77004
G1 X93.545 Y112.117 E12.81529
G1 X93.046 Y112.036 E12.84051
G1 X92.566 Y111.878 E12.86572
G1 X92.117 Y111.647 E12.89091
G1 X91.709 Y111.347 E12.91618
G1 X91.354 Y110.987 E12.9414
G1 X91.06 Y110.576 E12.96661
G1 X90.835 Y110.123 E12.99185
G1 X90.684 Y109.641 E13.01705
G1 X90.603 Y108.927 E13.0529
G1 X90.602 Y98.922 E13.55205
G1 X90.642 Y98.418 E13.57727
G1 X90.761 Y97.927 E13.60248
G1 X90.955 Y97.46 E13.6277
G1 X91.221 Y97.03 E13.65293
G1 X91.551 Y96.647 E13.67815
G1 X91.938 Y96.321 E13.7034
G1 F1500 E7.2034
G0 F3600 X94.407 Y98.248
G0 X94.407 Y99.527
G0 X95.33 Y100.33
G0 X95.4 Y100.4
;TYPE:WALL-INNER
G1 F1500 E13.7034
G1 F1800 X95.4 Y108.4 E14.10252
G1 X94.6 Y108.4 E14.14243
G1 X94.6 Y108.335 E14.14567
G1 X94.393 Y108.335 E14.15524
G1 X94.393 Y99.513 E14.59537
G1 X105.607 Y99.513 E15.15484
G1 X105.608 Y108.246 E15.59053
G1 X105.608 Y108.337 E15.59507
G1 X105.4 Y108.338 E15.60545
G1 X105.4 Y108.4 E15.60854
G1 X105.309 Y108.4 E15.61308
G1 X104.6 Y108.4 E15.64845
G1 X104.6 Y100.4 E16.04757
G1 X95.4 Y100.4 E16.50656
G0 F3600 X95.8 Y100.8
;TYPE:WALL-OUTER
G1 F1800 X95.8 Y108.8 E16.90568
G1 X94.2 Y108.8 E16.98551
G1 X94.2 Y108.735 E16.98875
G1 X93.993 Y108.735 E16.99832
G1 X93.993 Y99.113 E17.47836
G1 X106.007 Y99.113 E18.07774
G1 X106.008 Y108.644 E18.55324
G1 X106.008 Y108.735 E18.55778
G1 X105.8 Y108.736 E18.56816
G1 X105.8 Y108.8 E18.57135
G1 X105.709 Y108.8 E18.57589
G1 X104.2 Y108.8 E18.65118
G1 X104.2 Y100.8 E19.0503
G1 X95.8 Y100.8 E19.46938
G0 F3600 X95.8 Y101
G0 X95.219 Y100.876
;TYPE:SKIN
G1 F1800 X94.572 Y100.229 E19.51503
G1 X94.502 Y100.159
G0 F3600 X94.601 Y99.692
G1 F1800 X95.219 Y100.31 E19.55863
G1 X95.289 Y100.38
G0 F3600 X95.43 Y99.955
G1 F1800 X95.996 Y99.955 E19.59576
G1 X96.561 Y99.955 E19.63283
G1 X97.127 Y99.955 E19.66996
G1 X97.693 Y99.955 E19.70709
G1 X98.258 Y99.955 E19.74416
G1 X98.824 Y99.955 E19.78129
G1 X99.39 Y99.955 E19.81843
G1 X99.955 Y99.955 E19.85549
G1 X100.521 Y99.955 E19.89263
G1 X101.087 Y99.955 E19.92976
G1 X101.652 Y99.955 E19.96683
G1 X102.218 Y99.955 E20.00396
G1 X102.784 Y99.955 E20.04109
G1 X103.349 Y99.955 E20.07816
G1 X103.915 Y99.955 E20.11529
G1 X104.481 Y99.955 E20.15243
G0 F3600 X104.779 Y100.253
G1 F1800 X105.426 Y100.901 E20.19811
G1 X105.496 Y100.971
G0 F3600 X105.426 Y101.466
G1 F1800 X104.779 Y100.819 E20.24376
G1 X104.709 Y100.749
G0 F3600 X104.779 Y101.384
G1 F1800 X105.426 Y102.032 E20.28944
G1 X105.496 Y102.102
G0 F3600 X105.427 Y102.599
G1 F1800 X104.779 Y101.95 E20.3352
G1 X104.709 Y101.88
G0 F3600 X104.779 Y102.516
G1 F1800 X105.427 Y103.164 E20.38092
G1 X105.497 Y103.234
G0 F3600 X105.427 Y103.73
G1 F1800 X104.779 Y103.082 E20.42664
G1 X104.709 Y103.012
G0 F3600 X104.779 Y103.647
G1 F1800 X105.427 Y104.296 E20.47239
G1 X105.497 Y104.366
G0 F3600 X105.427 Y104.861
G1 F1800 X104.779 Y104.213 E20.51811
G1 X104.709 Y104.143
G0 F3600 X104.779 Y104.779
G1 F1800 X105.428 Y105.428 E20.56391
G1 X105.498 Y105.498
G0 F3600 X105.428 Y105.993
G1 F1800 X104.779 Y105.344 E20.6097
G1 X104.709 Y105.274
G0 F3600 X104.779 Y105.91
G1 F1800 X105.428 Y106.559 E20.65549
G1 X105.498 Y106.629
G0 F3600 X105.428 Y107.125
G1 F1800 X104.779 Y106.476 E20.70128
G1 X104.709 Y106.406
G0 F3600 X104.779 Y107.041
G1 F1800 X105.428 Y107.69 E20.74707
G1 X105.498 Y107.76
G0 F3600 X105.329 Y108.157
G1 F1800 X104.779 Y107.607 E20.78587
G0 F3600 X105.426 Y100.335
G1 F1800 X104.784 Y99.692 E20.8312
G1 X104.714 Y99.622
G0 F3600 X105.349 Y99.692
G1 F1800 X105.426 Y99.769 E20.83664
G0 F3600 X95.372 Y100.372
G0 X95.219 Y101.442
G1 F1800 X94.572 Y100.795 E20.88229
G1 X94.502 Y100.725
G0 F3600 X94.572 Y101.36
G1 F1800 X95.219 Y102.007 E20.92794
G1 X95.289 Y102.077
G0 F3600 X95.219 Y102.573
G1 F1800 X94.572 Y101.926 E20.97359
G1 X94.502 Y101.856
G0 F3600 X94.572 Y102.492
G1 F1800 X95.219 Y103.139 E21.01923
G1 X95.289 Y103.209
G0 F3600 X95.219 Y103.704
G1 F1800 X94.572 Y103.057 E21.06488
G1 X94.502 Y102.987
G0 F3600 X94.572 Y103.623
G1 F1800 X95.219 Y104.27 E21.11053
G1 X95.289 Y104.34
G0 F3600 X95.219 Y104.836
G1 F1800 X94.572 Y104.189 E21.15618
G1 X94.502 Y104.119
G0 F3600 X94.572 Y104.755
G1 F1800 X95.219 Y105.402 E21.20183
G1 X95.289 Y105.472
G0 F3600 X95.219 Y105.967
G1 F1800 X94.572 Y105.32 E21.24748
G1 X94.502 Y105.25
G0 F3600 X94.572 Y105.886
G1 F1800 X95.219 Y106.533 E21.29313
G1 X95.289 Y106.603
G0 F3600 X95.219 Y107.099
G1 F1800 X94.572 Y106.452 E21.33878
G1 X94.502 Y106.382
G0 F3600 X94.572 Y107.017
G1 F1800 X95.219 Y107.664 E21.38443
G1 X95.289 Y107.734
G0 F3600 X95.208 Y108.219
G1 F1800 X94.572 Y107.583 E21.4293
G1 X94.502 Y107.513
G0 F3600 X94.793 Y107.513
G0 X94.463 Y99.583
G0 X94.311 Y99.478
;TIME_ELAPSED:18.200489
;LAYER:1
M140 S60
M106 S255
G0 F5400 X94.311 Y99.478 Z0.4
;TYPE:WALL-INNER
G1 F2700 X105.689 Y99.478 E21.61852
G1 X105.69 Y108.262 E21.7646
G1 X105.69 Y108.31 E21.7654
G1 X105.4 Y108.311 E21.77022
G1 X105.4 Y108.4 E21.7717
G1 X105.352 Y108.4 E21.7725
G1 X104.6 Y108.4 E21.785
G1 X104.6 Y100.4 E21.91804
G1 X95.4 Y100.4 E22.07104
G1 X95.4 Y108.4 E22.20408
G1 X94.6 Y108.4 E22.21738
G1 X94.6 Y108.309 E22.2189
G1 X94.311 Y108.309 E22.22351
G1 X94.311 Y99.478 E22.37037
G0 F5400 X94.381 Y99.548
G0 X95.3 Y100.8
G0 X95.8 Y100.8
;TYPE:WALL-OUTER
G1 F1800 X95.8 Y108.8 E22.50341
G1 X94.2 Y108.8 E22.53002
G1 X94.2 Y108.709 E22.53153
G1 X93.911 Y108.709 E22.53614
G1 X93.911 Y99.078 E22.6963
G1 X106.089 Y99.078 E22.89882
G1 X106.09 Y108.661 E23.05819
G1 X106.09 Y108.709 E23.05899
G1 X105.8 Y108.71 E23.06381
G1 X105.8 Y108.8 E23.06531
G1 X105.752 Y108.8 E23.0661
G1 X104.2 Y108.8 E23.09191
G1 X104.2 Y100.8 E23.22495
G1 X95.8 Y100.8 E23.36465
G0 F5400 X95.8 Y101
G0 X95.219 Y101.073
;TYPE:SKIN
G1 F1800 X94.491 Y101.801 E23.38177
G1 X94.421 Y101.871
G0 F5400 X94.491 Y101.235
G1 F1800 X95.219 Y100.507 E23.39889
G1 X95.289 Y100.437
G0 F5400 X95.788 Y99.938
G1 F1800 X96.354 Y99.938 E23.41211
G1 X96.919 Y99.938 E23.42532
G1 X97.485 Y99.938 E23.43854
G1 X98.051 Y99.938 E23.45177
G1 X98.616 Y99.938 E23.46497
G1 X99.182 Y99.938 E23.47819
G1 X99.748 Y99.938 E23.49142
G1 X100.313 Y99.938 E23.50462
G1 X100.879 Y99.938 E23.51784
G1 X101.445 Y99.938 E23.53107
G1 X102.011 Y99.938 E23.54429
G1 X102.576 Y99.938 E23.55749
G1 X103.142 Y99.938 E23.57072
G1 X103.708 Y99.938 E23.58394
G1 X104.273 Y99.938 E23.59714
G1 X104.839 Y99.938 E23.61037
G0 F5400 X105.508 Y99.835
G1 F1800 X104.779 Y100.564 E23.62751
G1 X104.709 Y100.634
G0 F5400 X104.779 Y101.129
G1 F1800 X105.508 Y100.401 E23.64465
G1 X105.578 Y100.331
G0 F5400 X105.508 Y100.967
G1 F1800 X104.779 Y101.695 E23.66178
G1 X104.709 Y101.765
G0 F5400 X104.779 Y102.261
G1 F1800 X105.508 Y101.532 E23.67893
G1 X105.578 Y101.462
G0 F5400 X105.508 Y102.098
G1 F1800 X104.779 Y102.826 E23.69606
G1 X104.709 Y102.896
G0 F5400 X104.779 Y103.392
G1 F1800 X105.508 Y102.663 E23.7132
G1 X105.578 Y102.593
G0 F5400 X105.508 Y103.229
G1 F1800 X104.779 Y103.958 E23.73035
G1 X104.709 Y104.028
G0 F5400 X104.779 Y104.523
G1 F1800 X105.508 Y103.794 E23.74749
G1 X105.578 Y103.724
G0 F5400 X105.508 Y104.36
G1 F1800 X104.779 Y105.089 E23.76464
G1 X104.709 Y105.159
G0 F5400 X104.779 Y105.655
G1 F1800 X105.508 Y104.926 E23.78178
G1 X105.578 Y104.856
G0 F5400 X105.509 Y105.491
G1 F1800 X104.779 Y106.22 E23.79894
G1 X104.709 Y106.29
G0 F5400 X104.779 Y106.786
G1 F1800 X105.509 Y106.056 E23.81611
G1 X105.579 Y105.986
G0 F5400 X105.509 Y106.622
G1 F1800 X104.779 Y107.352 E23.83328
G1 X104.709 Y107.422
G0 F5400 X104.779 Y107.917
G1 F1800 X105.509 Y107.188 E23.85043
G1 X105.579 Y107.118
G0 F5400 X105.509 Y107.753
G1 F1800 X105.044 Y108.219 E23.86138
G0 F5400 X104.628 Y100.372
G0 X95.372 Y100.372
G0 X95.219 Y107.861
G1 F1800 X94.861 Y108.219 E23.8698
G0 F5400 X94.491 Y108.023
G1 F1800 X95.219 Y107.295 E23.88692
G1 X95.289 Y107.225
G0 F5400 X95.219 Y106.729
G1 F1800 X94.491 Y107.458 E23.90406
G1 X94.421 Y107.528
G0 F5400 X94.491 Y106.892
G1 F1800 X95.219 Y106.164 E23.92118
G1 X95.289 Y106.094
G0 F5400 X95.219 Y105.598
G1 F1800 X94.491 Y106.326 E23.9383
G1 X94.421 Y106.396
G0 F5400 X94.491 Y105.761
G1 F1800 X95.219 Y105.032 E23.95543
G1 X95.289 Y104.962
G0 F5400 X95.219 Y104.467
G1 F1800 X94.491 Y105.195 E23.97255
G1 X94.421 Y105.265
G0 F5400 X94.491 Y104.629
G1 F1800 X95.219 Y103.901 E23.98967
G1 X95.289 Y103.831
G0 F5400 X95.219 Y103.335
G1 F1800 X94.491 Y104.064 E24.00681
G1 X94.421 Y104.134
G0 F5400 X94.491 Y103.498
G1 F1800 X95.219 Y102.77 E24.02393
G1 X95.289 Y102.7
G0 F5400 X95.219 Y102.204
G1 F1800 X94.491 Y102.932 E24.04105
G1 X94.421 Y103.002
G0 F5400 X94.491 Y102.367
G1 F1800 X95.219 Y101.638 E24.05818
G1 X95.289 Y101.568
G0 F5400 X94.491 Y100.67
G1 F1800 X95.503 Y99.657 E24.082
G1 X95.573 Y99.587
G0 F5400 X94.938 Y99.657
G1 F1800 X94.491 Y100.104 E24.09251
G0 F5400 X94.711 Y100.104
G0 X94.381 Y99.548
G0 X94.228 Y99.443
;TIME_ELAPSED:24.091949
;LAYER:2
G0 F7200 X94.228 Y99.443 Z0.5
;TYPE:WALL-INNER
G1 F3600 X105.772 Y99.443 E24.28449
G1 X105.773 Y108.279 E24.43143
G1 X105.773 Y108.284 E24.43151
G1 X105.4 Y108.285 E24.43772
G1 X105.4 Y108.4 E24.43963
G1 X105.395 Y108.4 E24.43971
G1 X104.6 Y108.4 E24.45293
G1 X104.6 Y100.4 E24.58597
G1 X95.4 Y100.4 E24.73897
G1 X95.4 Y108.4 E24.87201
G1 X94.6 Y108.4 E24.88531
G1 X94.6 Y108.283 E24.88726
G1 X94.228 Y108.283 E24.8934
G1 X94.228 Y99.443 E25.04041
G0 F7200 X94.298 Y99.513
G0 X95.3 Y100.8
G0 X95.8 Y100.8
;TYPE:WALL-OUTER
G1 F1800 X95.8 Y108.8 E25.17345
G1 X94.2 Y108.8 E25.20006
G1 X94.2 Y108.683 E25.202
G1 X93.828 Y108.683 E25.20814
G1 X93.828 Y99.043 E25.36846
G1 X106.172 Y99.043 E25.57374
G1 X106.173 Y108.678 E25.73397
G1 X106.173 Y108.683 E25.73405
G1 X105.8 Y108.684 E25.74025
G1 X105.8 Y108.8 E25.74218
G1 X105.795 Y108.8 E25.74227
G1 X104.2 Y108.8 E25.76879
G1 X104.2 Y100.8 E25.90183
G1 X95.8 Y100.8 E26.04152
G0 F7200 X95.8 Y101
G0 X95.219 Y100.876
;TYPE:SKIN
G1 F1800 X94.407 Y100.064 E26.06062
G1 X94.337 Y99.994
G0 F7200 X94.531 Y99.622
G1 F1800 X95.219 Y100.31 E26.0768
G1 X95.289 Y100.38
G0 F7200 X95.693 Y100.218
