;FLAVOR:RepRap
;TIME:2983
;Filament used: 1.54548m
;Layer height: 0.1
;Generated with Cura_SteamEngine 2.5.0
M190 S50
M104 S200
M109 S200
G21 ;metric values
G90 ;absolute positioning
M82 ;set extruder to absolute mode
M107 ;start with the fan off
G28 X0 Y0 ;move X/Y to min endstops
G28 Z0 ;move Z to min endstops
G1 Z15.0 F9000 ;move the platform down 15mm
G92 E0 ;zero the extruded length
G1 F200 E3 ;extrude 3mm of feed stock
G92 E0 ;zero the extruded length again
G1 F9000
;Put printing message on LCD screen
M117 Printing...
;LAYER_COUNT:68
;LAYER:0
M107
G0 F3600 X79.029 Y95.06 Z0.3
;TYPE:SKIRT
G1 F1800 X79.507 Y94.684 E0.03034
G1 X80.339 Y94.136 E0.08004
G1 X80.648 Y93.954 E0.09794
G1 X84.006 Y92.193 E0.28711
G1 X88.743 Y89.424 E0.56085
G1 X93.32 Y86.391 E0.83478
G1 X95.498 Y84.809 E0.96908
G1 X99.673 Y81.6 E1.23179
G1 X100.121 Y81.305 E1.25856
G1 X100.609 Y81.081 E1.28535
G1 X101.185 Y80.919 E1.3152
G1 X101.61 Y80.837 E1.33679
G1 X102.143 Y80.775 E1.36356
G1 X102.812 Y80.81 E1.39698
G1 X103.127 Y80.856 E1.41287
G1 X103.651 Y80.973 E1.43965
G1 X104.133 Y81.158 E1.46541
G1 X104.526 Y81.342 E1.48706
G1 X105.133 Y81.702 E1.52227
G1 X109.031 Y84.568 E1.76365
G1 X109.221 Y84.718 E1.77572
G1 X113.249 Y88.121 E2.0388
G1 X113.443 Y88.297 E2.05187
G1 X117.498 Y92.261 E2.33478
G1 X117.67 Y92.441 E2.3472
G1 X120.899 Y96.068 E2.58947
G1 X121.054 Y96.254 E2.60155
G1 X123.728 Y99.698 E2.81908
G1 X124.024 Y100.145 E2.84583
G1 X124.215 Y100.541 E2.86776
G1 X124.547 Y101.351 E2.91144
G1 X124.712 Y101.858 E2.93804
G1 X124.974 Y102.925 E2.99285
G1 X125.06 Y103.422 E3.01801
G1 X125.231 Y105.117 E3.10301
G1 X125.245 Y105.656 E3.12991
G1 X125.172 Y107.133 E3.20368
G1 X125.094 Y107.719 E3.23318
G1 X124.702 Y109.523 E3.32528
G1 X124.51 Y110.136 E3.35733
G1 X123.809 Y111.83 E3.44879
G1 X123.526 Y112.377 E3.47952
G1 X122.646 Y113.769 E3.56168
G1 X122.277 Y114.255 E3.59212
G1 X121.028 Y115.641 E3.68521
G1 X120.67 Y115.987 E3.71004
G1 X119.856 Y116.671 E3.76309
G1 X119.43 Y116.979 E3.78932
G1 X117.849 Y117.954 E3.88198
G1 X117.277 Y118.24 E3.91389
G1 X115.592 Y118.903 E4.00423
G1 X115.06 Y119.066 E4.03199
G1 X113.733 Y119.363 E4.09983
G1 X113.138 Y119.445 E4.1298
G1 X111.37 Y119.539 E4.21813
G1 X110.77 Y119.521 E4.24807
G1 X105.641 Y118.935 E4.50563
G1 X100.197 Y118.617 E4.77769
G1 X94.711 Y118.607 E5.05139
G1 X90 Y118.791 E5.2866
G1 X89.496 Y118.776 E5.31176
G1 X87.831 Y118.607 E5.39525
G1 X87.331 Y118.52 E5.42057
G1 X85.92 Y118.171 E5.49309
G1 X85.369 Y117.986 E5.52208
G1 X83.425 Y117.155 E5.62756
G1 X82.932 Y116.898 E5.6553
G1 X81.745 Y116.156 E5.72514
G1 X81.36 Y115.878 E5.74883
G1 X80.1 Y114.837 E5.83037
G1 X79.691 Y114.441 E5.85877
G1 X78.565 Y113.162 E5.94378
G1 X78.26 Y112.763 E5.96884
G1 X77.385 Y111.434 E6.04823
G1 X77.137 Y110.993 E6.07347
G1 X76.528 Y109.705 E6.14455
G1 X76.334 Y109.198 E6.17163
G1 X75.755 Y107.263 E6.2724
G1 X75.636 Y106.708 E6.30071
G1 X75.449 Y105.31 E6.37108
G1 X75.417 Y104.798 E6.39668
G1 X75.434 Y103.053 E6.48374
G1 X75.464 Y102.621 E6.50534
G1 X75.6 Y101.582 E6.55762
G1 X75.701 Y101.085 E6.58292
G1 X76.24 Y99.145 E6.68338
G1 X76.515 Y98.449 E6.72071
G1 X77.095 Y97.333 E6.78346
G1 X77.45 Y96.78 E6.81625
G1 X77.977 Y96.104 E6.85901
G1 X78.358 Y95.687 E6.88719
G1 X79.029 Y95.06 E6.93301
G0 F3600 X79.302 Y95.352
G1 F1800 X79.727 Y95.018 E6.95997
G1 X80.559 Y94.47 E7.00968
G1 X80.833 Y94.308 E7.02556
G1 X84.207 Y92.539 E7.21562
G1 X88.966 Y89.757 E7.49064
G1 X93.543 Y86.723 E7.7646
G1 X95.731 Y85.135 E7.89948
G1 X99.917 Y81.917 E8.1629
G1 X100.341 Y81.641 E8.18814
G1 X100.803 Y81.436 E8.21336
G1 X101.261 Y81.312 E8.23703
G1 X101.686 Y81.23 E8.25862
G1 X102.188 Y81.174 E8.28382
G1 X102.754 Y81.206 E8.31211
G1 X103.069 Y81.252 E8.32799
G1 X103.562 Y81.364 E8.35321
G1 X103.964 Y81.52 E8.37472
G1 X104.357 Y81.704 E8.39637
G1 X104.896 Y82.024 E8.42765
G1 X108.794 Y84.89 E8.66903
G1 X108.963 Y85.024 E8.67979
G1 X112.991 Y88.427 E8.94286
G1 X113.163 Y88.583 E8.95444
G1 X117.218 Y92.547 E9.23735
G1 X117.371 Y92.707 E9.2484
G1 X120.6 Y96.334 E9.49067
G1 X120.738 Y96.5 E9.50144
G1 X123.412 Y99.944 E9.71897
G1 X123.689 Y100.366 E9.74416
G1 X123.845 Y100.692 E9.76219
G1 X124.177 Y101.502 E9.80586
G1 X124.324 Y101.953 E9.82953
G1 X124.586 Y103.02 E9.88434
G1 X124.662 Y103.462 E9.90672
G1 X124.833 Y105.157 E9.99171
G1 X124.845 Y105.636 E10.01561
G1 X124.772 Y107.113 E10.08939
G1 X124.703 Y107.634 E10.11561
G1 X124.311 Y109.438 E10.20771
G1 X124.141 Y109.983 E10.2362
G1 X123.44 Y111.677 E10.32766
G1 X123.188 Y112.163 E10.35497
G1 X122.308 Y113.555 E10.43713
G1 X121.98 Y113.987 E10.46419
G1 X120.731 Y115.373 E10.55728
G1 X120.413 Y115.681 E10.57936
G1 X119.599 Y116.365 E10.63241
G1 X119.22 Y116.639 E10.65574
G1 X117.639 Y117.614 E10.74841
G1 X117.131 Y117.868 E10.77674
G1 X115.446 Y118.531 E10.86708
G1 X114.973 Y118.676 E10.89176
G1 X113.646 Y118.973 E10.95961
G1 X113.117 Y119.045 E10.98624
G1 X111.349 Y119.139 E11.07457
G1 X110.816 Y119.123 E11.10118
G1 X105.693 Y118.538 E11.35842
G1 X100.203 Y118.217 E11.63279
G1 X94.721 Y118.207 E11.90629
G1 X89.985 Y118.392 E12.14275
G1 X89.537 Y118.378 E12.16511
G1 X87.872 Y118.209 E12.2486
G1 X87.427 Y118.131 E12.27114
G1 X86.016 Y117.782 E12.34366
G1 X85.526 Y117.618 E12.36944
G1 X83.582 Y116.787 E12.47492
G1 X83.144 Y116.558 E12.49957
G1 X81.957 Y115.816 E12.56941
G1 X81.615 Y115.57 E12.59043
G1 X80.355 Y114.529 E12.67197
G1 X79.991 Y114.177 E12.69723
G1 X78.865 Y112.898 E12.78225
G1 X78.594 Y112.543 E12.80453
G1 X77.719 Y111.214 E12.88391
G1 X77.499 Y110.822 E12.90634
G1 X76.89 Y109.534 E12.97742
G1 X76.717 Y109.083 E13.00152
G1 X76.138 Y107.148 E13.10229
G1 X76.032 Y106.655 E13.12744
G1 X75.845 Y105.257 E13.19781
G1 X75.817 Y104.802 E13.22055
G1 X75.834 Y103.057 E13.30762
G1 X75.861 Y102.673 E13.32682
G1 X75.997 Y101.634 E13.3791
G1 X76.087 Y101.192 E13.4016
G1 X76.626 Y99.252 E13.50206
G1 X76.87 Y98.633 E13.53525
G1 X77.45 Y97.517 E13.598
G1 X77.765 Y97.026 E13.6271
G1 X78.292 Y96.35 E13.66987
G1 X78.631 Y95.979 E13.69494
G1 X79.302 Y95.352 E13.74076
G1 F1500 E7.24076
G0 F3600 X80.945 Y97.265
G0 X81.781 Y98.24
G0 X81.873 Y98.266
G0 X81.81 Y98.189
;TYPE:WALL-INNER
G1 F1500 E13.74076
G1 F1800 X82.036 Y98.015 E13.75499
G1 X82.267 Y97.858 E13.76892
G1 X82.503 Y97.716 E13.78266
G1 X82.777 Y97.571 E13.79813
G1 X83.011 Y97.462 E13.81101
G1 X83.287 Y97.355 E13.82577
G1 X83.547 Y97.268 E13.83945
G1 X83.828 Y97.192 E13.85398
G1 X84.089 Y97.137 E13.86728
G1 X85.422 Y96.937 E13.93453
G1 X86.094 Y96.812 E13.96863
G1 X86.758 Y96.668 E14.00253
G1 X87.419 Y96.504 E14.03651
G1 X88.074 Y96.321 E14.07044
G1 X88.724 Y96.118 E14.10441
G1 X89.367 Y95.896 E14.13835
G1 X90.004 Y95.655 E14.17233
G1 X90.633 Y95.396 E14.20626
G1 X91.253 Y95.118 E14.24016
G1 X91.867 Y94.823 E14.27415
G1 X92.472 Y94.508 E14.30818
G1 X93.066 Y94.176 E14.34213
G1 X93.65 Y93.827 E14.37607
G1 X94.224 Y93.462 E14.41
G1 X94.787 Y93.079 E14.44398
G1 X95.339 Y92.679 E14.47799
G1 X95.877 Y92.264 E14.51188
G1 X96.404 Y91.834 E14.54582
G1 X96.917 Y91.387 E14.57976
G1 X97.418 Y90.926 E14.61373
G1 X97.904 Y90.45 E14.64767
G1 X98.376 Y89.96 E14.68161
G1 X98.835 Y89.456 E14.71562
G1 X99.277 Y88.94 E14.74952
G1 X99.704 Y88.409 E14.78351
G1 X100.115 Y87.866 E14.81749
G1 X100.511 Y87.312 E14.85146
G1 X100.888 Y86.747 E14.88535
G1 X101.251 Y86.168 E14.91944
G1 X101.744 Y85.312 E14.96873
G1 X101.819 Y85.198 E14.97553
G1 X101.918 Y85.094 E14.9827
G1 X102.023 Y85.027 E14.98891
G1 X102.161 Y84.98 E14.99619
G1 X102.291 Y84.965 E15.00271
G1 X102.421 Y84.98 E15.00924
G1 X102.562 Y85.028 E15.01667
G1 X102.64 Y85.073 E15.02117
G1 X104.153 Y86.143 E15.11362
G1 X105.201 Y86.917 E15.17862
G1 X106.243 Y87.715 E15.2441
G1 X107.255 Y88.518 E15.30855
G1 X108.264 Y89.347 E15.3737
G1 X109.253 Y90.188 E15.43847
G1 X110.235 Y91.054 E15.50379
G1 X111.201 Y91.934 E15.56898
G1 X112.138 Y92.822 E15.63339
G1 X113.071 Y93.735 E15.69852
G1 X113.988 Y94.665 E15.76367
G1 X114.885 Y95.604 E15.82846
G1 X115.765 Y96.56 E15.89329
G1 X116.631 Y97.533 E15.95827
G1 X117.479 Y98.52 E16.02319
G1 X118.311 Y99.523 E16.08821
G1 X119.122 Y100.535 E16.15291
G1 X120.174 Y101.898 E16.23881
G1 X120.389 Y102.227 E16.25842
G1 X120.523 Y102.503 E16.27372
G1 X120.609 Y102.756 E16.28705
G1 X120.774 Y103.339 E16.31728
G1 X120.864 Y103.74 E16.33779
G1 X120.946 Y104.192 E16.3607
G1 X121 Y104.591 E16.38079
G1 X121.037 Y105.024 E16.40247
G1 X121.058 Y105.475 E16.425
G1 X121.059 Y105.888 E16.4456
G1 X121.039 Y106.33 E16.46768
G1 X121.001 Y106.769 E16.48966
G1 X120.946 Y107.178 E16.51025
G1 X120.864 Y107.63 E16.53317
G1 X120.775 Y108.025 E16.55337
G1 X120.655 Y108.464 E16.57607
G1 X120.526 Y108.865 E16.59709
G1 X120.375 Y109.272 E16.61875
G1 X120.208 Y109.665 E16.64005
G1 X120.026 Y110.047 E16.66116
G1 X119.823 Y110.428 E16.6827
G1 X119.598 Y110.807 E16.70469
G1 X119.357 Y111.175 E16.72663
G1 X119.116 Y111.512 E16.7473
G1 X118.839 Y111.862 E16.76957
G1 X118.557 Y112.19 E16.79115
G1 X118.264 Y112.499 E16.8124
G1 X117.953 Y112.8 E16.83399
G1 X117.627 Y113.088 E16.85569
G1 X117.3 Y113.352 E16.87666
G1 X116.935 Y113.622 E16.89931
G1 X116.588 Y113.853 E16.92011
G1 X116.206 Y114.086 E16.94243
G1 X115.84 Y114.286 E16.96324
G1 X115.453 Y114.477 E16.98477
G1 X115.048 Y114.654 E17.00682
G1 X114.636 Y114.813 E17.02885
G1 X114.244 Y114.944 E17.04947
G1 X113.82 Y115.064 E17.07146
G1 X113.408 Y115.162 E17.09259
G1 X112.982 Y115.244 E17.11423
G1 X112.545 Y115.308 E17.13626
G1 X112.295 Y115.334 E17.1488
G1 X112.118 Y115.351 E17.15768
G1 X111.792 Y115.369 E17.17396
G1 X111.922 Y115.201
G1 X112.03 Y115.061 E17.18122
G1 X112.33 Y114.673 E17.20569
G1 X112.451 Y114.488 E17.21672
G1 X112.559 Y114.296 E17.22771
G1 X112.652 Y114.093 E17.23885
G1 X112.73 Y113.884 E17.24998
G1 X112.792 Y113.67 E17.26109
G1 X112.837 Y113.452 E17.2722
G1 X112.866 Y113.23 E17.28337
G1 X112.876 Y113.007 E17.2945
G1 X112.872 Y112.787 E17.30548
G1 X112.85 Y112.565 E17.31661
G1 X112.811 Y112.345 E17.32776
G1 X112.756 Y112.131 E17.33878
G1 X112.685 Y111.92 E17.34989
G1 X112.598 Y111.713 E17.36109
G1 X112.495 Y111.515 E17.37222
G1 X112.378 Y111.327 E17.38327
G1 X112.247 Y111.146 E17.39442
G1 X112.103 Y110.977 E17.4055
G1 X111.947 Y110.819 E17.41657
G1 X111.778 Y110.672 E17.42775
G1 X111.6 Y110.541 E17.43877
G1 X111.414 Y110.422 E17.44979
G1 X111.216 Y110.317 E17.46097
G1 X111.011 Y110.228 E17.47212
G1 X110.802 Y110.156 E17.48315
G1 X110.588 Y110.098 E17.49421
G1 X110.367 Y110.056 E17.50544
G1 X110.145 Y110.032 E17.51658
G1 X109.923 Y110.025 E17.52766
G1 X109.703 Y110.035 E17.53864
G1 X109.483 Y110.059 E17.54968
G1 X109.263 Y110.102 E17.56087
G1 X109.046 Y110.162 E17.5721
G1 X108.837 Y110.238 E17.5832
G1 X108.635 Y110.328 E17.59423
G1 X108.439 Y110.435 E17.60537
G1 X108.254 Y110.554 E17.61634
G1 X108.075 Y110.688 E17.6275
G1 X107.907 Y110.837 E17.6387
G1 X107.752 Y110.996 E17.64978
G1 X107.61 Y111.168 E17.66091
G1 X107.481 Y111.348 E17.67196
G1 X107.365 Y111.538 E17.68306
G1 X107.265 Y111.736 E17.69413
G1 X107.178 Y111.943 E17.70533
G1 X107.11 Y112.156 E17.71649
G1 X107.057 Y112.368 E17.72739
G1 X107.019 Y112.59 E17.73863
G1 X107 Y112.813 E17.74979
G1 X106.997 Y113.033 E17.76077
G1 X107.011 Y113.262 E17.77221
G1 X107.069 Y113.622 E17.79041
G1 X107.205 Y114.1 E17.8152
G1 X107.271 Y114.333 E17.82728
G1 X107.316 Y114.489 E17.83538
G1 X107.088 Y114.385 E17.8372
G1 X106.872 Y114.273 E17.84642
G1 X106.703 Y114.185 E17.85592
G1 X106.339 Y113.975 E17.87689
G1 X105.972 Y113.74 E17.89863
G1 X105.604 Y113.482 E17.92105
G1 X105.266 Y113.222 E17.94233
G1 X104.941 Y112.945 E17.96363
G1 X104.629 Y112.657 E17.98482
G1 X104.315 Y112.338 E18.00715
G1 X104.022 Y112.016 E18.02887
G1 X103.762 Y111.701 E18.04924
G1 X103.498 Y111.348 E18.07124
G1 X103.243 Y110.98 E18.09357
G1 X103.018 Y110.616 E18.11492
G1 X102.658 Y109.979 E18.15143
G1 X102.534 Y109.808 E18.16196
G1 X102.399 Y109.654 E18.17218
G1 X102.248 Y109.506 E18.18273
G1 X102.047 Y109.35 E18.19542
G1 X101.764 Y109.177 E18.21197
G1 X100.969 Y108.806 E18.25574
G1 X100.742 Y108.685 E18.26857
G1 X100.56 Y108.57 E18.27931
G1 X100.126 Y108.249 E18.30625
G1 X99.942 Y108.114 E18.31763
G1 X99.833 Y108.315 E18.32474
G1 X99.266 Y109.356 E18.38388
G1 X99.038 Y109.728 E18.40564
G1 X98.789 Y110.099 E18.42794
G1 X98.512 Y110.48 E18.45144
G1 X98.251 Y110.806 E18.47227
G1 X97.948 Y111.154 E18.49529
G1 X97.653 Y111.465 E18.51668
G1 X97.319 Y111.789 E18.53989
G1 X96.989 Y112.084 E18.56198
G1 X96.657 Y112.354 E18.58333
G1 X96.294 Y112.626 E18.60596
G1 X95.925 Y112.879 E18.62828
G1 X95.55 Y113.113 E18.65033
G1 X95.148 Y113.342 E18.67341
G1 X94.766 Y113.537 E18.69481
G1 X94.356 Y113.728 E18.71737
G1 X93.942 Y113.897 E18.73968
G1 X93.532 Y114.046 E18.76145
G1 X93.101 Y114.182 E18.78399
G1 X92.672 Y114.298 E18.80617
G1 X92.253 Y114.391 E18.82758
G1 X91.79 Y114.475 E18.85106
G1 X91.367 Y114.533 E18.87236
G1 X90.916 Y114.577 E18.89496
G1 X90.479 Y114.6 E18.9168
G1 X90.034 Y114.605 E18.939
G1 X89.576 Y114.59 E18.96186
G1 X89.135 Y114.557 E18.98392
G1 X88.705 Y114.508 E19.00552
G1 X88.255 Y114.436 E19.02825
G1 X87.809 Y114.345 E19.05096
G1 X87.399 Y114.244 E19.07203
G1 X86.964 Y114.117 E19.09464
G1 X86.536 Y113.971 E19.1172
G1 X86.128 Y113.813 E19.13902
G1 X85.719 Y113.635 E19.16128
G1 X85.305 Y113.433 E19.18426
G1 X84.929 Y113.23 E19.20558
G1 X84.531 Y112.993 E19.22869
G1 X84.168 Y112.754 E19.25037
G1 X83.799 Y112.489 E19.27304
G1 X83.46 Y112.224 E19.2945
G1 X83.116 Y111.93 E19.31708
G1 X82.797 Y111.634 E19.33879
G1 X82.478 Y111.311 E19.36144
G1 X82.172 Y110.975 E19.38411
G1 X81.899 Y110.647 E19.4054
G1 X81.623 Y110.286 E19.42807
G1 X81.372 Y109.929 E19.44985
G1 X81.127 Y109.546 E19.47253
G1 X80.899 Y109.154 E19.49515
G1 X80.696 Y108.768 E19.51691
G1 X80.508 Y108.372 E19.53878
G1 X80.335 Y107.964 E19.56089
G1 X80.173 Y107.531 E19.58396
G1 X80.042 Y107.128 E19.6051
G1 X79.916 Y106.68 E19.62832
G1 X79.817 Y106.261 E19.6498
G1 X79.731 Y105.817 E19.67236
G1 X79.666 Y105.369 E19.69494
G1 X79.619 Y104.926 E19.71717
G1 X79.592 Y104.497 E19.73861
G1 X79.582 Y104.061 E19.76037
G1 X79.592 Y103.598 E19.78348
G1 X79.619 Y103.17 E19.80487
G1 X79.666 Y102.726 E19.82715
G1 X79.731 Y102.279 E19.84968
G1 X79.817 Y101.834 E19.87229
G1 X79.916 Y101.416 E19.89373
G1 X80.034 Y100.993 E19.91563
G1 X80.244 Y100.369 E19.94848
G1 X80.302 Y100.22 E19.95646
G1 X80.427 Y99.938 E19.97185
G1 X80.541 Y99.716 E19.9843
G1 X80.695 Y99.452 E19.99955
G1 X80.857 Y99.209 E20.01412
G1 X81.022 Y98.985 E20.028
G1 X81.195 Y98.779 E20.04142
G1 X81.389 Y98.571 E20.05561
G1 X81.591 Y98.377 E20.06958
G1 X81.81 Y98.189 E20.08398
G0 F3600 X81.555 Y97.881
;TYPE:WALL-OUTER
G1 F1800 X81.806 Y97.687 E20.09981
G1 X82.049 Y97.522 E20.11446
G1 X82.31 Y97.365 E20.12966
G1 X82.59 Y97.217 E20.14546
G1 X82.857 Y97.093 E20.16014
G1 X83.142 Y96.982 E20.1754
G1 X83.442 Y96.882 E20.19118
G1 X83.726 Y96.805 E20.20586
G1 X84.03 Y96.741 E20.22136
G1 X85.356 Y96.542 E20.28826
G1 X86.015 Y96.42 E20.32169
G1 X86.667 Y96.278 E20.35498
G1 X87.317 Y96.117 E20.38839
G1 X87.961 Y95.937 E20.42175
G1 X88.599 Y95.738 E20.45509
G1 X89.231 Y95.52 E20.48845
G1 X89.857 Y95.283 E20.52184
G1 X90.475 Y95.028 E20.5552
G1 X91.085 Y94.755 E20.58854
G1 X91.688 Y94.465 E20.62192
G1 X92.282 Y94.156 E20.65532
G1 X92.866 Y93.83 E20.68869
G1 X93.44 Y93.487 E20.72205
G1 X94.004 Y93.128 E20.75541
G1 X94.557 Y92.752 E20.78877
G1 X95.099 Y92.359 E20.82217
G1 X95.628 Y91.951 E20.8555
G1 X96.146 Y91.528 E20.88887
G1 X96.65 Y91.089 E20.92221
G1 X97.143 Y90.636 E20.95561
G1 X97.62 Y90.168 E20.98895
G1 X98.084 Y89.687 E21.0223
G1 X98.535 Y89.191 E21.05574
G1 X98.969 Y88.684 E21.08904
G1 X99.389 Y88.163 E21.12242
G1 X99.793 Y87.629 E21.15583
G1 X100.182 Y87.085 E21.1892
G1 X100.552 Y86.53 E21.22247
G1 X100.908 Y85.962 E21.25592
G1 X101.41 Y85.092 E21.30603
G1 X101.506 Y84.946 E21.31475
G1 X101.65 Y84.796 E21.32512
G1 X101.747 Y84.724 E21.33115
G1 X101.853 Y84.663 E21.33725
G1 X102.072 Y84.588 E21.3488
G1 X102.291 Y84.563 E21.3598
G1 X102.51 Y84.588 E21.37079
G1 X102.729 Y84.663 E21.38234
G1 X102.863 Y84.74 E21.39005
G1 X104.391 Y85.821 E21.48343
G1 X105.444 Y86.599 E21.54875
G1 X106.486 Y87.397 E21.61423
