;FLAVOR:RepRap
;TIME:3135
;Filament used: 1.46589m
;Layer height: 0.1
;Generated with Cura_SteamEngine 2.5.0
M190 S60
M104 S200
M109 S200
G21 ;metric values
G90 ;absolute positioning
M82 ;set extruder to absolute mode
M107 ;start with the fan off
G28 X0 Y0 ;move X/Y to min endstops
G28 Z0 ;move Z to min endstops
G1 Z15.0 F9000 ;move the platform down 15mm
G92 E0 ;zero the extruded length
G1 F200 E3 ;extrude 3mm of feed stock
G92 E0 ;zero the extruded length again
G1 F9000
;Put printing message on LCD screen
M117 Printing...
;LAYER_COUNT:125
;LAYER:0
M107
G0 F3600 X85.636 Y78.462 Z0.3
;TYPE:SKIRT
G1 F1800 X86.643 Y77.516 E0.06893
G1 X87.283 Y77.037 E0.10881
G1 X90.754 Y74.996 E0.3097
G1 X91.15 Y74.795 E0.33186
G1 X93.517 Y73.771 E0.46052
G1 X93.993 Y73.603 E0.48571
G1 X95.326 Y73.237 E0.55467
G1 X95.713 Y73.154 E0.57442
G1 X98.318 Y72.739 E0.70602
G1 X98.825 Y72.694 E0.73142
G1 X100.238 Y72.671 E0.80192
G1 X100.637 Y72.687 E0.82184
G1 X103.211 Y72.931 E0.95083
G1 X103.709 Y73.014 E0.97602
G1 X105.108 Y73.349 E1.04779
G1 X105.494 Y73.464 E1.06789
G1 X107.923 Y74.342 E1.19674
G1 X108.494 Y74.607 E1.22815
G1 X112.678 Y77.013 E1.46894
G1 X113.121 Y77.314 E1.49566
G1 X113.361 Y77.523 E1.51154
G1 X114.42 Y78.528 E1.58438
G1 X114.776 Y78.919 E1.61076
G1 X116.847 Y81.562 E1.77828
G1 X117.145 Y82.007 E1.805
G1 X117.288 Y82.287 E1.82068
G1 X118.537 Y85.024 E1.97078
G1 X118.699 Y85.448 E1.99342
G1 X119.016 Y86.465 E2.04657
G1 X119.163 Y87.198 E2.08387
G1 X119.539 Y91.188 E2.28381
G1 X119.555 Y91.501 E2.29945
G1 X119.589 Y96.307 E2.53923
G1 X119.588 Y96.435 E2.54561
G1 X119.469 Y100.592 E2.75309
G1 X119.454 Y100.832 E2.76509
G1 X118.889 Y106.743 E3.06133
G1 X118.715 Y109.42 E3.19517
G1 X118.587 Y113.834 E3.41548
G1 X118.532 Y114.368 E3.44226
G1 X118.398 Y114.887 E3.469
G1 X118.241 Y115.275 E3.48988
G1 X115.248 Y121.575 E3.83786
G1 X113.668 Y125.409 E4.04474
G1 X113.428 Y125.888 E4.07147
G1 X113.118 Y126.326 E4.09825
G1 X112.747 Y126.714 E4.12503
G1 X112.323 Y127.042 E4.15177
G1 X111.855 Y127.303 E4.17851
G1 X111.353 Y127.492 E4.20527
G1 X110.828 Y127.604 E4.23205
G1 X110.34 Y127.637 E4.25645
G1 X107.655 Y127.637 E4.39041
G1 X107.494 Y127.633 E4.39844
G1 X101.374 Y127.358 E4.70408
G1 X95.869 Y127.437 E4.97875
G1 X92.219 Y127.641 E5.16113
G1 X92.003 Y127.647 E5.17191
G1 X89.646 Y127.637 E5.28951
G1 X89.111 Y127.595 E5.31628
G1 X88.589 Y127.474 E5.34301
G1 X88.09 Y127.276 E5.3698
G1 X87.626 Y127.007 E5.39655
G1 X87.208 Y126.672 E5.42328
G1 X86.844 Y126.278 E5.45004
G1 X86.542 Y125.835 E5.47679
G1 X86.321 Y125.38 E5.50203
G1 X85.248 Y122.71 E5.64559
G1 X82.977 Y117.697 E5.92015
G1 X81.797 Y115.359 E6.05081
G1 X81.592 Y114.863 E6.07759
G1 X81.462 Y114.343 E6.10433
G1 X81.413 Y113.867 E6.1282
G1 X81.206 Y108.134 E6.41441
G1 X80.514 Y100.378 E6.80289
G1 X80.5 Y100.096 E6.81698
G1 X80.416 Y92.087 E7.21657
G1 X80.432 Y91.714 E7.2352
G1 X80.848 Y87.257 E7.45853
G1 X80.986 Y86.551 E7.49441
G1 X81.475 Y84.933 E7.57874
G1 X81.683 Y84.4 E7.60729
G1 X82.758 Y82.189 E7.72994
G1 X83.166 Y81.538 E7.76827
G1 X85.271 Y78.861 E7.93817
G1 X85.636 Y78.462 E7.96515
G0 F3600 X85.91 Y78.754
G1 F1800 X86.917 Y77.808 E8.03408
G1 X87.486 Y77.382 E8.06954
G1 X90.957 Y75.341 E8.27043
G1 X91.308 Y75.162 E8.29009
G1 X93.675 Y74.138 E8.41876
G1 X94.099 Y73.989 E8.44118
G1 X95.432 Y73.623 E8.51014
G1 X95.776 Y73.549 E8.5277
G1 X98.381 Y73.134 E8.6593
G1 X98.832 Y73.094 E8.68189
G1 X100.245 Y73.071 E8.75239
G1 X100.599 Y73.085 E8.77007
G1 X103.173 Y73.329 E8.89906
G1 X103.616 Y73.403 E8.92147
G1 X105.015 Y73.738 E8.99324
G1 X105.358 Y73.841 E9.01111
G1 X107.787 Y74.719 E9.13996
G1 X108.294 Y74.954 E9.16784
G1 X112.478 Y77.36 E9.40864
G1 X112.895 Y77.646 E9.43386
G1 X113.086 Y77.813 E9.44652
G1 X114.145 Y78.818 E9.51936
G1 X114.461 Y79.165 E9.54277
G1 X116.532 Y81.808 E9.71029
G1 X116.924 Y82.454 E9.74799
G1 X118.173 Y85.191 E9.89809
G1 X118.317 Y85.567 E9.91817
G1 X118.634 Y86.584 E9.97132
G1 X118.765 Y87.236 E10.0045
G1 X119.141 Y91.226 E10.20444
G1 X119.155 Y91.503 E10.21828
G1 X119.189 Y96.309 E10.45806
G1 X119.188 Y96.424 E10.46379
G1 X119.069 Y100.581 E10.67127
G1 X119.055 Y100.794 E10.68192
G1 X118.492 Y106.68 E10.97692
G1 X118.317 Y109.382 E11.112
G1 X118.188 Y113.823 E11.33366
G1 X118.133 Y114.325 E11.35885
G1 X118 Y114.813 E11.38409
G1 X117.88 Y115.103 E11.39975
G1 X114.882 Y121.415 E11.74837
G1 X113.298 Y125.257 E11.9557
G1 X113.069 Y125.707 E11.98089
G1 X112.772 Y126.116 E12.00611
G1 X112.414 Y126.474 E12.03136
G1 X112.005 Y126.77 E12.05655
G1 X111.554 Y126.998 E12.08177
G1 X111.072 Y127.152 E12.10701
G1 X110.34 Y127.237 E12.14378
G1 X107.655 Y127.237 E12.27773
G1 X107.512 Y127.234 E12.28487
G1 X101.369 Y126.958 E12.59165
G1 X95.864 Y127.037 E12.86632
G1 X92.196 Y127.242 E13.04961
G1 X92.004 Y127.247 E13.05919
G1 X89.647 Y127.237 E13.17678
G1 X89.144 Y127.195 E13.20196
G1 X88.653 Y127.074 E13.22719
G1 X88.187 Y126.877 E13.25243
G1 X87.758 Y126.61 E13.27764
G1 X87.377 Y126.278 E13.30286
G1 X87.052 Y125.89 E13.32811
G1 X86.692 Y125.23 E13.36561
G1 X85.62 Y122.564 E13.50897
G1 X83.336 Y117.521 E13.78517
G1 X82.154 Y115.179 E13.91605
G1 X81.963 Y114.711 E13.94127
G1 X81.847 Y114.218 E13.96654
G1 X81.813 Y113.852 E13.98487
G1 X81.606 Y108.104 E14.27183
G1 X80.913 Y100.343 E14.66057
G1 X80.9 Y100.092 E14.67311
G1 X80.816 Y92.083 E15.0727
G1 X80.83 Y91.752 E15.08923
G1 X81.246 Y87.295 E15.31255
G1 X81.369 Y86.666 E15.34453
G1 X81.858 Y85.048 E15.42886
G1 X82.043 Y84.575 E15.4542
G1 X83.118 Y82.364 E15.57685
G1 X83.481 Y81.785 E15.61095
G1 X85.586 Y79.108 E15.78085
G1 X85.91 Y78.754 E15.80479
G1 F1500 E9.30479
G0 F3600 X83.857 Y88.099
G0 X83.468 Y90.143
G0 X83.306 Y92.882
G0 X91.615 Y92.884
G0 X93.923 Y86.538
G0 X93.732 Y86.353
;TYPE:SUPPORT
G1 F1500 E15.80479
G1 F1800 X93.789 Y86.3 E15.80867
G1 X93.649 Y86.454 E15.81905
G1 X93.732 Y86.353 E15.82558
G1 F1500 E9.32558
G0 F3600 X93.923 Y86.538
G0 X94.673 Y85.834
G0 X94.512 Y85.623
G1 F1500 E15.82558
G1 F1800 X95.391 Y84.981 E15.87988
G1 X95.789 Y84.761 E15.90257
G1 X94.052 Y86.054 E16.0106
G1 X94.512 Y85.623 E16.04205
G1 F1500 E9.54205
G0 F3600 X94.673 Y85.834
G0 X93.258 Y87.34
G0 X93.04 Y87.189
G1 F1500 E16.04205
G1 F1800 X93.31 Y86.863 E16.06317
G1 X92.74 Y87.712 E16.11419
G1 X92.588 Y87.938 E16.12777
G1 X92.398 Y88.375 E16.15155
G1 X92.193 Y88.788 E16.17455
G1 X91.809 Y89.677 E16.22286
G1 X92.005 Y89.078 E16.25431
G1 X92.466 Y88.096 E16.30843
G1 X93.04 Y87.189 E16.36198
G1 F1500 E9.86198
G0 F3600 X93.258 Y87.34
G0 X96.444 Y84.702
G0 X96.33 Y84.463
G1 F1500 E16.36198
G1 F1800 X97.318 Y84.072 E16.41499
G1 X97.997 Y83.899 E16.44995
G1 X97.053 Y84.181 E16.4991
G1 X96.404 Y84.502 E16.53523
G1 X96.136 Y84.57 E16.54902
G1 X96.33 Y84.463 E16.56007
G1 F1500 E10.06007
G0 F3600 X96.444 Y84.702
G0 X100.529 Y83.922
G0 X100.551 Y83.658
G1 F1500 E16.56007
G1 F1800 X101.278 Y83.75 E16.59663
G1 X101.214 Y83.783 E16.60022
G1 X100.83 Y83.739 E16.61951
G1 X99.523 Y83.658 E16.68484
G1 X100.551 Y83.658 E16.73613
G1 F1500 E10.23613
G0 F3600 X100.529 Y83.922
G0 X103.552 Y84.701
G0 X103.67 Y84.463
G1 F1500 E16.73613
G1 F1800 X103.75 Y84.507 E16.74068
G1 X103.387 Y84.351 E16.76039
G1 X103.67 Y84.463 E16.77558
G1 F1500 E10.27558
G0 F3600 X103.552 Y84.701
G0 X105.311 Y85.818
G0 X105.483 Y85.619
G1 F1500 E16.77558
G1 F1800 X106.268 Y86.353 E16.82919
G1 X106.96 Y87.189 E16.88334
G1 X107.221 Y87.602 E16.90771
G1 X106.564 Y86.718 E16.96266
G1 X105.992 Y86.171 E17.00215
G1 X105.886 Y86.058 E17.00988
G1 X105.691 Y85.863 E17.02364
G1 X105.493 Y85.671 E17.0374
G1 X105.402 Y85.56 E17.04456
G1 X105.483 Y85.619 E17.04956
G1 F1500 E10.54956
G0 F3600 X105.311 Y85.818
G0 X107.749 Y89.175
G0 X107.995 Y89.077
G1 F1500 E17.04956
G1 F1800 X108.332 Y90.11 E17.10377
G1 X108.454 Y90.75 E17.13627
G1 X107.862 Y88.793 E17.23827
G1 X107.995 Y89.077 E17.25392
G1 F1500 E10.75392
G0 F3600 X107.749 Y89.175
G0 X91.733 Y91.189
G0 X91.472 Y91.141
G1 F1500 E17.25392
G1 F1800 X91.479 Y91.105 E17.25575
G1 X91.402 Y92.348 E17.31788
G1 X91.395 Y92.348 E17.31823
G1 X91.472 Y91.141 E17.37857
G1 F1500 E10.87857
G0 F3600 X91.733 Y91.189
G0 X91.733 Y98.291
G0 X91.472 Y98.339
G1 F1500 E17.37857
G1 F1800 X91.402 Y97.243 E17.43336
G1 X91.58 Y98.764 E17.50976
G1 X91.632 Y99.004 E17.52202
G1 X92.118 Y100.641 E17.60721
G1 X92.004 Y100.399 E17.62055
G1 X91.668 Y99.37 E17.67456
G1 X91.472 Y98.339 E17.72692
G1 F1500 E11.22692
G0 F3600 X91.733 Y98.291
G0 X93.258 Y102.139
G0 X93.038 Y102.287
G1 F1500 E17.72692
G1 F1800 X92.781 Y101.878 E17.75102
G1 X93.448 Y102.774 E17.80674
G1 X93.897 Y103.197 E17.83752
G1 X93.96 Y103.256 E17.84183
G1 X94.26 Y103.573 E17.8636
G1 X94.727 Y104.013 E17.89561
G1 X94.508 Y103.852 E17.90917
G1 X93.732 Y103.126 E17.96219
G1 X93.038 Y102.287 E18.01651
G1 F1500 E11.51651
G0 F3600 X93.258 Y102.139
G0 X96.45 Y104.779
G0 X96.326 Y105.014
G1 F1500 E18.01651
G1 F1800 X96.224 Y104.957 E18.02234
G1 X96.708 Y105.165 E18.04862
G1 X96.326 Y105.014 E18.06912
G1 F1500 E11.56912
G0 F3600 X96.45 Y104.779
G0 X97.426 Y105.165
G0 X97.342 Y105.416
G1 F1500 E18.06912
G1 F1800 X97.162 Y105.345 E18.07877
G1 X98.419 Y105.643 E18.14322
G1 X99.315 Y105.744 E18.1882
G1 X99.587 Y105.762 E18.2018
G1 X100.204 Y105.799 E18.23264
G1 X100.204 Y105.798 E18.23269
G1 X100.52 Y105.821 E18.2485
G1 X99.449 Y105.821 E18.30193
G1 X98.406 Y105.688 E18.35439
G1 X97.342 Y105.416 E18.40918
G1 F1500 E11.90918
G0 F3600 X97.426 Y105.165
G0 X102.573 Y105.165
G0 X102.669 Y105.413
G1 F1500 E18.40918
G1 F1800 X102.056 Y105.57 E18.44075
G1 X102.96 Y105.299 E18.48783
G1 X102.669 Y105.413 E18.50342
G0 F3600 X103.272 Y105.177
G1 F1800 X102.965 Y105.297 E18.51987
G1 X103.862 Y104.845 E18.56998
G1 X104.301 Y104.649 E18.59397
G1 X105.527 Y103.738 E18.67017
G1 X105.503 Y103.764 E18.67193
G1 X104.291 Y104.661 E18.74716
G1 X103.272 Y105.177 E18.80415
G1 F1500 E12.30415
G0 F3600 X103.175 Y104.929
G0 X108.122 Y96.586
G0 X116.659 Y96.577
G0 X116.568 Y100.084
G0 X115.652 Y114.392
G0 X92.367 Y114.404
G0 X92.367 Y114.17
G1 F1500 E18.80415
G1 F1800 X92.149 Y114.59 E18.82775
G1 X92.148 Y123.847 E19.28959
G1 X89.853 Y123.847 E19.40409
G1 X89.852 Y114.591 E19.86587
G1 X89.634 Y114.171 E19.88948
G1 X89.634 Y114.139 E19.89107
G1 X92.367 Y114.139 E20.02742
G1 X92.367 Y114.17 E20.02897
G0 F3600 X91.988 Y114.638
G1 F1800 X90.012 Y114.638 E20.12755
G0 F3600 X90.644 Y114.299
G1 F1800 X90.644 Y123.687 E20.59592
G0 F3600 X90.011 Y122.636
G1 F1800 X91.987 Y122.636 E20.69451
G0 F3600 X91.987 Y119.97
G1 F1800 X90.011 Y119.97 E20.79309
G0 F3600 X90.012 Y117.304
G1 F1800 X91.988 Y117.304 E20.89167
G0 F3600 X107.851 Y114.591
G1 F1800 X107.633 Y114.171 E20.91528
G1 X107.633 Y114.139 E20.91688
G1 X110.366 Y114.139 E21.05323
G1 X110.366 Y114.17 E21.05477
G1 X110.148 Y114.59 E21.07838
G1 X110.147 Y123.847 E21.54021
G1 X107.852 Y123.847 E21.65471
G1 X107.851 Y114.591 E22.1165
G0 F3600 X108.011 Y114.638
G1 F1800 X109.987 Y114.638 E22.21508
G0 F3600 X109.306 Y114.299
G1 F1800 X109.306 Y123.687 E22.68345
G0 F3600 X109.986 Y122.636
G1 F1800 X108.01 Y122.636 E22.78203
G0 F3600 X108.01 Y119.97
G1 F1800 X109.986 Y119.97 E22.88061
G0 F3600 X109.987 Y117.304
G1 F1800 X108.011 Y117.304 E22.9792
G1 F1500 E16.4792
G0 F3600 X115.652 Y114.392
G0 X116.653 Y98.185
G0 X116.659 Y96.577
G0 X109.576 Y92.895
G0 X109.576 Y91.616
G0 X109.631 Y91.558
G0 X109.563 Y91.63
;TYPE:WALL-INNER
G1 F1500 E22.9792
G1 F1800 X109.526 Y91.037 E23.00884
G1 X109.299 Y89.852 E23.06904
G1 X108.926 Y88.706 E23.12916
G1 X108.419 Y87.626 E23.18868
G1 X107.767 Y86.596 E23.2495
G1 X106.998 Y85.668 E23.30963
G1 X106.119 Y84.842 E23.36981
G1 X105.144 Y84.134 E23.42992
G1 X104.088 Y83.552 E23.49008
G1 X102.965 Y83.107 E23.55034
G1 X101.756 Y82.803 E23.61254
G1 X100.603 Y82.658 E23.67051
G1 X99.397 Y82.658 E23.73068
G1 X98.236 Y82.804 E23.78906
G1 X97.01 Y83.118 E23.8522
G1 X95.912 Y83.552 E23.9111
G1 X94.855 Y84.134 E23.9713
G1 X93.86 Y84.862 E24.03281
G1 X93.002 Y85.668 E24.09154
G1 X92.233 Y86.596 E24.15167
G1 X91.587 Y87.615 E24.21186
G1 X91.074 Y88.705 E24.27197
G1 X90.701 Y89.852 E24.33214
G1 X90.474 Y91.037 E24.39234
G1 X90.437 Y91.63 E24.42198
G1 X84.853 Y91.63 E24.70056
G1 X84.852 Y91.63 E24.70061
G1 X84.64 Y91.63 E24.71119
G1 X84.653 Y91.418 E24.71793
G1 X84.724 Y90.305 E24.77357
G1 X85.085 Y88.411 E24.86976
G1 X85.678 Y86.584 E24.96559
G1 X86.506 Y84.823 E25.06267
G1 X87.542 Y83.188 E25.15924
G1 X88.776 Y81.699 E25.25572
G1 X90.184 Y80.378 E25.35205
G1 X91.753 Y79.236 E25.44886
G1 X93.437 Y78.31 E25.54474
G1 X95.245 Y77.594 E25.64176
G1 X97.116 Y77.113 E25.73814
G1 X99.031 Y76.871 E25.83444
G1 X100.969 Y76.871 E25.93112
G1 X102.884 Y77.113 E26.02742
G1 X104.755 Y77.594 E26.1238
G1 X106.563 Y78.31 E26.22082
G1 X108.241 Y79.233 E26.31637
G1 X109.814 Y80.376 E26.41337
G1 X111.228 Y81.702 E26.51008
G1 X112.474 Y83.215 E26.60787
G1 X113.483 Y84.804 E26.70178
G1 X114.319 Y86.577 E26.79957
G1 X114.915 Y88.411 E26.89578
G1 X115.276 Y90.305 E26.99198
G1 X115.347 Y91.418 E27.04762
G1 X115.36 Y91.63 E27.05821
G1 X115.148 Y91.63 E27.06494
G1 X115.147 Y91.63 E27.06499
G1 X109.563 Y91.63 E27.34357
G0 F3600 X109.128 Y91.087
;TYPE:WALL-OUTER
G1 F1800 X108.911 Y89.952 E27.40122
G1 X108.553 Y88.853 E27.45889
G1 X108.068 Y87.819 E27.51587
G1 X107.443 Y86.832 E27.57415
G1 X106.706 Y85.942 E27.6318
G1 X105.864 Y85.151 E27.68944
G1 X104.929 Y84.472 E27.74709
G1 X103.917 Y83.915 E27.80472
G1 X102.842 Y83.489 E27.86241
G1 X101.682 Y83.197 E27.92209
G1 X100.578 Y83.058 E27.9776
G1 X99.422 Y83.058 E28.03527
G1 X98.311 Y83.198 E28.09114
G1 X97.134 Y83.499 E28.15175
G1 X96.083 Y83.915 E28.20814
G1 X95.07 Y84.472 E28.26582
G1 X94.116 Y85.17 E28.32479
G1 X93.294 Y85.942 E28.38105
G1 X92.557 Y86.832 E28.4387
G1 X91.938 Y87.808 E28.49636
G1 X91.447 Y88.853 E28.55397
G1 X91.089 Y89.952 E28.61163
G1 X90.872 Y91.087 E28.66928
G1 X90.813 Y92.03 E28.71642
G1 X84.427 Y92.03 E29.03502
G1 X84.426 Y92.03 E29.03507
G1 X84.214 Y92.03 E29.04565
G1 X84.227 Y91.818 E29.05238
G1 X84.327 Y90.252 E29.13067
G1 X84.696 Y88.314 E29.22909
G1 X85.306 Y86.435 E29.32765
G1 X86.155 Y84.629 E29.42721
G1 X87.217 Y82.954 E29.52616
G1 X88.487 Y81.421 E29.62548
G1 X89.922 Y80.074 E29.72367
G1 X91.54 Y78.897 E29.82349
G1 X93.269 Y77.946 E29.92194
G1 X95.117 Y77.214 E30.02111
G1 X97.046 Y76.719 E30.12046
G1 X99.005 Y76.471 E30.21898
G1 X100.995 Y76.471 E30.31826
G1 X102.954 Y76.719 E30.41677
G1 X104.883 Y77.214 E30.51613
G1 X106.731 Y77.946 E30.6153
G1 X108.46 Y78.897 E30.71374
G1 X110.071 Y80.068 E30.81311
G1 X111.517 Y81.424 E30.912
G1 X112.696 Y82.849 E31.00428
G1 X112.803 Y82.987 E31.01299
G1 X113.835 Y84.613 E31.10907
G1 X114.69 Y86.425 E31.20903
G1 X115.304 Y88.314 E31.30813
G1 X115.673 Y90.252 E31.40655
G1 X115.773 Y91.818 E31.48484
G1 X115.786 Y92.03 E31.49543
G1 X115.574 Y92.03 E31.50216
G1 X115.573 Y92.03 E31.50221
G1 X109.187 Y92.03 E31.8208
G1 X109.128 Y91.087 E31.86794
G0 F3600 X109.091 Y90.891
G0 X109.705 Y91.037
;TYPE:SKIN
G1 F1800 X110.117 Y91.45 E31.89705
G0 F3600 X110.683 Y91.45
G1 F1800 X109.574 Y90.341 E31.97529
G1 X109.504 Y90.271
G0 F3600 X109.407 Y89.608
G1 F1800 X111.249 Y91.45 E32.10526
G1 X111.319 Y91.52
G0 F3600 X111.814 Y91.45
G1 F1800 X109.134 Y88.769 E32.29438
G1 X109.064 Y88.699
G0 F3600 X108.67 Y87.74
G1 F1800 X112.38 Y91.45 E32.55614
G1 X112.45 Y91.52
G0 F3600 X112.946 Y91.45
G1 F1800 X107.554 Y86.058 E32.93658
G1 X107.484 Y85.988
G0 F3600 X106.109 Y84.613
G1 F1800 X98.602 Y77.106 E33.46623
G1 X98.532 Y77.036
G0 F3600 X98.1 Y77.17
G1 F1800 X104.511 Y83.581 E33.91857
G1 X104.581 Y83.651
G0 F3600 X103.484 Y83.119
G1 F1800 X97.598 Y77.233 E34.33385
G1 X97.528 Y77.163
G0 F3600 X97.102 Y77.303
G1 F1800 X102.637 Y82.838 E34.72438
G1 X102.707 Y82.908
G0 F3600 X101.882 Y82.648
G1 F1800 X96.652 Y77.419 E35.09335
G1 X96.582 Y77.349
G0 F3600 X96.201 Y77.534
G1 F1800 X101.221 Y82.554 E35.44754
G1 X101.291 Y82.624
G0 F3600 X100.579 Y82.477
G1 F1800 X95.752 Y77.65 E35.78811
G1 X95.682 Y77.58
G0 F3600 X95.302 Y77.766
G1 F1800 X100.013 Y82.477 E36.12049
G1 X100.083 Y82.547
G0 F3600 X99.448 Y82.477
G1 F1800 X94.896 Y77.925 E36.44166
G1 X94.826 Y77.855
G0 F3600 X94.491 Y78.086
G1 F1800 X98.939 Y82.534 E36.75549
