;FLAVOR:Marlin
;TIME:5634
;Filament used: 3.13738m
;Layer height: 0.1
;Generated with Cura_SteamEngine 3.0.4
M190 S60
M104 S200
M109 S200
M82 ; absolute extrusion mode
G21 ;metric values
G90 ;absolute positioning
M82 ;set extruder to absolute mode
M107 ;start with the fan off
G28 X0 Y0 ;move X/Y to min endstops
G28 Z0 ;move Z to min endstops
G1 Z15.0 F9000 ;move the platform down 15mm
G92 E0 ;zero the extruded length
G1 F200 E3 ;extrude 3mm of feed stock
G92 E0 ;zero the extruded length again
G1 F9000
;Put printing message on LCD screen
M117 Printing...
;LAYER_COUNT:18
;LAYER:0
M107
G0 F3600 X49.205 Y76.19 Z0.3
;TYPE:SKIRT
G1 F1800 X49.631 Y75.918 E0.02522
G1 X49.913 Y75.785 E0.04077
G1 X50.635 Y75.487 E0.07974
G1 X51.116 Y75.332 E0.10495
G1 X51.468 Y75.269 E0.12279
G1 X52.204 Y75.179 E0.15979
G1 X52.593 Y75.155 E0.17923
G1 X147.783 Y75.174 E4.92828
G1 X148.287 Y75.214 E4.9535
G1 X148.593 Y75.278 E4.9691
G1 X149.307 Y75.465 E5.00592
G1 X149.784 Y75.632 E5.03114
G1 X150.159 Y75.827 E5.05222
G1 X150.889 Y76.271 E5.09485
G1 X151.299 Y76.567 E5.12008
G1 X151.566 Y76.822 E5.1385
G1 X151.943 Y77.226 E5.16607
G1 X152.339 Y77.75 E5.19883
G1 X152.621 Y78.215 E5.22597
G1 X152.908 Y78.823 E5.25951
G1 X153.094 Y79.358 E5.28777
G1 X153.255 Y80.091 E5.32521
G1 X153.333 Y80.871 E5.36432
G1 X153.349 Y81.191 E5.3803
G1 X153.328 Y119.175 E7.27533
G1 X153.244 Y119.902 E7.31184
G1 X153.043 Y120.761 E7.35586
G1 X152.889 Y121.243 E7.3811
G1 X152.729 Y121.578 E7.39962
G1 X152.469 Y122.049 E7.42646
G1 X152.091 Y122.592 E7.45947
G1 X151.724 Y123.018 E7.48752
G1 X151.229 Y123.482 E7.52137
G1 X150.795 Y123.81 E7.54851
G1 X150.369 Y124.082 E7.57373
G1 X150.087 Y124.215 E7.58928
G1 X149.365 Y124.513 E7.62825
G1 X148.884 Y124.668 E7.65347
G1 X148.532 Y124.731 E7.67131
G1 X147.796 Y124.821 E7.7083
G1 X147.408 Y124.845 E7.72769
G1 X52.436 Y124.84 E12.46587
G1 X51.883 Y124.792 E12.49356
G1 X51.108 Y124.656 E12.53281
G1 X50.618 Y124.529 E12.55807
G1 X50.068 Y124.279 E12.58821
G1 X49.181 Y123.77 E12.63923
G1 X48.764 Y123.485 E12.66443
G1 X48.434 Y123.178 E12.68692
G1 X48.057 Y122.774 E12.71448
G1 X47.661 Y122.25 E12.74725
G1 X47.379 Y121.785 E12.77438
G1 X47.092 Y121.177 E12.80793
G1 X46.906 Y120.642 E12.83619
G1 X46.779 Y120.153 E12.86139
G1 X46.744 Y119.9 E12.87413
G1 X46.666 Y119.096 E12.91443
G1 X46.651 Y118.785 E12.92997
G1 X46.672 Y80.825 E14.8238
G1 X46.756 Y80.098 E14.86031
G1 X46.957 Y79.239 E14.90432
G1 X47.111 Y78.757 E14.92957
G1 X47.271 Y78.422 E14.94809
G1 X47.531 Y77.951 E14.97493
G1 X47.909 Y77.408 E15.00794
G1 X48.276 Y76.982 E15.03599
G1 X48.771 Y76.518 E15.06984
G1 X49.205 Y76.19 E15.09698
G1 F1500 E8.59698
G0 F3600 X50.691 Y78.232
G0 X51.448 Y79.27
G0 X51.526 Y79.311
G0 X51.476 Y79.225
;TYPE:WALL-INNER
G1 F1500 E15.09698
G1 F1800 X51.863 Y79.052 E15.11813
G1 X52.306 Y78.959 E15.14071
G1 X52.424 Y78.952 E15.14661
G1 X52.513 Y78.948 E15.15106
G1 X52.933 Y78.948 E15.17201
G1 X53.554 Y78.948 E15.20299
G1 X53.688 Y78.948 E15.20968
G1 X54.315 Y78.948 E15.24096
G1 X54.45 Y78.948 E15.24769
G1 X55.068 Y78.948 E15.27853
G1 X55.502 Y78.948 E15.30018
G1 X144.499 Y78.948 E19.74026
G1 X144.933 Y78.948 E19.76191
G1 X145.554 Y78.948 E19.79289
G1 X145.688 Y78.948 E19.79958
G1 X146.315 Y78.948 E19.83086
G1 X146.45 Y78.948 E19.83759
G1 X147.068 Y78.948 E19.86842
G1 X147.47 Y78.949 E19.88848
G1 X147.579 Y78.954 E19.89392
G1 X147.701 Y78.96 E19.90002
G1 X148.137 Y79.052 E19.92225
G1 X148.524 Y79.225 E19.9434
G1 X148.871 Y79.478 E19.96482
G1 X149.16 Y79.797 E19.9863
G1 X149.372 Y80.167 E20.00757
G1 X149.503 Y80.57 E20.02871
G1 X149.541 Y80.928 E20.04667
G1 X149.549 Y81.008 E20.05069
G1 X149.552 Y81.034 E20.05199
G1 X149.552 Y81.046 E20.05259
G1 X149.552 Y81.754 E20.08791
G1 X149.552 Y82.5 E20.12513
G1 X149.552 Y83.242 E20.16215
G1 X149.552 Y83.849 E20.19243
G1 X149.552 Y83.973 E20.19862
G1 X149.552 Y84.013 E20.20061
G1 X149.552 Y115.985 E21.7957
G1 X149.552 Y116.046 E21.79875
G1 X149.552 Y116.754 E21.83407
G1 X149.552 Y117.5 E21.87129
G1 X149.552 Y118.242 E21.90831
G1 X149.552 Y118.849 E21.93859
G1 X149.551 Y118.967 E21.94448
G1 X149.547 Y119.01 E21.94663
G1 X149.541 Y119.069 E21.94959
G1 X149.503 Y119.43 E21.9677
G1 X149.372 Y119.832 E21.98879
G1 X149.16 Y120.203 E22.01011
G1 X148.871 Y120.522 E22.03159
G1 X148.524 Y120.775 E22.05301
G1 X148.137 Y120.948 E22.07416
G1 X147.694 Y121.041 E22.09674
G1 X147.576 Y121.048 E22.10264
G1 X147.487 Y121.052 E22.10709
G1 X147.067 Y121.052 E22.12804
G1 X146.446 Y121.052 E22.15902
G1 X146.312 Y121.052 E22.16571
G1 X145.685 Y121.052 E22.19699
G1 X145.55 Y121.052 E22.20372
G1 X144.932 Y121.052 E22.23455
G1 X144.498 Y121.052 E22.25621
G1 X55.501 Y121.052 E26.69629
G1 X55.067 Y121.052 E26.71794
G1 X54.446 Y121.052 E26.74892
G1 X54.312 Y121.052 E26.7556
G1 X53.685 Y121.052 E26.78689
G1 X53.55 Y121.052 E26.79362
G1 X52.932 Y121.052 E26.82445
G1 X52.53 Y121.051 E26.84451
G1 X52.421 Y121.046 E26.84995
G1 X52.299 Y121.04 E26.85605
G1 X51.863 Y120.948 E26.87828
G1 X51.476 Y120.775 E26.89943
G1 X51.129 Y120.522 E26.92085
G1 X50.84 Y120.203 E26.94233
G1 X50.628 Y119.833 E26.9636
G1 X50.497 Y119.43 E26.98474
G1 X50.459 Y119.072 E27.0027
G1 X50.451 Y118.992 E27.00671
G1 X50.448 Y118.966 E27.00802
G1 X50.448 Y118.954 E27.00862
G1 X50.448 Y118.246 E27.04394
G1 X50.448 Y117.5 E27.08116
G1 X50.448 Y116.758 E27.11818
G1 X50.448 Y116.151 E27.14846
G1 X50.448 Y116.027 E27.15465
G1 X50.448 Y115.987 E27.15664
G1 X50.448 Y84.015 E28.75173
G1 X50.448 Y83.954 E28.75478
G1 X50.448 Y83.246 E28.7901
G1 X50.448 Y82.5 E28.82732
G1 X50.448 Y81.758 E28.86434
G1 X50.448 Y81.151 E28.89462
G1 X50.449 Y81.033 E28.90051
G1 X50.453 Y80.99 E28.90266
G1 X50.459 Y80.931 E28.90562
G1 X50.497 Y80.57 E28.92373
G1 X50.628 Y80.168 E28.94482
G1 X50.84 Y79.797 E28.96614
G1 X51.129 Y79.478 E28.98762
G1 X51.476 Y79.225 E29.00904
G0 F3600 X51.643 Y79.908
G1 F1800 X51.15 Y80.467 E29.04623
G1 X50.856 Y80.975 E29.07551
G1 X50.826 Y81.027 E29.07834
G1 X50.774 Y81.151 E29.0831
G1 X50.578 Y81.758 E29.10172
G1 X50.498 Y82.5 E29.11022
G1 X50.577 Y83.246 E29.11871
G1 X50.815 Y83.954 E29.14235
G1 X50.845 Y84.006 E29.14523
G1 X51.137 Y84.509 E29.17424
G1 X51.217 Y84.618 E29.18099
G1 X51.646 Y85.092 E29.21288
G1 X52.249 Y85.533 E29.25015
G1 X52.932 Y85.836 E29.28743
G1 X53.55 Y85.967 E29.31895
G1 X53.685 Y85.986 E29.32575
G1 X54.312 Y85.985 E29.35703
G1 X54.446 Y85.968 E29.36377
G1 X55.067 Y85.835 E29.39546
G1 X55.75 Y85.534 E29.43269
G1 X56.357 Y85.092 E29.47015
G1 X56.85 Y84.533 E29.50734
G1 X57.174 Y83.973 E29.53962
G1 X57.226 Y83.849 E29.54633
G1 X57.422 Y83.242 E29.57815
G1 X57.502 Y82.5 E29.61538
G1 X57.423 Y81.754 E29.65281
G1 X57.185 Y81.046 E29.69007
G1 X56.863 Y80.491 E29.72208
G1 X56.783 Y80.382 E29.72883
G1 X56.354 Y79.908 E29.76072
G1 X55.751 Y79.467 E29.798
G1 X55.464 Y79.34 E29.81365
G1 X55.068 Y79.164 E29.8304
G1 X54.45 Y79.033 E29.84023
G1 X54.315 Y79.014
G1 X53.688 Y79.015 E29.84299
G1 X53.554 Y79.032
G1 X52.933 Y79.165 E29.85524
G1 X52.662 Y79.284 E29.86527
G1 X52.581 Y79.319 E29.86949
G1 X52.25 Y79.466 E29.88756
G1 X51.643 Y79.908 E29.92502
G0 F3600 X51.576 Y79.835
G0 X52.231 Y79.432
G0 X52.921 Y79.127
G0 X53.686 Y78.976
G0 X54.456 Y78.994
G0 X55.08 Y79.126
G0 X55.771 Y79.433
G0 X56.38 Y79.879
G0 X56.896 Y80.47
G0 X58.782 Y84.183
G0 X58.865 Y84.238
G1 F1800 X58.571 Y84.787 E29.95609
G1 X58.391 Y85.382 E29.9871
G1 X58.33 Y86 E30.01809
G1 X58.391 Y86.618 E30.04907
G1 X58.571 Y87.213 E30.08008
G1 X58.865 Y87.762 E30.11115
G1 X59.259 Y88.241 E30.14209
G1 X59.738 Y88.635 E30.17304
G1 X60.287 Y88.929 E30.20411
G1 X60.882 Y89.109 E30.23512
G1 X61.5 Y89.17 E30.2661
G1 X62.118 Y89.109 E30.29709
G1 X62.713 Y88.929 E30.3281
G1 X63.262 Y88.635 E30.35917
G1 X63.741 Y88.241 E30.39011
G1 X64.135 Y87.762 E30.42105
G1 X64.429 Y87.213 E30.45212
G1 X64.609 Y86.618 E30.48314
G1 X64.67 Y86 E30.51412
G1 X64.609 Y85.382 E30.5451
G1 X64.429 Y84.787 E30.57611
G1 X64.135 Y84.238 E30.60718
G1 X63.741 Y83.759 E30.63813
G1 X63.262 Y83.365 E30.66907
G1 X62.713 Y83.071 E30.70014
G1 X62.118 Y82.891 E30.73115
G1 X61.5 Y82.83 E30.76214
G1 X60.882 Y82.891 E30.79312
G1 X60.287 Y83.071 E30.82413
G1 X59.738 Y83.365 E30.8552
G1 X59.259 Y83.759 E30.88614
G1 X58.865 Y84.238 E30.91709
G0 F3600 X58.782 Y84.183
G0 X59.716 Y83.332
G0 X60.272 Y83.035
G0 X60.875 Y82.852
G0 X61.5 Y82.79
G0 X62.125 Y82.852
G0 X62.728 Y83.035
G0 X63.284 Y83.332
G0 X63.769 Y83.731
G0 X64.168 Y84.216
G0 X67.576 Y89.676
G0 X67.646 Y89.746
G1 F1800 X67.646 Y89.947 E30.92712
G1 X67.664 Y95.852 E31.22172
G1 X67.658 Y96.9 E31.274
G1 X67.665 Y97.942 E31.32599
G1 X67.646 Y103.852 E31.62084
G1 X67.646 Y104.053 E31.63087
G1 X67.847 Y104.053 E31.63736
G1 X75.402 Y104.036 E32.01428
G1 X77.599 Y104.042 E32.12389
G1 X86.203 Y104.043 E32.55314
G1 X87.185 Y104.035 E32.60214
G1 X92.753 Y104.054 E32.87993
G1 X92.954 Y104.054 E32.88996
G1 X92.954 Y103.853 E32.89644
G1 X92.935 Y97.948 E33.19104
G1 X92.942 Y96.9 E33.24333
G1 X92.935 Y95.858 E33.29532
G1 X92.954 Y89.948 E33.59017
G1 X92.954 Y89.747 E33.6002
G1 X92.753 Y89.747 E33.60668
G1 X85.86 Y89.764 E33.95058
G1 X83.856 Y89.758 E34.05056
G1 X75.966 Y89.757 E34.44419
G1 X74.74 Y89.765 E34.50536
G1 X67.847 Y89.746 E34.84925
G1 X67.646 Y89.746 E34.85574
G0 F3600 X67.576 Y89.676
G0 X53.682 Y113.916
G0 X53.688 Y114.015
G1 F1800 X53.554 Y114.032 E34.86248
G1 X52.933 Y114.165 E34.89416
G1 X52.25 Y114.466 E34.9314
G1 X51.643 Y114.908 E34.96886
G1 X51.15 Y115.467 E35.00605
G1 X50.846 Y115.993 E35.03636
G1 X50.826 Y116.027 E35.03817
G1 X50.774 Y116.151 E35.04363
G1 X50.578 Y116.758 E35.06225
G1 X50.498 Y117.5 E35.07075
G1 X50.577 Y118.246 E35.07924
G1 X50.781 Y118.855 E35.09782
G1 X50.815 Y118.954 E35.10211
G1 X50.855 Y119.024 E35.10596
G1 X51.137 Y119.509 E35.13394
G1 X51.217 Y119.618 E35.14069
G1 X51.646 Y120.092 E35.17259
G1 X52.249 Y120.533 E35.20986
G1 X52.576 Y120.678 E35.2277
G1 X52.675 Y120.722 E35.23283
G1 X52.932 Y120.836 E35.24217
G1 X53.55 Y120.967 E35.252
G1 X53.685 Y120.986
G1 X54.312 Y120.985 E35.25476
G1 X54.446 Y120.968
G1 X55.067 Y120.835 E35.26701
G1 X55.464 Y120.66 E35.2838
G1 X55.75 Y120.534 E35.29939
G1 X56.357 Y120.092 E35.33685
G1 X56.85 Y119.533 E35.37404
G1 X57.174 Y118.973 E35.40631
G1 X57.226 Y118.849 E35.41302
G1 X57.422 Y118.242 E35.44485
G1 X57.502 Y117.5 E35.48208
G1 X57.423 Y116.754 E35.51951
G1 X57.185 Y116.046 E35.55677
G1 X56.863 Y115.491 E35.58878
G1 X56.783 Y115.382 E35.59553
G1 X56.354 Y114.908 E35.62742
G1 X55.751 Y114.467 E35.66469
G1 X55.068 Y114.164 E35.70197
G1 X54.45 Y114.033 E35.73349
G1 X54.315 Y114.014 E35.74029
G1 X53.688 Y114.015 E35.77157
G0 F3600 X53.682 Y113.916
G0 X92.982 Y104.082
G0 X100.168 Y91.223
G0 X100.261 Y91.257
G1 F1800 X100.144 Y91.748 E35.79675
G1 X100.144 Y92.252 E35.8219
G1 X100.261 Y92.743 E35.84708
G1 X100.486 Y93.193 E35.87218
G1 X100.811 Y93.58 E35.89739
G1 X101.215 Y93.88 E35.9225
G1 X101.677 Y94.08 E35.94761
G1 X102.174 Y94.167 E35.97279
G1 X102.677 Y94.138 E35.99792
G1 X103.161 Y93.994 E36.02312
G1 X103.597 Y93.741 E36.04826
G1 X103.963 Y93.395 E36.07339
G1 X104.24 Y92.974 E36.09853
G1 X104.413 Y92.501 E36.12366
G1 X104.471 Y92 E36.14882
G1 X104.413 Y91.499 E36.17399
G1 X104.24 Y91.026 E36.19911
G1 X103.963 Y90.605 E36.22425
G1 X103.597 Y90.259 E36.24938
G1 X103.161 Y90.006 E36.27453
G1 X102.677 Y89.862 E36.29972
G1 X102.174 Y89.833 E36.32486
G1 X101.677 Y89.92 E36.35003
G1 X101.215 Y90.12 E36.37515
G1 X100.811 Y90.42 E36.40025
G1 X100.486 Y90.807 E36.42547
G1 X100.261 Y91.257 E36.45057
G0 F3600 X100.168 Y91.223
G0 X100.784 Y90.391
G0 X101.195 Y90.086
G0 X101.666 Y89.882
G0 X102.172 Y89.794
G0 X102.683 Y89.823
G0 X103.176 Y89.97
G0 X139.368 Y106.423
G0 X139.461 Y106.457
G1 F1800 X139.344 Y106.948 E36.47575
G1 X139.344 Y107.452 E36.50089
G1 X139.461 Y107.943 E36.52608
G1 X139.686 Y108.393 E36.55118
G1 X140.011 Y108.78 E36.57639
G1 X140.415 Y109.08 E36.6015
G1 X140.877 Y109.28 E36.62661
G1 X141.374 Y109.367 E36.65178
G1 X141.877 Y109.338 E36.67692
G1 X142.361 Y109.194 E36.70211
G1 X142.797 Y108.941 E36.72726
G1 X143.163 Y108.595 E36.75239
G1 X143.44 Y108.174 E36.77753
G1 X143.613 Y107.701 E36.80266
G1 X143.671 Y107.2 E36.82782
G1 X143.613 Y106.699 E36.85298
G1 X143.44 Y106.226 E36.87811
G1 X143.163 Y105.805 E36.90325
G1 X142.797 Y105.459 E36.92838
G1 X142.361 Y105.206 E36.95353
G1 X141.877 Y105.062 E36.97872
G1 X141.374 Y105.033 E37.00386
G1 X140.877 Y105.12 E37.02903
G1 X140.415 Y105.32 E37.05415
G1 X140.011 Y105.62 E37.07925
G1 X139.686 Y106.007 E37.10447
G1 X139.461 Y106.457 E37.12957
G0 F3600 X139.368 Y106.423
G0 X139.305 Y107.456
G0 X139.424 Y107.956
G0 X142.737 Y115.983
G0 X142.826 Y116.027
G1 F1800 X142.774 Y116.151 E37.13627
G1 X142.578 Y116.758 E37.1681
G1 X142.498 Y117.5 E37.20533
G1 X142.577 Y118.246 E37.24276
G1 X142.815 Y118.954 E37.28002
G1 X143.137 Y119.509 E37.31203
G1 X143.217 Y119.618 E37.31878
G1 X143.646 Y120.092 E37.35067
G1 X144.249 Y120.533 E37.38794
G1 X144.536 Y120.66 E37.4036
G1 X144.932 Y120.836 E37.42035
G1 X145.55 Y120.967 E37.43018
G1 X145.685 Y120.986
G1 X146.312 Y120.985 E37.43294
G1 X146.446 Y120.968
G1 X147.067 Y120.835 E37.44519
G1 X147.338 Y120.716 E37.45522
G1 X147.419 Y120.681 E37.45944
G1 X147.75 Y120.534 E37.47751
G1 X148.357 Y120.092 E37.51497
G1 X148.85 Y119.533 E37.55216
G1 X149.144 Y119.025 E37.58144
G1 X149.174 Y118.973 E37.58427
G1 X149.226 Y118.849 E37.58903
G1 X149.422 Y118.242 E37.60765
G1 X149.502 Y117.5 E37.61614
G1 X149.423 Y116.754 E37.62464
G1 X149.185 Y116.046 E37.64828
G1 X149.155 Y115.994 E37.65116
G1 X148.863 Y115.491 E37.68017
G1 X148.783 Y115.382 E37.68692
G1 X148.354 Y114.908 E37.71881
G1 X147.751 Y114.467 E37.75608
G1 X147.068 Y114.164 E37.79336
G1 X146.45 Y114.033 E37.82488
G1 X146.315 Y114.014 E37.83168
G1 X145.688 Y114.015 E37.86296
G1 X145.554 Y114.032 E37.8697
G1 X144.933 Y114.165 E37.90138
G1 X144.25 Y114.466 E37.93862
G1 X143.643 Y114.908 E37.97608
G1 X143.15 Y115.467 E38.01327
G1 X142.826 Y116.027 E38.04555
G0 F3600 X142.737 Y115.983
G0 X143.711 Y107.2
G0 X142.398 Y82.5
G0 X142.498 Y82.5
G1 F1800 X142.577 Y83.246 E38.08297
G1 X142.815 Y83.954 E38.12024
G1 X143.137 Y84.509 E38.15225
G1 X143.217 Y84.618 E38.15899
G1 X143.646 Y85.092 E38.19089
G1 X144.249 Y85.533 E38.22816
G1 X144.932 Y85.836 E38.26544
G1 X145.55 Y85.967 E38.29696
G1 X145.685 Y85.986 E38.30376
G1 X146.312 Y85.985 E38.33504
G1 X146.446 Y85.968 E38.34178
G1 X147.067 Y85.835 E38.37346
G1 X147.75 Y85.534 E38.4107
G1 X148.357 Y85.092 E38.44816
G1 X148.85 Y84.533 E38.48535
G1 X149.154 Y84.007 E38.51565
G1 X149.174 Y83.973 E38.51747
G1 X149.226 Y83.849 E38.52293
G1 X149.422 Y83.242 E38.54155
G1 X149.502 Y82.5 E38.55005
G1 X149.423 Y81.754 E38.55854
G1 X149.219 Y81.145 E38.57712
G1 X149.185 Y81.046 E38.58141
G1 X149.145 Y80.976 E38.58525
G1 X148.863 Y80.491 E38.61324
G1 X148.783 Y80.382 E38.61999
G1 X148.354 Y79.908 E38.65189
G1 X147.751 Y79.467 E38.68916
G1 X147.424 Y79.322 E38.707
G1 X147.325 Y79.278 E38.71213
G1 X147.068 Y79.164 E38.72147
G1 X146.45 Y79.033 E38.7313
G1 X146.315 Y79.014
G1 X145.688 Y79.015 E38.73406
G1 X145.554 Y79.032
G1 X144.933 Y79.165 E38.74631
G1 X144.536 Y79.34 E38.7631
G1 X144.25 Y79.466 E38.77869
G1 X143.643 Y79.908 E38.81615
G1 X143.15 Y80.467 E38.85334
G1 X142.826 Y81.027 E38.88561
G1 X142.774 Y81.151 E38.89232
G1 X142.578 Y81.758 E38.92415
G1 X142.498 Y82.5 E38.96138
G0 F3600 X142.398 Y82.5
G0 X142.539 Y81.75
G0 X142.791 Y81.01
G0 X143.118 Y80.444
G0 X143.617 Y79.879
G0 X144.231 Y79.432
G0 X144.921 Y79.127
G0 X145.597 Y78.978
G0 X145.651 Y78.919
G0 X145.653 Y78.919
G0 X145.714 Y79.415
;TYPE:WALL-OUTER
G1 F1800 X145.622 Y79.427 E38.96601
G1 X145.057 Y79.548 E38.99483
G1 X144.451 Y79.815 E39.02787
G1 X143.914 Y80.206 E39.06101
G1 X143.476 Y80.702 E39.09403
G1 X143.185 Y81.206 E39.12306
G1 X143.149 Y81.291 E39.12767
G1 X142.971 Y81.842 E39.15655
G1 X142.9 Y82.5 E39.18957
G1 X142.97 Y83.16 E39.22268
G1 X143.181 Y83.788 E39.25574
G1 X143.472 Y84.29 E39.28469
G1 X143.527 Y84.365 E39.28933
G1 X143.915 Y84.793 E39.31815
G1 X144.45 Y85.185 E39.35124
G1 X145.056 Y85.453 E39.38429
G1 X145.619 Y85.573 E39.41301
G1 X145.712 Y85.586 E39.4177
