;FLAVOR:RepRap
;TIME:261
;Filament used: 0.0907569m
;Layer height: 0.1
;Generated with Cura_SteamEngine 2.5.0
M190 S59
M104 S200
M109 S200
G21 ;metric values
G90 ;absolute positioning
M82 ;set extruder to absolute mode
M107 ;start with the fan off
G28 X0 Y0 ;move X/Y to min endstops
G28 Z0 ;move Z to min endstops
G1 Z15.0 F9000 ;move the platform down 15mm
G92 E0 ;zero the extruded length
G1 F200 E3 ;extrude 3mm of feed stock
G92 E0 ;zero the extruded length again
G1 F9000
;Put printing message on LCD screen
M117 Printing...
;LAYER_COUNT:52
;LAYER:0
M107
G0 F3600 X93.069 Y93.383 Z0.3
;TYPE:SKIRT
G1 F1800 X93.564 Y92.901 E0.03447
G1 X94.035 Y92.498 E0.0654
G1 X94.342 Y92.287 E0.08398
G1 X95.447 Y91.586 E0.14927
G1 X95.99 Y91.288 E0.18017
G1 X96.64 Y91.041 E0.21486
G1 X97.841 Y90.681 E0.27741
G1 X98.444 Y90.542 E0.30828
G1 X99.119 Y90.48 E0.3421
G1 X100.504 Y90.451 E0.41121
G1 X101.122 Y90.478 E0.44208
G1 X101.479 Y90.53 E0.46008
G1 X102.013 Y90.629 E0.48717
G1 X102.715 Y90.816 E0.52341
G1 X103.583 Y91.118 E0.56927
G1 X104.288 Y91.428 E0.60769
G1 X104.806 Y91.708 E0.63707
G1 X105.4 Y92.088 E0.67225
G1 X106.08 Y92.597 E0.71462
G1 X106.653 Y93.102 E0.75273
G1 X107.103 Y93.567 E0.78501
G1 X107.574 Y94.136 E0.82186
G1 X108.06 Y94.824 E0.86389
G1 X108.51 Y95.608 E0.90899
G1 X108.883 Y96.429 E0.95397
G1 X109.17 Y97.251 E0.99741
G1 X109.394 Y98.148 E1.04354
G1 X109.505 Y98.757 E1.07442
G1 X109.535 Y99.167 E1.09493
G1 X109.568 Y100.269 E1.14993
G1 X109.546 Y100.888 E1.18084
G1 X109.475 Y101.364 E1.20485
G1 X109.259 Y102.433 E1.25926
G1 X109.097 Y103.031 E1.29017
G1 X108.86 Y103.603 E1.32106
G1 X108.265 Y104.811 E1.38824
G1 X107.956 Y105.348 E1.41915
G1 X107.621 Y105.793 E1.44694
G1 X106.954 Y106.58 E1.49841
G1 X106.524 Y107.026 E1.52931
G1 X106.114 Y107.36 E1.5557
G1 X105.118 Y108.084 E1.61713
G1 X104.595 Y108.415 E1.64801
G1 X104.266 Y108.578 E1.66633
G1 X103.615 Y108.871 E1.70194
G1 X102.762 Y109.162 E1.74691
G1 X101.655 Y109.427 E1.8037
G1 X101.045 Y109.532 E1.83458
G1 X100.485 Y109.559 E1.86255
G1 X99.31 Y109.546 E1.92117
G1 X98.692 Y109.499 E1.95209
G1 X98.305 Y109.428 E1.97172
G1 X97.473 Y109.24 E2.01428
G1 X96.879 Y109.065 E2.04517
G1 X96.583 Y108.945 E2.06111
G1 X95.671 Y108.54 E2.11089
G1 X95.024 Y108.191 E2.14757
G1 X94.579 Y107.905 E2.17396
G1 X93.956 Y107.428 E2.2131
G1 X93.23 Y106.772 E2.26192
G1 X92.798 Y106.328 E2.29283
G1 X92.585 Y106.06 E2.30991
G1 X92.017 Y105.29 E2.35764
G1 X91.683 Y104.769 E2.38852
G1 X91.507 Y104.42 E2.40802
G1 X91.073 Y103.461 E2.46053
G1 X90.813 Y102.736 E2.49896
G1 X90.679 Y102.241 E2.52454
G1 X90.55 Y101.59 E2.55765
G1 X90.457 Y100.855 E2.59462
G1 X90.419 Y100.236 E2.62556
G1 X90.432 Y99.899 E2.64238
G1 X90.521 Y98.691 E2.70281
G1 X90.606 Y98.078 E2.73369
G1 X90.726 Y97.614 E2.7576
G1 X91.021 Y96.669 E2.80699
G1 X91.243 Y96.091 E2.83788
G1 X91.383 Y95.812 E2.85345
G1 X91.765 Y95.107 E2.89346
G1 X92.158 Y94.497 E2.92966
G1 X92.591 Y93.925 E2.96545
G1 X93.069 Y93.383 E3.0015
G0 F3600 X93.348 Y93.67
G1 F1800 X93.843 Y93.188 E3.03597
G1 X94.295 Y92.804 E3.06556
G1 X94.556 Y92.625 E3.08135
G1 X95.661 Y91.924 E3.14664
G1 X96.182 Y91.64 E3.17624
G1 X96.755 Y91.424 E3.20679
G1 X97.956 Y91.064 E3.26934
G1 X98.534 Y90.933 E3.29891
G1 X99.127 Y90.88 E3.32862
G1 X100.512 Y90.851 E3.39773
G1 X101.104 Y90.879 E3.4273
G1 X101.406 Y90.924 E3.44253
G1 X101.94 Y91.023 E3.46963
G1 X102.584 Y91.193 E3.50286
G1 X103.452 Y91.495 E3.54871
G1 X104.098 Y91.78 E3.58393
G1 X104.616 Y92.06 E3.61331
G1 X105.161 Y92.409 E3.6456
G1 X105.841 Y92.918 E3.68797
G1 X106.366 Y93.38 E3.72286
G1 X106.816 Y93.845 E3.75515
G1 X107.248 Y94.366 E3.78891
G1 X107.734 Y95.054 E3.83094
G1 X108.146 Y95.773 E3.87228
G1 X108.519 Y96.594 E3.91727
G1 X108.782 Y97.348 E3.95711
G1 X109.006 Y98.245 E4.00323
G1 X109.11 Y98.829 E4.03283
G1 X109.135 Y99.179 E4.05034
G1 X109.168 Y100.281 E4.10534
G1 X109.146 Y100.874 E4.13494
G1 X109.083 Y101.284 E4.15564
G1 X108.867 Y102.353 E4.21005
G1 X108.711 Y102.925 E4.23963
G1 X108.501 Y103.426 E4.26673
G1 X107.906 Y104.634 E4.33391
G1 X107.609 Y105.147 E4.36349
G1 X107.316 Y105.535 E4.38774
G1 X106.649 Y106.322 E4.43921
G1 X106.236 Y106.747 E4.46878
G1 X105.879 Y107.036 E4.49169
G1 X104.883 Y107.76 E4.55312
G1 X104.381 Y108.076 E4.58272
G1 X104.102 Y108.213 E4.59822
G1 X103.451 Y108.506 E4.63384
G1 X102.669 Y108.773 E4.67507
G1 X101.562 Y109.038 E4.73185
G1 X100.978 Y109.137 E4.76141
G1 X100.489 Y109.159 E4.78583
G1 X99.314 Y109.146 E4.84445
G1 X98.723 Y109.099 E4.87403
G1 X98.393 Y109.038 E4.89077
G1 X97.561 Y108.85 E4.93333
G1 X96.745 Y108.579 E4.97622
G1 X95.833 Y108.174 E5.02601
G1 X95.24 Y107.854 E5.05963
G1 X94.795 Y107.568 E5.08602
G1 X94.224 Y107.132 E5.12186
G1 X93.498 Y106.476 E5.17068
G1 X92.907 Y105.823 E5.21462
G1 X92.339 Y105.053 E5.26235
G1 X92.02 Y104.553 E5.29194
G1 X91.871 Y104.255 E5.30856
G1 X91.437 Y103.296 E5.36108
G1 X91.199 Y102.632 E5.39627
G1 X91.065 Y102.137 E5.42186
G1 X90.947 Y101.539 E5.45227
G1 X90.854 Y100.804 E5.48923
G1 X90.831 Y99.929 E5.5329
G1 X90.92 Y98.721 E5.59333
G1 X91.003 Y98.134 E5.6229
G1 X91.108 Y97.733 E5.64358
G1 X91.403 Y96.788 E5.69297
G1 X91.734 Y96.003 E5.73548
G1 X92.116 Y95.298 E5.77548
G1 X92.477 Y94.738 E5.80872
G1 X92.91 Y94.166 E5.84451
G1 X93.348 Y93.67 E5.87753
G0 F3600 X93.627 Y93.956
G1 F1800 X94.122 Y93.474 E5.912
G1 X94.77 Y92.962 E5.9532
G1 X95.875 Y92.261 E6.01848
G1 X96.373 Y91.993 E6.0467
G1 X96.869 Y91.807 E6.07313
G1 X98.07 Y91.447 E6.13568
G1 X98.622 Y91.324 E6.16389
G1 X99.135 Y91.28 E6.18958
G1 X100.52 Y91.251 E6.25869
G1 X101.333 Y91.317 E6.29939
G1 X101.867 Y91.416 E6.32648
G1 X102.452 Y91.571 E6.35668
G1 X103.32 Y91.873 E6.40253
G1 X103.908 Y92.132 E6.43458
G1 X104.426 Y92.412 E6.46396
G1 X104.921 Y92.729 E6.49329
G1 X105.601 Y93.238 E6.53566
G1 X106.078 Y93.658 E6.56737
G1 X106.528 Y94.123 E6.59965
G1 X106.921 Y94.597 E6.63037
G1 X107.407 Y95.285 E6.6724
G1 X107.782 Y95.938 E6.70997
G1 X108.155 Y96.759 E6.75495
G1 X108.394 Y97.445 E6.7912
G1 X108.618 Y98.342 E6.83732
G1 X108.716 Y98.899 E6.86554
G1 X108.735 Y99.191 E6.88014
G1 X108.768 Y100.293 E6.93514
G1 X108.745 Y100.858 E6.96335
G1 X108.691 Y101.205 E6.98087
G1 X108.475 Y102.274 E7.03528
G1 X108.324 Y102.819 E7.0635
G1 X108.142 Y103.249 E7.08679
G1 X107.547 Y104.457 E7.15397
G1 X107.262 Y104.946 E7.18221
G1 X107.01 Y105.276 E7.20293
G1 X106.343 Y106.063 E7.25439
G1 X105.948 Y106.468 E7.28262
G1 X105.644 Y106.713 E7.3021
G1 X104.648 Y107.437 E7.36353
G1 X103.938 Y107.849 E7.40448
G1 X103.287 Y108.142 E7.4401
G1 X102.576 Y108.384 E7.47757
G1 X101.469 Y108.649 E7.53436
G1 X100.912 Y108.742 E7.56253
G1 X100.494 Y108.759 E7.5834
G1 X99.319 Y108.746 E7.64203
G1 X98.481 Y108.648 E7.68412
G1 X97.649 Y108.46 E7.72668
G1 X96.908 Y108.214 E7.76563
G1 X95.996 Y107.809 E7.81541
G1 X95.456 Y107.518 E7.84602
G1 X95.011 Y107.232 E7.87241
G1 X94.492 Y106.835 E7.90501
G1 X93.766 Y106.179 E7.95382
G1 X93.229 Y105.586 E7.99374
G1 X92.661 Y104.816 E8.04147
G1 X92.236 Y104.09 E8.08344
G1 X91.802 Y103.131 E8.13596
G1 X91.585 Y102.527 E8.16798
G1 X91.451 Y102.032 E8.19356
G1 X91.344 Y101.489 E8.22118
G1 X91.251 Y100.754 E8.25814
G1 X91.23 Y99.958 E8.29786
G1 X91.319 Y98.75 E8.35829
G1 X91.4 Y98.191 E8.38647
G1 X91.49 Y97.852 E8.40397
G1 X91.785 Y96.907 E8.45336
G1 X92.086 Y96.193 E8.49202
G1 X92.468 Y95.488 E8.53202
G1 X92.796 Y94.98 E8.56219
G1 X93.229 Y94.408 E8.59798
G1 X93.627 Y93.956 E8.62803
G0 F3600 X93.907 Y94.243
G1 F1800 X94.402 Y93.761 E8.6625
G1 X94.985 Y93.3 E8.69958
G1 X96.09 Y92.599 E8.76487
G1 X96.563 Y92.346 E8.79163
G1 X96.984 Y92.191 E8.81401
G1 X98.185 Y91.831 E8.87656
G1 X98.709 Y91.715 E8.90334
G1 X99.144 Y91.68 E8.92511
G1 X100.529 Y91.651 E8.99422
G1 X101.26 Y91.71 E9.03081
G1 X101.794 Y91.809 E9.05791
G1 X102.321 Y91.949 E9.08511
G1 X103.189 Y92.251 E9.13096
G1 X103.718 Y92.484 E9.1598
G1 X104.236 Y92.764 E9.18918
G1 X104.681 Y93.049 E9.21554
G1 X105.361 Y93.558 E9.25792
G1 X105.791 Y93.936 E9.28648
G1 X106.241 Y94.401 E9.31876
G1 X106.594 Y94.828 E9.34641
G1 X107.08 Y95.516 E9.38843
G1 X107.418 Y96.104 E9.42227
G1 X107.791 Y96.925 E9.46726
G1 X108.006 Y97.542 E9.49985
G1 X108.23 Y98.439 E9.54598
G1 X108.335 Y99.203 E9.58445
G1 X108.368 Y100.305 E9.63946
G1 X108.344 Y100.841 E9.66622
G1 X108.299 Y101.126 E9.68062
G1 X108.083 Y102.195 E9.73503
G1 X107.938 Y102.711 E9.76177
G1 X107.784 Y103.073 E9.7814
G1 X107.189 Y104.281 E9.84858
G1 X106.916 Y104.743 E9.87535
G1 X106.705 Y105.018 E9.89264
G1 X106.038 Y105.805 E9.94411
G1 X105.662 Y106.187 E9.97085
G1 X105.409 Y106.389 E9.98701
G1 X104.413 Y107.113 E10.04844
G1 X103.774 Y107.484 E10.0853
G1 X103.123 Y107.777 E10.12092
G1 X102.483 Y107.995 E10.15465
G1 X101.376 Y108.26 E10.21144
G1 X100.847 Y108.346 E10.23818
G1 X100.498 Y108.359 E10.2556
G1 X99.323 Y108.346 E10.31422
G1 X98.57 Y108.257 E10.35205
G1 X97.738 Y108.069 E10.39461
G1 X97.07 Y107.848 E10.42971
G1 X96.158 Y107.443 E10.4795
G1 X95.673 Y107.181 E10.507
G1 X95.228 Y106.895 E10.53339
G1 X94.76 Y106.538 E10.56275
G1 X94.034 Y105.882 E10.61157
G1 X93.551 Y105.348 E10.64749
G1 X92.983 Y104.578 E10.69523
G1 X92.6 Y103.925 E10.733
G1 X92.166 Y102.966 E10.78551
G1 X91.971 Y102.423 E10.8143
G1 X91.837 Y101.928 E10.83988
G1 X91.74 Y101.439 E10.86475
G1 X91.647 Y100.704 E10.90172
G1 X91.629 Y99.987 E10.9375
G1 X91.718 Y98.779 E10.99793
G1 X91.797 Y98.249 E11.02466
G1 X91.872 Y97.971 E11.03903
G1 X92.167 Y97.026 E11.08842
G1 X92.438 Y96.384 E11.12319
G1 X92.82 Y95.679 E11.16319
G1 X93.115 Y95.221 E11.19037
G1 X93.548 Y94.649 E11.22616
G1 X93.907 Y94.243 E11.2532
G0 F3600 X94.186 Y94.529
G1 F1800 X94.681 Y94.047 E11.28767
G1 X95.199 Y93.638 E11.3206
G1 X96.304 Y92.937 E11.38588
G1 X96.751 Y92.701 E11.4111
G1 X97.099 Y92.574 E11.42958
G1 X98.3 Y92.214 E11.49213
G1 X98.794 Y92.107 E11.51735
G1 X99.152 Y92.08 E11.53526
G1 X100.537 Y92.051 E11.60438
G1 X101.187 Y92.104 E11.63691
G1 X101.721 Y92.203 E11.66401
G1 X102.19 Y92.327 E11.68821
G1 X103.058 Y92.629 E11.73406
G1 X103.528 Y92.836 E11.75968
G1 X104.046 Y93.116 E11.78906
G1 X104.442 Y93.369 E11.8125
G1 X105.122 Y93.878 E11.85488
G1 X105.504 Y94.215 E11.8803
G1 X105.954 Y94.68 E11.91258
G1 X106.268 Y95.059 E11.93713
G1 X106.754 Y95.747 E11.97916
G1 X107.053 Y96.269 E12.00917
G1 X107.426 Y97.09 E12.05416
G1 X107.618 Y97.639 E12.08318
G1 X107.842 Y98.536 E12.1293
G1 X107.936 Y99.215 E12.1635
G1 X107.969 Y100.317 E12.2185
G1 X107.907 Y101.047 E12.25505
G1 X107.691 Y102.116 E12.30946
G1 X107.552 Y102.602 E12.33468
G1 X107.425 Y102.896 E12.35066
G1 X106.83 Y104.104 E12.41784
G1 X106.571 Y104.538 E12.44306
G1 X106.4 Y104.759 E12.457
G1 X105.733 Y105.546 E12.50847
G1 X105.377 Y105.905 E12.53369
G1 X105.174 Y106.065 E12.54659
G1 X104.178 Y106.789 E12.60802
G1 X103.609 Y107.119 E12.64083
G1 X102.958 Y107.412 E12.67645
G1 X102.39 Y107.606 E12.7064
G1 X101.283 Y107.871 E12.76318
G1 X100.784 Y107.95 E12.78839
G1 X100.503 Y107.959 E12.80242
G1 X99.328 Y107.946 E12.86104
G1 X98.658 Y107.867 E12.8947
G1 X97.826 Y107.679 E12.93725
G1 X97.232 Y107.483 E12.96846
G1 X96.32 Y107.078 E13.01824
G1 X95.889 Y106.845 E13.04269
G1 X95.444 Y106.559 E13.06908
G1 X95.029 Y106.241 E13.09516
G1 X94.303 Y105.585 E13.14398
G1 X93.873 Y105.111 E13.17591
G1 X93.305 Y104.341 E13.22364
G1 X92.965 Y103.76 E13.25723
G1 X92.531 Y102.801 E13.30975
G1 X92.357 Y102.318 E13.33536
G1 X92.223 Y101.823 E13.36094
G1 X92.137 Y101.389 E13.38302
G1 X92.044 Y100.654 E13.41998
G1 X92.028 Y100.017 E13.45177
G1 X92.117 Y98.809 E13.5122
G1 X92.253 Y98.09 E13.54871
G1 X92.548 Y97.145 E13.5981
G1 X92.789 Y96.575 E13.62897
G1 X93.171 Y95.87 E13.66897
G1 X93.434 Y95.463 E13.69315
G1 X93.867 Y94.891 E13.72894
G1 X94.186 Y94.529 E13.75301
G1 F1500 E7.25301
G0 F3600 X96.008 Y96.272
G0 X96.915 Y97.18
G0 X96.975 Y97.234
G0 X96.901 Y97.167
;TYPE:WALL-INNER
G1 F1500 E13.75301
G1 F1800 X97.179 Y96.89 E13.77259
G1 X97.535 Y96.603 E13.79541
G1 X97.914 Y96.356 E13.81798
G1 X98.25 Y96.183 E13.83683
G1 X98.711 Y96.005 E13.86149
G1 X99.122 Y95.895 E13.88271
G1 X99.606 Y95.82 E13.90715
G1 X100.001 Y95.802 E13.92687
G1 X100.391 Y95.819 E13.94635
G1 X100.88 Y95.895 E13.97104
G1 X101.289 Y96.005 E13.99217
G1 X101.75 Y96.183 E14.01682
G1 X102.086 Y96.356 E14.03568
G1 X102.465 Y96.603 E14.05825
G1 X102.821 Y96.89 E14.08106
G1 X103.088 Y97.156 E14.09986
G1 X103.175 Y97.254 E14.1064
G1 X103.395 Y97.531 E14.12405
G1 X103.634 Y97.899 E14.14594
G1 X103.856 Y98.34 E14.17057
G1 X103.994 Y98.704 E14.19
G1 X104.115 Y99.168 E14.21392
G1 X104.176 Y99.569 E14.23415
G1 X104.198 Y99.995 E14.25544
G1 X104.172 Y100.472 E14.27927
G1 X104.11 Y100.86 E14.29887
G1 X103.994 Y101.295 E14.32133
G1 X103.831 Y101.719 E14.344
G1 X103.601 Y102.157 E14.36868
G1 X103.401 Y102.46 E14.38679
G1 X103.116 Y102.813 E14.40942
G1 X102.775 Y103.151 E14.43338
G1 X102.475 Y103.392 E14.45258
G1 X102.126 Y103.62 E14.47337
G1 X101.702 Y103.837 E14.49714
G1 X101.303 Y103.99 E14.51846
G1 X100.828 Y104.116 E14.54297
G1 X100.459 Y104.174 E14.56161
G1 X100 Y104.196 E14.58454
G1 X99.56 Y104.175 E14.60651
G1 X99.127 Y104.105 E14.6284
G1 X98.69 Y103.989 E14.65095
G1 X98.307 Y103.843 E14.6714
G1 X97.9 Y103.635 E14.69421
G1 X97.535 Y103.399 E14.71589
G1 X97.222 Y103.148 E14.73591
G1 X96.884 Y102.813 E14.75965
G1 X96.6 Y102.462 E14.78217
G1 X96.345 Y102.065 E14.80571
G1 X96.171 Y101.723 E14.82486
G1 X96.006 Y101.295 E14.84774
G1 X95.89 Y100.861 E14.87016
G1 X95.827 Y100.469 E14.88996
G1 X95.802 Y99.994 E14.91369
G1 X95.826 Y99.564 E14.93518
G1 X95.88 Y99.19 E14.95403
G1 X95.902 Y99.084 E14.95943
G1 X96.009 Y98.696 E14.97951
G1 X96.144 Y98.339 E14.99856
G1 X96.361 Y97.905 E15.02276
G1 X96.609 Y97.525 E15.0454
G1 X96.901 Y97.167 E15.06845
G0 F3600 X96.604 Y96.899
;TYPE:WALL-OUTER
G1 F1800 X96.912 Y96.592 E15.09015
G1 X97.3 Y96.279 E15.11502
G1 X97.71 Y96.012 E15.13943
G1 X98.09 Y95.816 E15.16076
G1 X98.584 Y95.625 E15.18718
G1 X99.041 Y95.503 E15.21078
G1 X99.573 Y95.421 E15.23764
G1 X100 Y95.401 E15.25896
G1 X100.426 Y95.42 E15.28024
G1 X100.959 Y95.503 E15.30715
G1 X101.416 Y95.625 E15.33075
G1 X101.91 Y95.816 E15.35717
G1 X102.29 Y96.012 E15.3785
G1 X102.7 Y96.279 E15.40291
G1 X103.088 Y96.592 E15.42778
G1 X103.387 Y96.89 E15.44884
G1 X103.474 Y96.988 E15.45538
G1 X103.718 Y97.295 E15.47495
G1 X103.982 Y97.7 E15.49907
G1 X104.224 Y98.181 E15.52593
G1 X104.375 Y98.58 E15.54721
G1 X104.486 Y98.989 E15.56836
G1 X104.511 Y99.108 E15.57442
G1 X104.573 Y99.519 E15.59516
G1 X104.598 Y100.002 E15.61929
G1 X104.581 Y100.402 E15.63926
G1 X104.569 Y100.525 E15.64543
G1 X104.502 Y100.942 E15.6665
G1 X104.375 Y101.416 E15.69098
G1 X104.195 Y101.885 E15.71604
G1 X104.004 Y102.26 E15.73704
G1 X103.943 Y102.365 E15.7431
G1 X103.726 Y102.694 E15.76276
G1 X103.41 Y103.085 E15.78784
G1 X103.045 Y103.447 E15.81349
G1 X102.706 Y103.719 E15.83517
G1 X102.338 Y103.959 E15.85709
G1 X102.242 Y104.014 E15.86261
G1 X101.871 Y104.2 E15.88332
G1 X101.418 Y104.374 E15.90753
G1 X100.918 Y104.507 E15.93334
G1 X100.492 Y104.573 E15.95485
G1 X100 Y104.597 E15.97942
G1 X99.521 Y104.574 E16.00335
G1 X99.043 Y104.497 E16.0275
G1 X98.67 Y104.402 E16.0467
G1 X98.547 Y104.363 E16.05314
G1 X98.149 Y104.211 E16.0744
G1 X97.699 Y103.981 E16.09961
G1 X97.297 Y103.722 E16.12347
G1 X96.956 Y103.448 E16.14529
G1 X96.59 Y103.085 E16.17101
G1 X96.274 Y102.694 E16.19609
G1 X96.001 Y102.27 E16.22125
G1 X95.805 Y101.885 E16.2428
G1 X95.625 Y101.416 E16.26787
G1 X95.498 Y100.942 E16.29235
G1 X95.431 Y100.523 E16.31352
G1 X95.42 Y100.405 E16.31943
G1 X95.402 Y100.001 E16.33961
G1 X95.428 Y99.517 E16.36379
G1 X95.486 Y99.12 E16.3838
G1 X95.513 Y98.99 E16.39043
G1 X95.626 Y98.578 E16.41174
G1 X95.776 Y98.181 E16.43292
G1 X96.018 Y97.699 E16.45982
G1 X96.282 Y97.295 E16.4839
G1 X96.604 Y96.899 E16.50936
G0 F3600 X96.745 Y96.758
G0 X97.161 Y97.161
;TYPE:SKIN
G1 F1800 X102.835 Y102.835 E16.9097
G1 X102.905 Y102.905
G0 F3600 X102.541 Y103.106
G1 F1800 X96.893 Y97.459 E17.30816
G1 X96.823 Y97.389
G0 F3600 X96.653 Y97.784
G1 F1800 X102.215 Y103.346 E17.70059
G1 X102.285 Y103.416
G0 F3600 X101.856 Y103.553
G1 F1800 X96.443 Y98.14 E18.0825
G1 X96.373 Y98.07
G0 F3600 X96.264 Y98.527
