;FLAVOR:RepRap
;TIME:2382
;Filament used: 1.21047m
;Layer height: 0.1
;Generated with Cura_SteamEngine 2.5.0
M190 S60
M104 S200
M109 S200
G21 ;metric values
G90 ;absolute positioning
M82 ;set extruder to absolute mode
M107 ;start with the fan off
G28 X0 Y0 ;move X/Y to min endstops
G28 Z0 ;move Z to min endstops
G1 Z15.0 F9000 ;move the platform down 15mm
G92 E0 ;zero the extruded length
G1 F200 E3 ;extrude 3mm of feed stock
G92 E0 ;zero the extruded length again
G1 F9000
;Put printing message on LCD screen
M117 Printing...
;LAYER_COUNT:298
;LAYER:0
M107
G0 F3600 X89.029 Y85.012 Z0.3
;TYPE:SKIRT
G1 F1800 X89.448 Y84.633 E0.02819
G1 X89.915 Y84.318 E0.05629
G1 X91.465 Y83.423 E0.14559
G1 X91.973 Y83.176 E0.17377
G1 X92.511 Y83.002 E0.20198
G1 X93.068 Y82.907 E0.23017
G1 X93.624 Y82.89 E0.25792
G1 X98.601 Y83.088 E0.50642
G1 X104.093 Y83.013 E0.78044
G1 X106.323 Y82.894 E0.89185
G1 X106.888 Y82.904 E0.92005
G1 X107.447 Y82.993 E0.94829
G1 X107.987 Y83.16 E0.97649
G1 X108.535 Y83.423 E1.00681
G1 X110.085 Y84.317 E1.09608
G1 X110.553 Y84.633 E1.12426
G1 X110.972 Y85.013 E1.15248
G1 X111.334 Y85.447 E1.18067
G1 X111.622 Y85.913 E1.208
G1 X114.176 Y90.744 E1.48063
G1 X116.999 Y95.429 E1.75352
G1 X117.969 Y96.912 E1.84193
G1 X118.244 Y97.406 E1.87013
G1 X118.447 Y97.934 E1.89836
G1 X118.573 Y98.485 E1.92656
G1 X118.621 Y99.095 E1.95708
G1 X118.624 Y100.888 E2.04654
G1 X118.585 Y101.452 E2.07474
G1 X118.467 Y102.005 E2.10295
G1 X118.272 Y102.536 E2.13117
G1 X118.032 Y102.99 E2.15679
G1 X114.169 Y109.274 E2.5248
G1 X111.524 Y114.17 E2.80243
G1 X111.221 Y114.647 E2.83063
G1 X110.854 Y115.077 E2.85883
G1 X110.429 Y115.451 E2.88707
G1 X109.997 Y115.737 E2.91292
G1 X108.526 Y116.582 E2.99756
G1 X108.018 Y116.829 E3.02574
G1 X107.479 Y117.001 E3.05396
G1 X106.922 Y117.095 E3.08215
G1 X106.389 Y117.111 E3.10875
G1 X100.714 Y116.905 E3.39206
G1 X93.579 Y117.111 E3.74818
G1 X93.014 Y117.088 E3.77639
G1 X92.458 Y116.985 E3.8046
G1 X91.922 Y116.804 E3.83282
G1 X91.459 Y116.575 E3.85859
G1 X89.906 Y115.676 E3.94812
G1 X89.438 Y115.359 E3.97632
G1 X89.019 Y114.979 E4.00454
G1 X88.658 Y114.544 E4.03274
G1 X88.365 Y114.067 E4.06067
G1 X86.27 Y110.059 E4.2863
G1 X83.485 Y105.335 E4.55989
G1 X82.019 Y103.071 E4.69445
G1 X81.747 Y102.576 E4.72263
G1 X81.546 Y102.048 E4.75082
G1 X81.422 Y101.496 E4.77904
G1 X81.377 Y100.899 E4.80891
G1 X81.376 Y99.107 E4.89832
G1 X81.416 Y98.543 E4.92652
G1 X81.534 Y97.991 E4.95469
G1 X81.73 Y97.46 E4.98293
G1 X82.019 Y96.93 E5.01304
G1 X83.471 Y94.689 E5.14626
G1 X86.259 Y89.966 E5.41989
G1 X88.371 Y85.928 E5.64723
G1 X88.667 Y85.447 E5.67541
G1 X89.029 Y85.012 E5.70365
G0 F3600 X89.356 Y85.25
G1 F1800 X89.761 Y84.898 E5.73042
G1 X90.115 Y84.664 E5.75159
G1 X91.665 Y83.769 E5.84088
G1 X92.148 Y83.537 E5.86761
G1 X92.66 Y83.378 E5.89436
G1 X93.19 Y83.297 E5.92111
G1 X93.608 Y83.29 E5.94197
G1 X98.591 Y83.488 E6.19077
G1 X104.094 Y83.413 E6.46534
G1 X106.344 Y83.293 E6.57775
G1 X106.881 Y83.305 E6.60455
G1 X107.409 Y83.395 E6.63127
G1 X107.918 Y83.564 E6.65803
G1 X108.335 Y83.77 E6.68123
G1 X109.885 Y84.664 E6.7705
G1 X110.328 Y84.965 E6.79722
G1 X110.722 Y85.33 E6.82402
G1 X111.057 Y85.748 E6.85074
G1 X111.269 Y86.1 E6.87124
G1 X113.838 Y90.959 E7.14546
G1 X116.654 Y95.633 E7.41769
G1 X117.634 Y97.131 E7.507
G1 X117.893 Y97.601 E7.53378
G1 X118.08 Y98.104 E7.56055
G1 X118.19 Y98.628 E7.58726
G1 X118.221 Y99.096 E7.61066
G1 X118.224 Y100.889 E7.70011
G1 X118.185 Y101.424 E7.72688
G1 X118.067 Y101.947 E7.75362
G1 X117.872 Y102.447 E7.7804
G1 X117.691 Y102.78 E7.79931
G1 X113.826 Y109.066 E8.16746
G1 X111.172 Y113.98 E8.44609
G1 X110.883 Y114.432 E8.47285
G1 X110.53 Y114.835 E8.49958
G1 X110.121 Y115.182 E8.52634
G1 X109.798 Y115.391 E8.54554
G1 X108.327 Y116.236 E8.63017
G1 X107.844 Y116.467 E8.65688
G1 X107.331 Y116.625 E8.68366
G1 X106.8 Y116.704 E8.71044
G1 X106.403 Y116.712 E8.73026
G1 X100.701 Y116.505 E9.01492
G1 X93.567 Y116.711 E9.37098
G1 X93.031 Y116.687 E9.39775
G1 X92.505 Y116.583 E9.4245
G1 X92 Y116.402 E9.45126
G1 X91.659 Y116.229 E9.47034
G1 X90.106 Y115.33 E9.55987
G1 X89.664 Y115.027 E9.5866
G1 X89.271 Y114.662 E9.61336
G1 X88.936 Y114.243 E9.64012
G1 X88.719 Y113.882 E9.66114
G1 X86.607 Y109.841 E9.88862
G1 X83.836 Y105.141 E10.16082
G1 X82.355 Y102.854 E10.29675
G1 X82.098 Y102.383 E10.32352
G1 X81.914 Y101.88 E10.35024
G1 X81.806 Y101.354 E10.37703
G1 X81.777 Y100.899 E10.39978
G1 X81.776 Y99.107 E10.48918
G1 X81.816 Y98.572 E10.51595
G1 X81.934 Y98.049 E10.5427
G1 X82.129 Y97.55 E10.56943
G1 X82.355 Y97.148 E10.59243
G1 X83.809 Y94.904 E10.72583
G1 X86.6 Y90.175 E10.99979
G1 X88.725 Y86.113 E11.2285
G1 X89.008 Y85.658 E11.25523
G1 X89.356 Y85.25 E11.28199
G0 F3600 X90.315 Y85.011
G1 F1800 X91.865 Y84.116 E11.37128
G1 X92.321 Y83.898 E11.3965
G1 X92.806 Y83.756 E11.42171
G1 X93.308 Y83.691 E11.44697
G1 X93.592 Y83.69 E11.46113
G1 X98.58 Y83.888 E11.71018
G1 X104.122 Y83.813 E11.9867
G1 X106.366 Y83.693 E12.09881
G1 X106.871 Y83.706 E12.12402
G1 X107.368 Y83.798 E12.14923
G1 X107.844 Y83.968 E12.17445
G1 X108.135 Y84.116 E12.19074
G1 X109.685 Y85.01 E12.28001
G1 X110.101 Y85.296 E12.30519
G1 X110.468 Y85.645 E12.33046
G1 X110.775 Y86.047 E12.3557
G1 X110.915 Y86.286 E12.36952
G1 X113.484 Y91.146 E12.64377
G1 X116.33 Y95.868 E12.91883
G1 X117.299 Y97.35 E13.00717
G1 X117.541 Y97.794 E13.0324
G1 X117.711 Y98.27 E13.05762
G1 X117.803 Y98.767 E13.08283
G1 X117.821 Y99.097 E13.09932
G1 X117.824 Y100.89 E13.18878
G1 X117.785 Y101.394 E13.214
G1 X117.667 Y101.885 E13.23919
G1 X117.35 Y102.571 E13.27689
G1 X113.479 Y108.867 E13.64562
G1 X110.82 Y113.79 E13.92477
G1 X110.546 Y114.214 E13.94995
G1 X110.208 Y114.59 E13.97518
G1 X109.815 Y114.908 E14.0004
G1 X109.599 Y115.044 E14.01313
G1 X108.128 Y115.889 E14.09777
G1 X107.671 Y116.105 E14.12299
G1 X107.186 Y116.247 E14.1482
G1 X106.684 Y116.31 E14.17344
G1 X106.418 Y116.312 E14.18671
G1 X100.719 Y116.105 E14.47122
G1 X93.555 Y116.312 E14.82879
G1 X93.051 Y116.286 E14.85396
G1 X92.556 Y116.182 E14.8792
G1 X92.084 Y116.001 E14.90442
G1 X91.86 Y115.882 E14.91707
G1 X90.307 Y114.983 E15.0066
G1 X89.891 Y114.696 E15.03181
G1 X89.525 Y114.347 E15.05704
G1 X89.219 Y113.945 E15.08225
G1 X89.074 Y113.696 E15.09662
G1 X86.969 Y109.669 E15.32332
G1 X84.163 Y104.909 E15.59899
G1 X82.691 Y102.636 E15.7341
G1 X82.451 Y102.192 E15.75928
G1 X82.283 Y101.715 E15.78451
G1 X82.193 Y101.217 E15.80975
G1 X82.177 Y100.899 E15.82564
G1 X82.176 Y99.107 E15.91504
G1 X82.216 Y98.603 E15.94027
G1 X82.334 Y98.111 E15.96551
G1 X82.529 Y97.645 E15.99071
G1 X82.69 Y97.365 E16.00682
G1 X84.152 Y95.108 E16.14099
G1 X86.954 Y90.362 E16.41595
G1 X89.079 Y86.299 E16.64471
G1 X89.348 Y85.871 E16.66993
G1 X89.682 Y85.49 E16.6952
G1 X90.07 Y85.167 E16.72039
G1 X90.315 Y85.011 E16.73488
G1 F1500 E10.23488
G0 F3600 X91.758 Y87.082
G0 X92.453 Y88.159
G0 X93.022 Y87.908
G0 X92.973 Y87.822
;TYPE:WALL-INNER
G1 F1500 E16.73488
G1 F1800 X93.519 Y87.524 E16.76592
G1 X94.907 Y87.961 E16.83851
G1 X95.704 Y89.344 E16.91815
G1 X99.165 Y90.978 E17.1091
G1 X99.477 Y90.955 E17.1247
G1 X99.905 Y90.939 E17.14607
G1 X100.31 Y90.944 E17.16628
G1 X100.837 Y90.975 E17.19262
G1 X104.297 Y89.345 E17.38343
G1 X105.095 Y87.961 E17.46314
G1 X106.478 Y87.525 E17.53548
G1 X106.829 Y87.711 E17.5553
G1 X107.269 Y87.966 E17.58067
G1 X107.564 Y88.152 E17.59807
G1 X107.878 Y89.569 E17.67048
G1 X107.08 Y90.952 E17.75014
G1 X107.396 Y94.759 E17.94073
G1 X107.758 Y95.319 E17.97399
G1 X107.97 Y95.689 E17.99527
G1 X108.238 Y96.215 E18.02472
G1 X111.375 Y98.394 E18.21528
G1 X112.974 Y98.392 E18.29505
G1 X114.045 Y99.376 E18.36761
G1 X114.06 Y99.991 E18.3983
G1 X114.046 Y100.625 E18.42994
G1 X112.975 Y101.609 E18.5025
G1 X111.377 Y101.607 E18.58223
G1 X108.236 Y103.784 E18.77289
G1 X107.97 Y104.311 E18.80234
G1 X107.753 Y104.69 E18.82413
G1 X107.397 Y105.243 E18.85694
G1 X107.078 Y109.049 E19.04749
G1 X107.878 Y110.43 E19.12711
G1 X107.563 Y111.849 E19.19963
G1 X107.235 Y112.055 E19.21896
G1 X106.778 Y112.317 E19.24524
G1 X106.477 Y112.477 E19.26224
G1 X105.094 Y112.04 E19.3346
G1 X104.296 Y110.656 E19.41431
G1 X100.838 Y109.024 E19.60508
G1 X100.309 Y109.055 E19.63151
G1 X99.902 Y109.061 E19.65182
G1 X99.478 Y109.046 E19.67299
G1 X99.166 Y109.023 E19.6886
G1 X95.703 Y110.655 E19.87959
G1 X94.905 Y112.039 E19.95929
G1 X93.519 Y112.476 E20.0318
G1 X92.973 Y112.178 E20.06283
G1 X92.437 Y111.852 E20.09413
G1 X92.121 Y110.431 E20.16675
G1 X92.92 Y109.048 E20.24644
G1 X92.604 Y105.238 E20.43717
G1 X92.347 Y104.85 E20.46039
G1 X92.138 Y104.504 E20.48056
G1 X91.935 Y104.13 E20.50179
G1 X91.765 Y103.787 E20.52089
G1 X88.625 Y101.606 E20.71163
G1 X87.026 Y101.608 E20.7914
G1 X85.958 Y100.627 E20.86375
G1 X85.942 Y100.222 E20.88397
G1 X85.943 Y99.722 E20.90892
G1 X85.957 Y99.373 E20.92634
G1 X87.025 Y98.391 E20.99872
G1 X88.623 Y98.393 E21.07845
G1 X91.766 Y96.214 E21.26925
G1 X91.936 Y95.87 E21.2884
G1 X92.134 Y95.502 E21.30924
G1 X92.35 Y95.143 E21.33015
G1 X92.603 Y94.761 E21.35301
G1 X92.922 Y90.951 E21.54375
G1 X92.122 Y89.57 E21.62338
G1 X92.437 Y88.148 E21.69604
G1 X92.973 Y87.822 E21.72734
G0 F3600 X92.767 Y87.479
;TYPE:WALL-OUTER
G1 F1800 X93.236 Y87.22 E21.75407
G1 X93.481 Y87.092 E21.76786
G1 X95.176 Y87.626 E21.85652
G1 X95.988 Y89.036 E21.9377
G1 X99.241 Y90.571 E22.11715
G1 X99.462 Y90.555 E22.1282
G1 X99.895 Y90.539 E22.14982
G1 X100.316 Y90.544 E22.17083
G1 X100.759 Y90.57 E22.19297
G1 X104.013 Y89.037 E22.37242
G1 X104.825 Y87.627 E22.4536
G1 X106.518 Y87.093 E22.54217
G1 X107.03 Y87.365 E22.57109
G1 X107.482 Y87.627 E22.59715
G1 X107.919 Y87.902 E22.62291
G1 X108.303 Y89.633 E22.71137
G1 X107.489 Y91.044 E22.79264
G1 X107.786 Y94.626 E22.97196
G1 X108.1 Y95.111 E23.00079
G1 X108.317 Y95.49 E23.02258
G1 X108.549 Y95.944 E23.04801
G1 X111.5 Y97.994 E23.22728
G1 X113.13 Y97.992 E23.3086
G1 X114.437 Y99.192 E23.39712
G1 X114.45 Y99.465 E23.41075
G1 X114.46 Y99.997 E23.4373
G1 X114.452 Y100.526 E23.4637
G1 X114.438 Y100.809 E23.47783
G1 X113.131 Y102.009 E23.56635
G1 X111.502 Y102.007 E23.64763
G1 X108.547 Y104.055 E23.827
G1 X108.317 Y104.51 E23.85243
G1 X108.1 Y104.889 E23.87422
G1 X107.787 Y105.376 E23.9031
G1 X107.487 Y108.957 E24.08238
G1 X108.302 Y110.365 E24.16355
G1 X107.918 Y112.099 E24.25216
G1 X107.434 Y112.402 E24.28064
G1 X106.973 Y112.666 E24.30715
G1 X106.517 Y112.908 E24.3329
G1 X104.824 Y112.374 E24.42147
G1 X104.012 Y110.964 E24.50264
G1 X100.76 Y109.429 E24.68205
G1 X100.315 Y109.455 E24.70429
G1 X99.894 Y109.461 E24.7253
G1 X99.461 Y109.446 E24.74691
G1 X99.242 Y109.43 E24.75787
G1 X95.987 Y110.963 E24.93737
G1 X95.175 Y112.373 E25.01855
G1 X93.481 Y112.907 E25.10716
G1 X93.234 Y112.779 E25.12104
G1 X92.767 Y112.521 E25.14766
G1 X92.314 Y112.249 E25.17402
G1 X92.081 Y112.099 E25.18784
G1 X91.697 Y110.367 E25.27635
G1 X92.511 Y108.956 E25.35762
G1 X92.214 Y105.373 E25.53699
G1 X92.008 Y105.062 E25.5556
G1 X91.786 Y104.695 E25.577
G1 X91.583 Y104.321 E25.59823
G1 X91.452 Y104.057 E25.61293
G1 X88.5 Y102.006 E25.79227
G1 X86.87 Y102.008 E25.87359
G1 X85.564 Y100.809 E25.96204
G1 X85.542 Y100.237 E25.9906
G1 X85.543 Y99.707 E26.01704
G1 X85.563 Y99.19 E26.04285
G1 X86.869 Y97.991 E26.1313
G1 X88.498 Y97.993 E26.21258
G1 X91.453 Y95.944 E26.39197
G1 X91.584 Y95.68 E26.40668
G1 X91.791 Y95.296 E26.42844
G1 X92.007 Y94.937 E26.44934
G1 X92.213 Y94.626 E26.46796
G1 X92.513 Y91.043 E26.64734
G1 X91.698 Y89.635 E26.7285
G1 X92.082 Y87.9 E26.81716
G1 X92.311 Y87.753 E26.83073
G1 X92.767 Y87.479 E26.85727
G0 F3600 X92.942 Y87.383
G0 X93.067 Y87.976
;TYPE:SKIN
G1 F1800 X108.482 Y103.391 E27.94489
G1 X108.552 Y103.461
G0 F3600 X108.148 Y103.622
G1 F1800 X92.715 Y88.189 E29.03377
G1 X92.645 Y88.119
G0 F3600 X92.526 Y88.566
G1 F1800 X107.937 Y103.977 E30.1211
G1 X108.007 Y104.047
G0 F3600 X107.741 Y104.347
G1 F1800 X92.424 Y89.03 E31.20179
G1 X92.354 Y88.96
G0 F3600 X92.321 Y89.493
G1 F1800 X107.53 Y104.702 E32.27487
G1 X107.6 Y104.772
G0 F3600 X107.309 Y105.047
G1 F1800 X93.015 Y90.752 E33.28342
G1 X92.945 Y90.682
G0 F3600 X93.067 Y91.37
G1 F1800 X107.195 Y105.498 E34.28023
G1 X107.265 Y105.568
G0 F3600 X107.151 Y106.02
G1 F1800 X93.023 Y91.892 E35.27704
G1 X92.953 Y91.822
G0 F3600 X92.979 Y92.413
G1 F1800 X107.108 Y106.542 E36.27392
G1 X107.178 Y106.612
G0 F3600 X107.064 Y107.064
G1 F1800 X92.935 Y92.935 E37.27079
G1 X92.865 Y92.865
G0 F3600 X92.891 Y93.457
G1 F1800 X107.02 Y107.586 E38.26767
G1 X107.09 Y107.656
G0 F3600 X106.976 Y108.108
G1 F1800 X92.848 Y93.979 E39.26451
G1 X92.778 Y93.909
G0 F3600 X92.804 Y94.501
G1 F1800 X106.932 Y108.629 E40.26132
G1 X107.002 Y108.699
G0 F3600 X106.985 Y109.248
G1 F1800 X92.69 Y94.953 E41.26991
G1 X92.62 Y94.883
G0 F3600 X92.467 Y95.296
G1 F1800 X107.677 Y110.505 E42.34302
G1 X107.747 Y110.575
G0 F3600 X107.574 Y110.969
G1 F1800 X92.256 Y95.651 E43.42379
G1 X92.186 Y95.581
G0 F3600 X92.061 Y96.02
G1 F1800 X107.471 Y111.431 E44.51108
G1 X107.541 Y111.501
G0 F3600 X107.285 Y111.81
G1 F1800 X91.849 Y96.375 E45.60014
G1 X91.779 Y96.305
G0 F3600 X91.515 Y96.607
G1 F1800 X106.93 Y112.021 E46.68772
G1 X107 Y112.091
G0 F3600 X106.566 Y112.223
G1 F1800 X91.181 Y96.838 E47.77321
G1 X91.111 Y96.768
G0 F3600 X90.847 Y97.07
G1 F1800 X104.179 Y110.401 E48.71382
G1 X104.249 Y110.471
G0 F3600 X104.598 Y110.821
G1 F1800 X105.874 Y112.096 E48.80381
G1 X105.944 Y112.166
G0 F3600 X104.323 Y110.627
G0 X103.107 Y109.895
G1 F1800 X90.513 Y97.301 E49.69239
G1 X90.443 Y97.231
G0 F3600 X90.179 Y97.533
G1 F1800 X102.035 Y109.389 E50.52889
G1 X102.105 Y109.459
G0 F3600 X100.963 Y108.883
G1 F1800 X89.844 Y97.764 E51.3134
G1 X89.774 Y97.694
G0 F3600 X89.511 Y97.996
G1 F1800 X100.383 Y108.868 E52.08048
G1 X100.453 Y108.938
G0 F3600 X99.826 Y108.877
G1 F1800 X89.176 Y98.227 E52.83189
G1 X89.106 Y98.157
G0 F3600 X88.843 Y98.459
G1 F1800 X99.229 Y108.846 E53.56472
G1 X99.299 Y108.916
G0 F3600 X98.808 Y108.991
G1 F1800 X88.389 Y98.572 E54.29983
G1 X88.319 Y98.502
G0 F3600 X87.823 Y98.571
G1 F1800 X98.424 Y109.172 E55.04779
G1 X98.494 Y109.242
G0 F3600 X98.04 Y109.354
G1 F1800 X87.256 Y98.57 E55.80866
G1 X87.186 Y98.5
G0 F3600 X86.884 Y98.763
G1 F1800 X91.509 Y103.388 E56.13498
G1 X91.579 Y103.458
G0 F3600 X92.021 Y103.9
G1 F1800 X97.655 Y109.535 E56.53252
G1 X97.725 Y109.605
G0 F3600 X97.271 Y109.716
G1 F1800 X92.783 Y105.228 E56.84918
G1 X92.713 Y105.158
G0 F3600 X92.834 Y105.845
G1 F1800 X96.887 Y109.897 E57.1351
G1 X96.957 Y109.967
G0 F3600 X96.502 Y110.078
G1 F1800 X92.885 Y106.461 E57.3903
G1 X92.815 Y106.391
G0 F3600 X92.937 Y107.079
G1 F1800 X96.117 Y110.259 E57.61467
G1 X96.187 Y110.329
G0 F3600 X95.733 Y110.441
G1 F1800 X92.988 Y107.695 E57.80838
G1 X92.918 Y107.625
G0 F3600 X93.038 Y108.312
G1 F1800 X95.454 Y110.727 E57.9788
G1 X95.524 Y110.797
G0 F3600 X95.247 Y111.086
G1 F1800 X93.09 Y108.929 E58.13099
G1 X93.02 Y108.859
G0 F3600 X92.949 Y109.354
G1 F1800 X95.04 Y111.444 E58.27849
G1 X95.11 Y111.514
G0 F3600 X94.832 Y111.803
G1 F1800 X92.742 Y109.713 E58.42595
G1 X92.672 Y109.643
G0 F3600 X92.535 Y110.071
G1 F1800 X94.454 Y111.99 E58.56134
G1 X94.524 Y112.06
G0 F3600 X94.024 Y112.126
G1 F1800 X92.329 Y110.43 E58.68097
G1 X92.259 Y110.36
G0 F3600 X92.459 Y111.126
G1 F1800 X93.594 Y112.262 E58.76109
G1 X93.664 Y112.332
G0 F3600 X93.663 Y112.326
G0 X92.641 Y105.225
G0 X91.795 Y103.761
G0 X89.656 Y102.101
G1 F1800 X86.589 Y99.034 E58.97748
G1 X86.519 Y98.964
G0 F3600 X86.295 Y99.306
G1 F1800 X88.414 Y101.425 E59.12699
G1 X88.484 Y101.495
G0 F3600 X87.849 Y101.425
G1 F1800 X86.123 Y99.699 E59.24876
G1 X86.053 Y99.629
G0 F3600 X86.123 Y100.265
G1 F1800 X87.283 Y101.425 E59.33061
G1 X87.353 Y101.495
G0 F3600 X91.796 Y96.24
G0 X95.819 Y89.596
G1 F1800 X109.151 Y102.928 E60.27125
G1 X109.221 Y102.998
G0 F3600 X109.484 Y102.696
G1 F1800 X96.892 Y90.103 E61.15972
G1 X96.822 Y90.033
G0 F3600 X97.963 Y90.61
G1 F1800 X109.819 Y102.465 E61.99619
G1 X109.889 Y102.535
G0 F3600 X110.153 Y102.233
G1 F1800 X99.036 Y91.117 E62.78052
G1 X98.966 Y91.047
G0 F3600 X99.615 Y91.13
G1 F1800 X110.487 Y102.002 E63.5476
G1 X110.557 Y102.072
G0 F3600 X110.822 Y101.771
G1 F1800 X100.173 Y91.122 E64.29894
