;FLAVOR:RepRap
;TIME:3465
;Filament used: 2.06978m
;Layer height: 0.1
;Generated with Cura_SteamEngine 2.5.0
M190 S60
M104 S200
M109 S200
G21 ;metric values
G90 ;absolute positioning
M82 ;set extruder to absolute mode
M107 ;start with the fan off
G28 X0 Y0 ;move X/Y to min endstops
G28 Z0 ;move Z to min endstops
G1 Z15.0 F9000 ;move the platform down 15mm
G92 E0 ;zero the extruded length
G1 F200 E3 ;extrude 3mm of feed stock
G92 E0 ;zero the extruded length again
G1 F9000
;Put printing message on LCD screen
M117 Printing...
;LAYER_COUNT:68
;LAYER:0
M107
G0 F3600 X58.808 Y82.87 Z0.3
;TYPE:SKIRT
G1 F1800 X59.955 Y82.125 E0.06824
G1 X60.654 Y81.72 E0.10854
G1 X61.875 Y81.096 E0.17695
G1 X62.633 Y80.759 E0.21834
G1 X63.914 Y80.268 E0.28678
G1 X64.683 Y80.018 E0.32712
G1 X66.005 Y79.663 E0.39541
G1 X66.811 Y79.491 E0.43653
G1 X68.166 Y79.277 E0.50497
G1 X68.978 Y79.192 E0.5457
G1 X70.345 Y79.121 E0.61399
G1 X70.75 Y79.111 E0.6342
G1 X129.25 Y79.111 E3.55278
G1 X129.649 Y79.121 E3.57269
G1 X131.017 Y79.191 E3.64103
G1 X131.835 Y79.276 E3.68206
G1 X133.19 Y79.49 E3.7505
G1 X133.996 Y79.662 E3.79162
G1 X135.318 Y80.017 E3.85991
G1 X136.094 Y80.269 E3.90061
G1 X137.374 Y80.761 E3.96903
G1 X138.125 Y81.097 E4.01008
G1 X139.344 Y81.72 E4.07837
G1 X140.042 Y82.123 E4.11858
G1 X141.191 Y82.869 E4.18693
G1 X141.85 Y83.348 E4.22758
G1 X142.915 Y84.21 E4.29593
G1 X143.523 Y84.758 E4.33677
G1 X144.492 Y85.727 E4.40514
G1 X145.04 Y86.335 E4.44597
G1 X145.902 Y87.4 E4.51433
G1 X146.38 Y88.058 E4.5549
G1 X147.125 Y89.205 E4.62314
G1 X147.53 Y89.904 E4.66344
G1 X148.154 Y91.125 E4.73185
G1 X148.491 Y91.883 E4.77324
G1 X148.982 Y93.164 E4.84168
G1 X149.232 Y93.933 E4.88202
G1 X149.587 Y95.255 E4.95032
G1 X149.758 Y96.059 E4.99132
G1 X149.972 Y97.412 E5.05967
G1 X150.057 Y98.221 E5.10025
G1 X150.129 Y99.589 E5.16859
G1 X150.13 Y100.403 E5.2092
G1 X150.059 Y101.772 E5.27759
G1 X149.974 Y102.585 E5.31838
G1 X149.76 Y103.94 E5.38682
G1 X149.588 Y104.746 E5.42793
G1 X149.233 Y106.068 E5.49622
G1 X148.966 Y106.881 E5.53892
G1 X148.445 Y108.216 E5.61041
G1 X148.127 Y108.925 E5.64918
G1 X147.533 Y110.089 E5.71438
G1 X147.127 Y110.792 E5.75488
G1 X146.381 Y111.941 E5.82322
G1 X145.902 Y112.6 E5.86387
G1 X145.04 Y113.665 E5.93223
G1 X144.498 Y114.268 E5.97268
G1 X143.53 Y115.238 E6.04104
G1 X142.91 Y115.796 E6.08266
G1 X141.844 Y116.657 E6.15102
G1 X141.192 Y117.13 E6.19121
G1 X140.045 Y117.875 E6.25944
G1 X139.346 Y118.28 E6.29975
G1 X138.125 Y118.904 E6.36816
G1 X137.367 Y119.241 E6.40954
G1 X136.086 Y119.732 E6.47799
G1 X135.317 Y119.982 E6.51833
G1 X133.995 Y120.337 E6.58662
G1 X133.189 Y120.509 E6.62774
G1 X131.834 Y120.723 E6.69618
G1 X131.022 Y120.808 E6.73691
G1 X129.655 Y120.879 E6.8052
G1 X129.25 Y120.889 E6.82541
G1 X70.75 Y120.889 E9.74399
G1 X70.351 Y120.879 E9.7639
G1 X68.983 Y120.809 E9.83224
G1 X68.165 Y120.724 E9.87327
G1 X66.81 Y120.51 E9.94171
G1 X66.004 Y120.338 E9.98283
G1 X64.682 Y119.983 E10.05112
G1 X63.906 Y119.731 E10.09182
G1 X62.626 Y119.239 E10.16024
G1 X61.875 Y118.904 E10.20126
G1 X60.654 Y118.28 E10.26967
G1 X59.955 Y117.875 E10.30998
G1 X58.808 Y117.13 E10.37821
G1 X58.15 Y116.652 E10.41879
G1 X57.085 Y115.79 E10.48714
G1 X56.477 Y115.242 E10.52798
G1 X55.508 Y114.273 E10.59635
G1 X54.96 Y113.665 E10.63718
G1 X54.098 Y112.6 E10.70554
G1 X53.619 Y111.941 E10.74619
G1 X52.873 Y110.792 E10.81453
G1 X52.469 Y110.094 E10.85477
G1 X51.845 Y108.873 E10.92318
G1 X51.507 Y108.113 E10.96468
G1 X51.017 Y106.834 E11.03301
G1 X50.768 Y106.067 E11.07324
G1 X50.413 Y104.745 E11.14153
G1 X50.241 Y103.939 E11.18265
G1 X50.027 Y102.584 E11.25109
G1 X49.943 Y101.778 E11.29152
G1 X49.871 Y100.412 E11.35976
G1 X49.87 Y99.597 E11.40042
G1 X49.941 Y98.228 E11.46881
G1 X50.026 Y97.415 E11.50959
G1 X50.24 Y96.06 E11.57803
G1 X50.412 Y95.254 E11.61915
G1 X50.767 Y93.932 E11.68744
G1 X51.019 Y93.158 E11.72805
G1 X51.51 Y91.88 E11.79636
G1 X51.845 Y91.127 E11.83747
G1 X52.469 Y89.906 E11.90588
G1 X52.873 Y89.208 E11.94612
G1 X53.619 Y88.059 E12.01446
G1 X54.098 Y87.4 E12.05511
G1 X54.96 Y86.335 E12.12347
G1 X55.502 Y85.732 E12.16392
G1 X56.47 Y84.762 E12.23228
G1 X57.09 Y84.204 E12.2739
G1 X58.156 Y83.343 E12.34226
G1 X58.808 Y82.87 E12.38245
G0 F3600 X59.026 Y83.205
G1 F1800 X60.173 Y82.46 E12.45068
G1 X60.836 Y82.077 E12.48888
G1 X62.057 Y81.453 E12.55729
G1 X62.777 Y81.132 E12.59662
G1 X64.058 Y80.641 E12.66507
G1 X64.787 Y80.404 E12.70331
G1 X66.109 Y80.049 E12.7716
G1 X66.874 Y79.887 E12.81061
G1 X68.229 Y79.673 E12.87905
G1 X68.999 Y79.592 E12.91768
G1 X70.366 Y79.521 E12.98597
G1 X70.75 Y79.511 E13.00514
G1 X129.25 Y79.511 E15.92371
G1 X129.628 Y79.521 E15.94258
G1 X130.996 Y79.591 E16.01092
G1 X131.772 Y79.672 E16.04984
G1 X133.127 Y79.886 E16.11828
G1 X133.892 Y80.048 E16.15729
G1 X135.214 Y80.403 E16.22559
G1 X135.95 Y80.643 E16.26421
G1 X137.23 Y81.135 E16.33262
G1 X137.943 Y81.453 E16.37157
G1 X139.162 Y82.076 E16.43987
G1 X139.824 Y82.458 E16.478
G1 X140.973 Y83.204 E16.54635
G1 X141.599 Y83.659 E16.58496
G1 X142.664 Y84.521 E16.65331
G1 X143.241 Y85.04 E16.69203
G1 X144.21 Y86.009 E16.7604
G1 X144.729 Y86.586 E16.79912
G1 X145.591 Y87.651 E16.86748
G1 X146.045 Y88.276 E16.90601
G1 X146.79 Y89.423 E16.97425
G1 X147.173 Y90.086 E17.01245
G1 X147.797 Y91.307 E17.08086
G1 X148.118 Y92.027 E17.12019
G1 X148.609 Y93.308 E17.18863
G1 X148.846 Y94.037 E17.22688
G1 X149.201 Y95.359 E17.29517
G1 X149.363 Y96.122 E17.33408
G1 X149.577 Y97.475 E17.40242
G1 X149.658 Y98.242 E17.4409
G1 X149.73 Y99.61 E17.50925
G1 X149.73 Y100.382 E17.54776
G1 X149.659 Y101.751 E17.61615
G1 X149.578 Y102.522 E17.65483
G1 X149.364 Y103.877 E17.72327
G1 X149.202 Y104.642 E17.76228
G1 X148.847 Y105.964 E17.83057
G1 X148.594 Y106.735 E17.87106
G1 X148.073 Y108.07 E17.94255
G1 X147.77 Y108.744 E17.97942
G1 X147.176 Y109.908 E18.04462
G1 X146.792 Y110.574 E18.08297
G1 X146.046 Y111.723 E18.15132
G1 X145.591 Y112.349 E18.18993
G1 X144.729 Y113.414 E18.25828
G1 X144.215 Y113.985 E18.29661
G1 X143.247 Y114.955 E18.36498
G1 X142.659 Y115.485 E18.40447
G1 X141.593 Y116.346 E18.47284
G1 X140.974 Y116.795 E18.51099
G1 X139.827 Y117.54 E18.57922
G1 X139.164 Y117.923 E18.61742
G1 X137.943 Y118.547 E18.68583
G1 X137.223 Y118.868 E18.72516
G1 X135.942 Y119.359 E18.7936
G1 X135.213 Y119.596 E18.83185
G1 X133.891 Y119.951 E18.90014
G1 X133.126 Y120.113 E18.93915
G1 X131.771 Y120.327 E19.00759
G1 X131.001 Y120.408 E19.04622
G1 X129.634 Y120.479 E19.11451
G1 X129.25 Y120.489 E19.13367
G1 X70.75 Y120.489 E22.05225
G1 X70.372 Y120.479 E22.07112
G1 X69.004 Y120.409 E22.13946
G1 X68.228 Y120.328 E22.17838
G1 X66.873 Y120.114 E22.24682
G1 X66.108 Y119.952 E22.28583
G1 X64.786 Y119.597 E22.35412
G1 X64.05 Y119.357 E22.39275
G1 X62.77 Y118.865 E22.46116
G1 X62.057 Y118.547 E22.50011
G1 X60.836 Y117.923 E22.56852
G1 X60.173 Y117.54 E22.60672
G1 X59.026 Y116.795 E22.67495
G1 X58.401 Y116.341 E22.71349
G1 X57.336 Y115.479 E22.78185
G1 X56.759 Y114.96 E22.82057
G1 X55.79 Y113.991 E22.88894
G1 X55.271 Y113.414 E22.92766
G1 X54.409 Y112.349 E22.99601
G1 X53.954 Y111.723 E23.03462
G1 X53.208 Y110.574 E23.10297
G1 X52.826 Y109.912 E23.1411
G1 X52.202 Y108.691 E23.20951
G1 X51.881 Y107.97 E23.24888
G1 X51.391 Y106.691 E23.31722
G1 X51.154 Y105.963 E23.35541
G1 X50.799 Y104.641 E23.4237
G1 X50.637 Y103.876 E23.46272
G1 X50.423 Y102.521 E23.53116
G1 X50.342 Y101.757 E23.56949
G1 X50.27 Y100.391 E23.63773
G1 X50.27 Y99.618 E23.67629
G1 X50.341 Y98.249 E23.74469
G1 X50.422 Y97.478 E23.78336
G1 X50.636 Y96.123 E23.8518
G1 X50.798 Y95.358 E23.89081
G1 X51.153 Y94.036 E23.95911
G1 X51.392 Y93.301 E23.99767
G1 X51.883 Y92.023 E24.06597
G1 X52.202 Y91.309 E24.10498
G1 X52.826 Y90.088 E24.17339
G1 X53.208 Y89.426 E24.21153
G1 X53.954 Y88.277 E24.27987
G1 X54.409 Y87.651 E24.31848
G1 X55.271 Y86.586 E24.38684
G1 X55.785 Y86.015 E24.42517
G1 X56.753 Y85.045 E24.49353
G1 X57.341 Y84.515 E24.53303
G1 X58.407 Y83.654 E24.60139
G1 X59.026 Y83.205 E24.63954
G0 F3600 X59.244 Y83.541
G1 F1800 X60.391 Y82.796 E24.70778
G1 X61.018 Y82.433 E24.74392
G1 X62.239 Y81.809 E24.81233
G1 X62.92 Y81.506 E24.84952
G1 X64.201 Y81.015 E24.91796
G1 X64.891 Y80.791 E24.95416
G1 X66.213 Y80.436 E25.02245
G1 X66.936 Y80.282 E25.05933
G1 X68.291 Y80.068 E25.12777
G1 X69.02 Y79.991 E25.16434
G1 X70.387 Y79.92 E25.23263
G1 X70.75 Y79.911 E25.25075
G1 X129.25 Y79.911 E28.16932
G1 X129.608 Y79.92 E28.18719
G1 X130.976 Y79.99 E28.25553
G1 X131.71 Y80.067 E28.29235
G1 X133.065 Y80.281 E28.36079
G1 X133.788 Y80.435 E28.39767
G1 X135.11 Y80.79 E28.46596
G1 X135.806 Y81.016 E28.50247
G1 X137.086 Y81.508 E28.57088
G1 X137.761 Y81.809 E28.60775
G1 X138.98 Y82.432 E28.67605
G1 X139.606 Y82.794 E28.71213
G1 X140.755 Y83.54 E28.78048
G1 X141.347 Y83.97 E28.81698
G1 X142.412 Y84.832 E28.88534
G1 X142.958 Y85.323 E28.92197
G1 X143.927 Y86.292 E28.99034
G1 X144.418 Y86.838 E29.02697
G1 X145.28 Y87.903 E29.09533
G1 X145.709 Y88.494 E29.13176
G1 X146.454 Y89.641 E29.2
G1 X146.817 Y90.268 E29.23614
G1 X147.441 Y91.489 E29.30455
G1 X147.744 Y92.17 E29.34174
G1 X148.235 Y93.451 E29.41018
G1 X148.459 Y94.141 E29.44638
G1 X148.814 Y95.463 E29.51467
G1 X148.968 Y96.184 E29.55145
G1 X149.182 Y97.537 E29.61979
G1 X149.258 Y98.263 E29.65621
G1 X149.33 Y99.631 E29.72455
G1 X149.331 Y100.362 E29.76102
G1 X149.26 Y101.731 E29.82942
G1 X149.183 Y102.46 E29.86599
G1 X148.969 Y103.815 E29.93443
G1 X148.815 Y104.538 E29.97131
G1 X148.46 Y105.86 E30.0396
G1 X148.221 Y106.59 E30.07792
G1 X147.7 Y107.925 E30.14942
G1 X147.414 Y108.562 E30.18425
G1 X146.82 Y109.726 E30.24945
G1 X146.456 Y110.356 E30.28575
G1 X145.71 Y111.505 E30.35409
G1 X145.28 Y112.097 E30.3906
G1 X144.418 Y113.162 E30.45895
G1 X143.932 Y113.703 E30.49524
G1 X142.964 Y114.673 E30.56361
G1 X142.407 Y115.174 E30.60098
G1 X141.341 Y116.035 E30.66934
G1 X140.756 Y116.459 E30.70539
G1 X139.609 Y117.204 E30.77363
G1 X138.982 Y117.567 E30.80977
G1 X137.761 Y118.191 E30.87818
G1 X137.08 Y118.494 E30.91537
G1 X135.799 Y118.985 E30.98381
G1 X135.109 Y119.209 E31.02
G1 X133.787 Y119.564 E31.08829
G1 X133.064 Y119.718 E31.12517
G1 X131.709 Y119.932 E31.19361
G1 X130.98 Y120.009 E31.23019
G1 X129.613 Y120.08 E31.29848
G1 X129.25 Y120.089 E31.31659
G1 X70.75 Y120.089 E34.23517
G1 X70.392 Y120.08 E34.25304
G1 X69.024 Y120.01 E34.32138
G1 X68.29 Y119.933 E34.3582
G1 X66.935 Y119.719 E34.42664
G1 X66.212 Y119.565 E34.46352
G1 X64.89 Y119.21 E34.53181
G1 X64.194 Y118.984 E34.56831
G1 X62.914 Y118.492 E34.63673
G1 X62.239 Y118.191 E34.6736
G1 X61.018 Y117.567 E34.74201
G1 X60.391 Y117.204 E34.77816
G1 X59.244 Y116.459 E34.84639
G1 X58.653 Y116.03 E34.88283
G1 X57.588 Y115.168 E34.95118
G1 X57.042 Y114.677 E34.98782
G1 X56.073 Y113.708 E35.05619
G1 X55.582 Y113.162 E35.09282
G1 X54.72 Y112.097 E35.16118
G1 X54.29 Y111.505 E35.19768
G1 X53.544 Y110.356 E35.26603
G1 X53.182 Y109.73 E35.3021
G1 X52.558 Y108.509 E35.37051
G1 X52.254 Y107.827 E35.40777
G1 X51.764 Y106.548 E35.4761
G1 X51.541 Y105.859 E35.51223
G1 X51.186 Y104.537 E35.58052
G1 X51.032 Y103.814 E35.6174
G1 X50.818 Y102.459 E35.68584
G1 X50.742 Y101.735 E35.72216
G1 X50.67 Y100.369 E35.7904
G1 X50.669 Y99.638 E35.82687
G1 X50.74 Y98.269 E35.89526
G1 X50.817 Y97.54 E35.93184
G1 X51.031 Y96.185 E36.00027
G1 X51.185 Y95.462 E36.03715
G1 X51.54 Y94.14 E36.10545
G1 X51.766 Y93.445 E36.14191
G1 X52.257 Y92.167 E36.21021
G1 X52.558 Y91.491 E36.24713
G1 X53.182 Y90.27 E36.31554
G1 X53.544 Y89.644 E36.35162
G1 X54.29 Y88.495 E36.41996
G1 X54.72 Y87.903 E36.45647
G1 X55.582 Y86.838 E36.52482
G1 X56.068 Y86.297 E36.5611
G1 X57.036 Y85.327 E36.62947
G1 X57.593 Y84.826 E36.66685
G1 X58.659 Y83.965 E36.73521
G1 X59.244 Y83.541 E36.77126
G0 F3600 X59.462 Y83.876
G1 F1800 X60.609 Y83.131 E36.83949
G1 X61.201 Y82.789 E36.8736
G1 X62.422 Y82.165 E36.94201
G1 X63.063 Y81.879 E36.97703
G1 X64.344 Y81.388 E37.04547
G1 X64.994 Y81.177 E37.07957
G1 X66.316 Y80.822 E37.14786
G1 X66.998 Y80.677 E37.18265
G1 X68.353 Y80.463 E37.25108
G1 X69.041 Y80.391 E37.2856
G1 X70.408 Y80.32 E37.35389
G1 X70.75 Y80.311 E37.37096
G1 X129.25 Y80.311 E40.28953
G1 X129.587 Y80.32 E40.30635
G1 X130.955 Y80.39 E40.37469
G1 X131.648 Y80.462 E40.40945
G1 X133.003 Y80.676 E40.47789
G1 X133.685 Y80.821 E40.51268
G1 X135.007 Y81.176 E40.58097
G1 X135.663 Y81.389 E40.61538
G1 X136.943 Y81.881 E40.68379
G1 X137.579 Y82.165 E40.71854
G1 X138.798 Y82.788 E40.78684
G1 X139.388 Y83.129 E40.82084
G1 X140.537 Y83.875 E40.88918
G1 X141.095 Y84.281 E40.92361
G1 X142.16 Y85.143 E40.99197
G1 X142.675 Y85.606 E41.02652
G1 X143.644 Y86.575 E41.09489
G1 X144.107 Y87.09 E41.12944
G1 X144.969 Y88.155 E41.19779
G1 X145.374 Y88.712 E41.23215
G1 X146.119 Y89.859 E41.30039
G1 X146.461 Y90.451 E41.3345
G1 X147.085 Y91.672 E41.40291
G1 X147.371 Y92.313 E41.43792
G1 X147.862 Y93.594 E41.50637
G1 X148.073 Y94.244 E41.54046
G1 X148.428 Y95.566 E41.60875
G1 X148.573 Y96.247 E41.64349
G1 X148.787 Y97.6 E41.71183
G1 X148.859 Y98.284 E41.74614
G1 X148.931 Y99.652 E41.81449
G1 X148.931 Y100.341 E41.84886
G1 X148.86 Y101.71 E41.91725
G1 X148.788 Y102.398 E41.95177
G1 X148.574 Y103.753 E42.02021
G1 X148.429 Y104.435 E42.05499
G1 X148.074 Y105.757 E42.12328
G1 X147.848 Y106.444 E42.15936
G1 X147.327 Y107.779 E42.23086
G1 X147.058 Y108.38 E42.26371
G1 X146.464 Y109.544 E42.32891
G1 X146.121 Y110.138 E42.36313
G1 X145.375 Y111.287 E42.43147
G1 X144.969 Y111.845 E42.4659
G1 X144.107 Y112.91 E42.53426
G1 X143.649 Y113.42 E42.56846
G1 X142.681 Y114.39 E42.63682
G1 X142.156 Y114.862 E42.67205
G1 X141.09 Y115.723 E42.74041
G1 X140.538 Y116.124 E42.77445
G1 X139.391 Y116.869 E42.84268
G1 X138.799 Y117.211 E42.87679
G1 X137.578 Y117.835 E42.9452
G1 X136.937 Y118.121 E42.98022
G1 X135.656 Y118.612 E43.04867
G1 X135.006 Y118.823 E43.08276
G1 X133.684 Y119.178 E43.15105
G1 X133.002 Y119.323 E43.18584
G1 X131.647 Y119.537 E43.25428
G1 X130.959 Y119.609 E43.28879
G1 X129.592 Y119.68 E43.35708
G1 X129.25 Y119.689 E43.37415
G1 X70.75 Y119.689 E46.29272
G1 X70.413 Y119.68 E46.30954
G1 X69.045 Y119.61 E46.37788
G1 X68.352 Y119.538 E46.41264
G1 X66.997 Y119.324 E46.48108
G1 X66.315 Y119.179 E46.51587
G1 X64.993 Y118.824 E46.58416
G1 X64.337 Y118.611 E46.61857
G1 X63.057 Y118.119 E46.68698
G1 X62.422 Y117.835 E46.72169
G1 X61.201 Y117.211 E46.7901
G1 X60.609 Y116.869 E46.82421
G1 X59.462 Y116.124 E46.89244
G1 X58.905 Y115.719 E46.9268
G1 X57.84 Y114.857 E46.99516
G1 X57.325 Y114.394 E47.02971
G1 X56.356 Y113.425 E47.09808
G1 X55.893 Y112.91 E47.13263
G1 X55.031 Y111.845 E47.20098
G1 X54.625 Y111.287 E47.23541
G1 X53.879 Y110.138 E47.30376
G1 X53.538 Y109.547 E47.3378
G1 X52.914 Y108.326 E47.40621
G1 X52.628 Y107.684 E47.44127
G1 X52.138 Y106.405 E47.5096
G1 X51.927 Y105.756 E47.54365
G1 X51.572 Y104.434 E47.61194
G1 X51.427 Y103.752 E47.64673
G1 X51.213 Y102.397 E47.71517
G1 X51.141 Y101.714 E47.74943
G1 X51.069 Y100.348 E47.81767
G1 X51.069 Y99.659 E47.85205
G1 X51.14 Y98.29 E47.92044
G1 X51.212 Y97.602 E47.95495
G1 X51.426 Y96.247 E48.02339
G1 X51.571 Y95.565 E48.05818
G1 X51.926 Y94.243 E48.12647
G1 X52.139 Y93.588 E48.16083
G1 X52.63 Y92.31 E48.22913
G1 X52.914 Y91.674 E48.26388
G1 X53.538 Y90.453 E48.33229
G1 X53.879 Y89.862 E48.36634
G1 X54.625 Y88.713 E48.43468
G1 X55.031 Y88.155 E48.46911
G1 X55.893 Y87.09 E48.53747
G1 X56.351 Y86.58 E48.57166
G1 X57.319 Y85.61 E48.64003
G1 X57.844 Y85.138 E48.67525
G1 X58.91 Y84.277 E48.74362
G1 X59.462 Y83.876 E48.77766
G0 F3600 X59.68 Y84.212
G1 F1800 X60.827 Y83.467 E48.84589
G1 X61.383 Y83.145 E48.87795
G1 X62.604 Y82.521 E48.94636
G1 X63.206 Y82.253 E48.97923
G1 X64.487 Y81.762 E49.04768
G1 X65.098 Y81.563 E49.07973
G1 X66.42 Y81.208 E49.14803
G1 X67.061 Y81.072 E49.18072
G1 X68.416 Y80.858 E49.24916
G1 X69.061 Y80.79 E49.28151
G1 X70.428 Y80.719 E49.34981
G1 X70.75 Y80.711 E49.36588
G1 X129.25 Y80.711 E52.28445
G1 X129.567 Y80.719 E52.30027
G1 X130.935 Y80.789 E52.36861
G1 X131.585 Y80.857 E52.40122
G1 X132.94 Y81.071 E52.46966
G1 X133.581 Y81.207 E52.50235
G1 X134.903 Y81.562 E52.57064
G1 X135.519 Y81.763 E52.60297
G1 X136.799 Y82.255 E52.67138
G1 X137.397 Y82.521 E52.70403
