;FLAVOR:RepRap
;TIME:2996
;Filament used: 1.76704m
;Layer height: 0.1
;Generated with Cura_SteamEngine 2.5.0
M190 S60
M104 S200
M109 S200
G21 ;metric values
G90 ;absolute positioning
M82 ;set extruder to absolute mode
M107 ;start with the fan off
G28 X0 Y0 ;move X/Y to min endstops
G28 Z0 ;move Z to min endstops
G1 Z15.0 F9000 ;move the platform down 15mm
G92 E0 ;zero the extruded length
G1 F200 E3 ;extrude 3mm of feed stock
G92 E0 ;zero the extruded length again
G1 F9000
;Put printing message on LCD screen
M117 Printing...
;LAYER_COUNT:68
;LAYER:0
M107
G0 F3600 X62.156 Y83.343 Z0.3
;TYPE:SKIRT
G1 F1800 X62.808 Y82.87 E0.04019
G1 X63.955 Y82.125 E0.10842
G1 X64.652 Y81.722 E0.14859
G1 X65.872 Y81.098 E0.21696
G1 X66.634 Y80.758 E0.25858
G1 X67.916 Y80.267 E0.32707
G1 X68.683 Y80.018 E0.36731
G1 X70.005 Y79.663 E0.4356
G1 X70.811 Y79.491 E0.47671
G1 X72.166 Y79.277 E0.54515
G1 X72.978 Y79.192 E0.58589
G1 X74.345 Y79.121 E0.65418
G1 X74.75 Y79.111 E0.67439
G1 X125.25 Y79.111 E3.19384
G1 X125.649 Y79.121 E3.21376
G1 X127.017 Y79.191 E3.2821
G1 X127.835 Y79.276 E3.32313
G1 X129.19 Y79.49 E3.39156
G1 X129.996 Y79.662 E3.43268
G1 X131.318 Y80.017 E3.50097
G1 X132.092 Y80.269 E3.54158
G1 X133.373 Y80.761 E3.61004
G1 X134.128 Y81.098 E3.65129
G1 X135.346 Y81.721 E3.71955
G1 X136.042 Y82.123 E3.75965
G1 X137.191 Y82.869 E3.82799
G1 X137.85 Y83.348 E3.86864
G1 X138.915 Y84.21 E3.93699
G1 X139.523 Y84.758 E3.97783
G1 X140.492 Y85.727 E4.0462
G1 X141.04 Y86.335 E4.08703
G1 X141.902 Y87.4 E4.15539
G1 X142.38 Y88.058 E4.19597
G1 X143.125 Y89.205 E4.2642
G1 X143.53 Y89.904 E4.30451
G1 X144.154 Y91.125 E4.37292
G1 X144.491 Y91.883 E4.4143
G1 X144.982 Y93.164 E4.48274
G1 X145.232 Y93.933 E4.52309
G1 X145.587 Y95.255 E4.59138
G1 X145.758 Y96.059 E4.63239
G1 X145.972 Y97.412 E4.70073
G1 X146.057 Y98.221 E4.74131
G1 X146.129 Y99.589 E4.80965
G1 X146.13 Y100.403 E4.85027
G1 X146.059 Y101.772 E4.91866
G1 X145.974 Y102.585 E4.95944
G1 X145.76 Y103.94 E5.02788
G1 X145.588 Y104.746 E5.06899
G1 X145.233 Y106.068 E5.13729
G1 X144.981 Y106.842 E5.1779
G1 X144.49 Y108.12 E5.2462
G1 X144.155 Y108.873 E5.28732
G1 X143.531 Y110.094 E5.35573
G1 X143.127 Y110.792 E5.39596
G1 X142.381 Y111.941 E5.46431
G1 X141.902 Y112.6 E5.50495
G1 X141.04 Y113.665 E5.57331
G1 X140.498 Y114.268 E5.61376
G1 X139.53 Y115.238 E5.68213
G1 X138.91 Y115.796 E5.72374
G1 X137.844 Y116.657 E5.79211
G1 X137.192 Y117.13 E5.83229
G1 X136.045 Y117.875 E5.90053
G1 X135.348 Y118.278 E5.9407
G1 X134.128 Y118.902 E6.00906
G1 X133.366 Y119.242 E6.05069
G1 X132.084 Y119.733 E6.11918
G1 X131.317 Y119.982 E6.15941
G1 X129.995 Y120.337 E6.2277
G1 X129.189 Y120.509 E6.26882
G1 X127.834 Y120.723 E6.33726
G1 X127.022 Y120.808 E6.37799
G1 X125.655 Y120.879 E6.44628
G1 X125.25 Y120.889 E6.4665
G1 X74.75 Y120.889 E8.98595
G1 X74.351 Y120.879 E9.00586
G1 X72.983 Y120.809 E9.0742
G1 X72.165 Y120.724 E9.11523
G1 X70.81 Y120.51 E9.18367
G1 X70.004 Y120.338 E9.22479
G1 X68.682 Y119.983 E9.29308
G1 X67.908 Y119.731 E9.33369
G1 X66.627 Y119.239 E9.40215
G1 X65.872 Y118.902 E9.4434
G1 X64.652 Y118.278 E9.51177
G1 X63.955 Y117.875 E9.55193
G1 X62.808 Y117.13 E9.62017
G1 X62.15 Y116.652 E9.66074
G1 X61.085 Y115.79 E9.7291
G1 X60.477 Y115.242 E9.76994
G1 X59.508 Y114.273 E9.8383
G1 X58.96 Y113.665 E9.87914
G1 X58.098 Y112.6 E9.9475
G1 X57.619 Y111.941 E9.98814
G1 X56.873 Y110.792 E10.05649
G1 X56.469 Y110.094 E10.09672
G1 X55.845 Y108.873 E10.16513
G1 X55.507 Y108.113 E10.20663
G1 X55.017 Y106.834 E10.27496
G1 X54.768 Y106.067 E10.3152
G1 X54.413 Y104.745 E10.38349
G1 X54.241 Y103.939 E10.4246
G1 X54.027 Y102.584 E10.49304
G1 X53.943 Y101.778 E10.53347
G1 X53.871 Y100.412 E10.60172
G1 X53.87 Y99.597 E10.64238
G1 X53.941 Y98.228 E10.71077
G1 X54.026 Y97.415 E10.75155
G1 X54.24 Y96.06 E10.81999
G1 X54.412 Y95.254 E10.86111
G1 X54.767 Y93.932 E10.9294
G1 X55.019 Y93.158 E10.97001
G1 X55.51 Y91.88 E11.03831
G1 X55.845 Y91.127 E11.07943
G1 X56.469 Y89.906 E11.14784
G1 X56.873 Y89.208 E11.18807
G1 X57.619 Y88.059 E11.25642
G1 X58.098 Y87.4 E11.29707
G1 X58.96 Y86.335 E11.36542
G1 X59.502 Y85.732 E11.40587
G1 X60.47 Y84.762 E11.47424
G1 X61.09 Y84.204 E11.51586
G1 X62.156 Y83.343 E11.58422
G0 F3600 X62.407 Y83.654
G1 F1800 X63.026 Y83.205 E11.62237
G1 X64.173 Y82.46 E11.69061
G1 X64.834 Y82.078 E11.72869
G1 X66.054 Y81.454 E11.79706
G1 X66.777 Y81.131 E11.83657
G1 X68.059 Y80.64 E11.90506
G1 X68.787 Y80.404 E11.94324
G1 X70.109 Y80.049 E12.01153
G1 X70.874 Y79.887 E12.05054
G1 X72.229 Y79.673 E12.11898
G1 X72.999 Y79.592 E12.15761
G1 X74.366 Y79.521 E12.2259
G1 X74.75 Y79.511 E12.24506
G1 X125.25 Y79.511 E14.76452
G1 X125.628 Y79.521 E14.78338
G1 X126.996 Y79.591 E14.85172
G1 X127.772 Y79.672 E14.89065
G1 X129.127 Y79.886 E14.95909
G1 X129.892 Y80.048 E14.9981
G1 X131.214 Y80.403 E15.06639
G1 X131.948 Y80.642 E15.1049
G1 X133.229 Y81.134 E15.17336
G1 X133.946 Y81.454 E15.21254
G1 X135.164 Y82.077 E15.28079
G1 X135.824 Y82.458 E15.31881
G1 X136.973 Y83.204 E15.38716
G1 X137.599 Y83.659 E15.42577
G1 X138.664 Y84.521 E15.49412
G1 X139.241 Y85.04 E15.53284
G1 X140.21 Y86.009 E15.60121
G1 X140.729 Y86.586 E15.63993
G1 X141.591 Y87.651 E15.70828
G1 X142.045 Y88.276 E15.74682
G1 X142.79 Y89.423 E15.81506
G1 X143.173 Y90.086 E15.85326
G1 X143.797 Y91.307 E15.92167
G1 X144.118 Y92.027 E15.961
G1 X144.609 Y93.308 E16.02944
G1 X144.846 Y94.037 E16.06768
G1 X145.201 Y95.359 E16.13598
G1 X145.363 Y96.122 E16.17489
G1 X145.577 Y97.475 E16.24323
G1 X145.658 Y98.242 E16.28171
G1 X145.73 Y99.61 E16.35005
G1 X145.73 Y100.382 E16.38857
G1 X145.659 Y101.751 E16.45696
G1 X145.578 Y102.522 E16.49564
G1 X145.364 Y103.877 E16.56408
G1 X145.202 Y104.642 E16.60309
G1 X144.847 Y105.964 E16.67138
G1 X144.608 Y106.699 E16.70994
G1 X144.117 Y107.977 E16.77824
G1 X143.798 Y108.691 E16.81726
G1 X143.174 Y109.912 E16.88567
G1 X142.792 Y110.574 E16.9238
G1 X142.046 Y111.723 E16.99215
G1 X141.591 Y112.349 E17.03075
G1 X140.729 Y113.414 E17.09911
G1 X140.215 Y113.985 E17.13744
G1 X139.247 Y114.955 E17.20581
G1 X138.659 Y115.485 E17.2453
G1 X137.593 Y116.346 E17.31367
G1 X136.974 Y116.795 E17.35182
G1 X135.827 Y117.54 E17.42005
G1 X135.166 Y117.922 E17.45814
G1 X133.946 Y118.546 E17.52651
G1 X133.223 Y118.869 E17.56601
G1 X131.941 Y119.36 E17.6345
G1 X131.213 Y119.596 E17.67268
G1 X129.891 Y119.951 E17.74097
G1 X129.126 Y120.113 E17.77999
G1 X127.771 Y120.327 E17.84843
G1 X127.001 Y120.408 E17.88705
G1 X125.634 Y120.479 E17.95535
G1 X125.25 Y120.489 E17.97451
G1 X74.75 Y120.489 E20.49396
G1 X74.372 Y120.479 E20.51283
G1 X73.004 Y120.409 E20.58117
G1 X72.228 Y120.328 E20.62009
G1 X70.873 Y120.114 E20.68853
G1 X70.108 Y119.952 E20.72755
G1 X68.786 Y119.597 E20.79584
G1 X68.052 Y119.358 E20.83435
G1 X66.771 Y118.866 E20.90281
G1 X66.054 Y118.546 E20.94198
G1 X64.834 Y117.922 E21.01035
G1 X64.173 Y117.54 E21.04844
G1 X63.026 Y116.795 E21.11667
G1 X62.401 Y116.341 E21.15521
G1 X61.336 Y115.479 E21.22357
G1 X60.759 Y114.96 E21.26229
G1 X59.79 Y113.991 E21.33065
G1 X59.271 Y113.414 E21.36937
G1 X58.409 Y112.349 E21.43773
G1 X57.954 Y111.723 E21.47634
G1 X57.208 Y110.574 E21.54468
G1 X56.826 Y109.912 E21.58282
G1 X56.202 Y108.691 E21.65123
G1 X55.881 Y107.97 E21.6906
G1 X55.391 Y106.691 E21.75893
G1 X55.154 Y105.963 E21.79713
G1 X54.799 Y104.641 E21.86542
G1 X54.637 Y103.876 E21.90443
G1 X54.423 Y102.521 E21.97287
G1 X54.342 Y101.757 E22.0112
G1 X54.27 Y100.391 E22.07945
G1 X54.27 Y99.618 E22.11801
G1 X54.341 Y98.249 E22.1864
G1 X54.422 Y97.478 E22.22508
G1 X54.636 Y96.123 E22.29352
G1 X54.798 Y95.358 E22.33253
G1 X55.153 Y94.036 E22.40082
G1 X55.392 Y93.301 E22.43938
G1 X55.883 Y92.023 E22.50769
G1 X56.202 Y91.309 E22.5467
G1 X56.826 Y90.088 E22.61511
G1 X57.208 Y89.426 E22.65324
G1 X57.954 Y88.277 E22.72159
G1 X58.409 Y87.651 E22.7602
G1 X59.271 Y86.586 E22.82855
G1 X59.785 Y86.015 E22.86688
G1 X60.753 Y85.045 E22.93525
G1 X61.341 Y84.515 E22.97474
G1 X62.407 Y83.654 E23.04311
G0 F3600 X62.659 Y83.965
G1 F1800 X63.244 Y83.541 E23.07915
G1 X64.391 Y82.796 E23.14739
G1 X65.016 Y82.434 E23.18342
G1 X66.236 Y81.81 E23.25179
G1 X66.92 Y81.505 E23.28915
G1 X68.202 Y81.014 E23.35764
G1 X68.891 Y80.791 E23.39377
G1 X70.213 Y80.436 E23.46206
G1 X70.936 Y80.282 E23.49894
G1 X72.291 Y80.068 E23.56738
G1 X73.02 Y79.991 E23.60396
G1 X74.387 Y79.92 E23.67225
G1 X74.75 Y79.911 E23.69036
G1 X125.25 Y79.911 E26.20982
G1 X125.608 Y79.92 E26.22768
G1 X126.976 Y79.99 E26.29602
G1 X127.71 Y80.067 E26.33284
G1 X129.065 Y80.281 E26.40128
G1 X129.788 Y80.435 E26.43816
G1 X131.11 Y80.79 E26.50645
G1 X131.805 Y81.015 E26.5429
G1 X133.086 Y81.507 E26.61136
G1 X133.764 Y81.81 E26.64841
G1 X134.982 Y82.433 E26.71666
G1 X135.606 Y82.794 E26.75263
G1 X136.755 Y83.54 E26.82098
G1 X137.347 Y83.97 E26.85748
G1 X138.412 Y84.832 E26.92584
G1 X138.958 Y85.323 E26.96247
G1 X139.927 Y86.292 E27.03084
G1 X140.418 Y86.838 E27.06747
G1 X141.28 Y87.903 E27.13583
G1 X141.709 Y88.494 E27.17226
G1 X142.454 Y89.641 E27.2405
G1 X142.817 Y90.268 E27.27664
G1 X143.441 Y91.489 E27.34505
G1 X143.744 Y92.17 E27.38224
G1 X144.235 Y93.451 E27.45068
G1 X144.459 Y94.141 E27.48688
G1 X144.814 Y95.463 E27.55517
G1 X144.968 Y96.184 E27.59195
G1 X145.182 Y97.537 E27.66029
G1 X145.258 Y98.263 E27.69671
G1 X145.33 Y99.631 E27.76505
G1 X145.331 Y100.362 E27.80152
G1 X145.26 Y101.731 E27.86992
G1 X145.183 Y102.46 E27.90649
G1 X144.969 Y103.815 E27.97493
G1 X144.815 Y104.538 E28.01181
G1 X144.46 Y105.86 E28.0801
G1 X144.234 Y106.555 E28.11656
G1 X143.743 Y107.833 E28.18486
G1 X143.442 Y108.509 E28.22178
G1 X142.818 Y109.73 E28.29019
G1 X142.456 Y110.356 E28.32627
G1 X141.71 Y111.505 E28.39461
G1 X141.28 Y112.097 E28.43112
G1 X140.418 Y113.162 E28.49947
G1 X139.932 Y113.703 E28.53576
G1 X138.964 Y114.673 E28.60412
G1 X138.407 Y115.174 E28.6415
G1 X137.341 Y116.035 E28.70986
G1 X136.756 Y116.459 E28.74591
G1 X135.609 Y117.204 E28.81414
G1 X134.984 Y117.566 E28.85018
G1 X133.764 Y118.19 E28.91854
G1 X133.08 Y118.495 E28.95591
G1 X131.798 Y118.986 E29.0244
G1 X131.109 Y119.209 E29.06053
G1 X129.787 Y119.564 E29.12882
G1 X129.064 Y119.718 E29.1657
G1 X127.709 Y119.932 E29.23414
G1 X126.98 Y120.009 E29.27071
G1 X125.613 Y120.08 E29.339
G1 X125.25 Y120.089 E29.35712
G1 X74.75 Y120.089 E31.87657
G1 X74.392 Y120.08 E31.89444
G1 X73.024 Y120.01 E31.96278
G1 X72.29 Y119.933 E31.9996
G1 X70.935 Y119.719 E32.06804
G1 X70.212 Y119.565 E32.10492
G1 X68.89 Y119.21 E32.17321
G1 X68.195 Y118.985 E32.20965
G1 X66.914 Y118.493 E32.27812
G1 X66.236 Y118.19 E32.31517
G1 X65.016 Y117.566 E32.38353
G1 X64.391 Y117.204 E32.41956
G1 X63.244 Y116.459 E32.4878
G1 X62.653 Y116.03 E32.52423
G1 X61.588 Y115.168 E32.59259
G1 X61.042 Y114.677 E32.62923
G1 X60.073 Y113.708 E32.69759
G1 X59.582 Y113.162 E32.73423
G1 X58.72 Y112.097 E32.80258
G1 X58.29 Y111.505 E32.83909
G1 X57.544 Y110.356 E32.90743
G1 X57.182 Y109.73 E32.94351
G1 X56.558 Y108.509 E33.01192
G1 X56.254 Y107.827 E33.04917
G1 X55.764 Y106.548 E33.11751
G1 X55.541 Y105.859 E33.15364
G1 X55.186 Y104.537 E33.22193
G1 X55.032 Y103.814 E33.25881
G1 X54.818 Y102.459 E33.32725
G1 X54.742 Y101.735 E33.36357
G1 X54.67 Y100.369 E33.43181
G1 X54.669 Y99.638 E33.46828
G1 X54.74 Y98.269 E33.53667
G1 X54.817 Y97.54 E33.57324
G1 X55.031 Y96.185 E33.64168
G1 X55.185 Y95.462 E33.67856
G1 X55.54 Y94.14 E33.74685
G1 X55.766 Y93.445 E33.78331
G1 X56.257 Y92.167 E33.85162
G1 X56.558 Y91.491 E33.88854
G1 X57.182 Y90.27 E33.95695
G1 X57.544 Y89.644 E33.99302
G1 X58.29 Y88.495 E34.06137
G1 X58.72 Y87.903 E34.09787
G1 X59.582 Y86.838 E34.16623
G1 X60.068 Y86.297 E34.20251
G1 X61.036 Y85.327 E34.27088
G1 X61.593 Y84.826 E34.30826
G1 X62.659 Y83.965 E34.37662
G0 F3600 X62.91 Y84.277
G1 F1800 X63.462 Y83.876 E34.41066
G1 X64.609 Y83.131 E34.47889
G1 X65.199 Y82.79 E34.51289
G1 X66.419 Y82.166 E34.58126
G1 X67.063 Y81.879 E34.61643
G1 X68.345 Y81.388 E34.68492
G1 X68.994 Y81.177 E34.71897
G1 X70.316 Y80.822 E34.78726
G1 X70.998 Y80.677 E34.82205
G1 X72.353 Y80.463 E34.89049
G1 X73.041 Y80.391 E34.925
G1 X74.408 Y80.32 E34.99329
G1 X74.75 Y80.311 E35.01036
G1 X125.25 Y80.311 E37.52981
G1 X125.587 Y80.32 E37.54663
G1 X126.955 Y80.39 E37.61497
G1 X127.648 Y80.462 E37.64973
G1 X129.003 Y80.676 E37.71817
G1 X129.685 Y80.821 E37.75296
G1 X131.007 Y81.176 E37.82125
G1 X131.661 Y81.389 E37.85556
G1 X132.942 Y81.881 E37.92402
G1 X133.582 Y82.166 E37.95898
G1 X134.8 Y82.789 E38.02723
G1 X135.388 Y83.129 E38.06112
G1 X136.537 Y83.875 E38.12946
G1 X137.095 Y84.281 E38.16389
G1 X138.16 Y85.143 E38.23225
G1 X138.675 Y85.606 E38.2668
G1 X139.644 Y86.575 E38.33517
G1 X140.107 Y87.09 E38.36972
G1 X140.969 Y88.155 E38.43807
G1 X141.374 Y88.712 E38.47243
G1 X142.119 Y89.859 E38.54067
G1 X142.461 Y90.451 E38.57478
G1 X143.085 Y91.672 E38.64319
G1 X143.371 Y92.313 E38.6782
G1 X143.862 Y93.594 E38.74665
G1 X144.073 Y94.244 E38.78074
G1 X144.428 Y95.566 E38.84903
G1 X144.573 Y96.247 E38.88377
G1 X144.787 Y97.6 E38.95211
G1 X144.859 Y98.284 E38.98642
G1 X144.931 Y99.652 E39.05477
G1 X144.931 Y100.341 E39.08914
G1 X144.86 Y101.71 E39.15753
G1 X144.788 Y102.398 E39.19205
G1 X144.574 Y103.753 E39.26048
G1 X144.429 Y104.435 E39.29527
G1 X144.074 Y105.757 E39.36356
G1 X143.861 Y106.412 E39.39792
G1 X143.37 Y107.69 E39.46623
G1 X143.086 Y108.326 E39.50098
G1 X142.462 Y109.547 E39.56939
G1 X142.121 Y110.138 E39.60343
G1 X141.375 Y111.287 E39.67177
G1 X140.969 Y111.845 E39.7062
G1 X140.107 Y112.91 E39.77456
G1 X139.649 Y113.42 E39.80876
G1 X138.681 Y114.39 E39.87713
G1 X138.156 Y114.862 E39.91235
G1 X137.09 Y115.723 E39.98071
G1 X136.538 Y116.124 E40.01475
G1 X135.391 Y116.869 E40.08298
G1 X134.801 Y117.21 E40.11698
G1 X133.581 Y117.834 E40.18535
G1 X132.937 Y118.121 E40.22052
G1 X131.655 Y118.612 E40.28901
G1 X131.006 Y118.823 E40.32306
G1 X129.684 Y119.178 E40.39135
G1 X129.002 Y119.323 E40.42614
G1 X127.647 Y119.537 E40.49458
G1 X126.959 Y119.609 E40.52909
G1 X125.592 Y119.68 E40.59738
G1 X125.25 Y119.689 E40.61445
G1 X74.75 Y119.689 E43.1339
G1 X74.413 Y119.68 E43.15072
G1 X73.045 Y119.61 E43.21906
G1 X72.352 Y119.538 E43.25382
G1 X70.997 Y119.324 E43.32226
G1 X70.315 Y119.179 E43.35705
G1 X68.993 Y118.824 E43.42534
G1 X68.339 Y118.611 E43.45965
G1 X67.058 Y118.119 E43.52811
G1 X66.419 Y117.834 E43.56302
G1 X65.199 Y117.21 E43.63139
G1 X64.609 Y116.869 E43.66538
G1 X63.462 Y116.124 E43.73362
G1 X62.905 Y115.719 E43.76798
G1 X61.84 Y114.857 E43.83633
G1 X61.325 Y114.394 E43.87088
G1 X60.356 Y113.425 E43.93925
G1 X59.893 Y112.91 E43.9738
G1 X59.031 Y111.845 E44.04216
G1 X58.625 Y111.287 E44.07659
G1 X57.879 Y110.138 E44.14493
G1 X57.538 Y109.547 E44.17897
G1 X56.914 Y108.326 E44.24738
G1 X56.628 Y107.684 E44.28245
G1 X56.138 Y106.405 E44.35078
G1 X55.927 Y105.756 E44.38483
G1 X55.572 Y104.434 E44.45312
G1 X55.427 Y103.752 E44.48791
G1 X55.213 Y102.397 E44.55634
G1 X55.141 Y101.714 E44.59061
G1 X55.069 Y100.348 E44.65885
G1 X55.069 Y99.659 E44.69323
G1 X55.14 Y98.29 E44.76162
G1 X55.212 Y97.602 E44.79613
G1 X55.426 Y96.247 E44.86457
G1 X55.571 Y95.565 E44.89936
G1 X55.926 Y94.243 E44.96765
G1 X56.139 Y93.588 E45.00201
G1 X56.63 Y92.31 E45.07031
G1 X56.914 Y91.674 E45.10506
G1 X57.538 Y90.453 E45.17347
G1 X57.879 Y89.862 E45.20751
G1 X58.625 Y88.713 E45.27586
G1 X59.031 Y88.155 E45.31029
G1 X59.893 Y87.09 E45.37864
G1 X60.351 Y86.58 E45.41284
G1 X61.319 Y85.61 E45.48121
G1 X61.844 Y85.138 E45.51643
G1 X62.91 Y84.277 E45.5848
G0 F3600 X63.161 Y84.588
G1 F1800 X63.68 Y84.212 E45.61677
G1 X64.827 Y83.467 E45.685
G1 X65.381 Y83.146 E45.71695
G1 X66.601 Y82.522 E45.78531
G1 X67.207 Y82.252 E45.81841
G1 X68.489 Y81.761 E45.8869
G1 X69.098 Y81.563 E45.91885
G1 X70.42 Y81.208 E45.98714
G1 X71.061 Y81.072 E46.01983
G1 X72.416 Y80.858 E46.08827
G1 X73.061 Y80.79 E46.12063
G1 X74.428 Y80.719 E46.18892
G1 X74.75 Y80.711 E46.20499
G1 X125.25 Y80.711 E48.72445
G1 X125.567 Y80.719 E48.74027
G1 X126.935 Y80.789 E48.80861
G1 X127.585 Y80.857 E48.84121
G1 X128.94 Y81.071 E48.90965
G1 X129.581 Y81.207 E48.94234
G1 X130.903 Y81.562 E49.01063
G1 X131.518 Y81.762 E49.0429
G1 X132.799 Y82.254 E49.11136
G1 X133.399 Y82.522 E49.14414
