;FLAVOR:RepRap
;TIME:5532
;Filament used: 3.29398m
;Layer height: 0.1
;Generated with Cura_SteamEngine 2.5.0
M190 S60
M104 S200
M109 S200
G21 ;metric values
G90 ;absolute positioning
M82 ;set extruder to absolute mode
M107 ;start with the fan off
G28 X0 Y0 ;move X/Y to min endstops
G28 Z0 ;move Z to min endstops
G1 Z15.0 F9000 ;move the platform down 15mm
G92 E0 ;zero the extruded length
G1 F200 E3 ;extrude 3mm of feed stock
G92 E0 ;zero the extruded length again
G1 F9000
;Put printing message on LCD screen
M117 Printing...
;LAYER_COUNT:68
;LAYER:0
M107
G0 F3600 X82.869 Y58.809 Z0.3
;TYPE:SKIRT
G1 F1800 X83.348 Y58.15 E0.04065
G1 X84.21 Y57.085 E0.109
G1 X84.752 Y56.482 E0.14945
G1 X85.72 Y55.512 E0.21782
G1 X86.34 Y54.954 E0.25943
G1 X87.406 Y54.093 E0.3278
G1 X88.058 Y53.62 E0.36798
G1 X89.205 Y52.875 E0.43622
G1 X89.904 Y52.47 E0.47652
G1 X91.125 Y51.846 E0.54493
G1 X91.883 Y51.509 E0.58632
G1 X93.164 Y51.018 E0.65476
G1 X93.933 Y50.768 E0.69511
G1 X95.255 Y50.413 E0.7634
G1 X96.061 Y50.241 E0.80451
G1 X97.416 Y50.027 E0.87295
G1 X98.223 Y49.943 E0.91343
G1 X99.59 Y49.871 E0.98173
G1 X100.404 Y49.87 E1.02234
G1 X101.772 Y49.941 E1.09068
G1 X102.585 Y50.026 E1.13146
G1 X103.94 Y50.24 E1.1999
G1 X104.746 Y50.412 E1.24102
G1 X106.068 Y50.767 E1.30931
G1 X106.844 Y51.019 E1.35001
G1 X108.124 Y51.511 E1.41843
G1 X108.875 Y51.847 E1.45947
G1 X110.094 Y52.47 E1.52777
G1 X110.792 Y52.873 E1.56798
G1 X111.941 Y53.619 E1.63633
G1 X112.6 Y54.098 E1.67697
G1 X113.665 Y54.96 E1.74533
G1 X114.273 Y55.508 E1.78617
G1 X115.242 Y56.477 E1.85453
G1 X115.79 Y57.085 E1.89537
G1 X116.652 Y58.15 E1.96373
G1 X117.13 Y58.808 E2.0043
G1 X117.875 Y59.955 E2.07254
G1 X118.28 Y60.654 E2.11284
G1 X118.904 Y61.875 E2.18125
G1 X119.241 Y62.633 E2.22264
G1 X119.732 Y63.914 E2.29108
G1 X119.982 Y64.683 E2.33142
G1 X120.337 Y66.005 E2.39971
G1 X120.508 Y66.809 E2.44072
G1 X120.722 Y68.162 E2.50906
G1 X120.808 Y68.977 E2.54995
G1 X120.879 Y70.345 E2.61829
G1 X120.889 Y70.749 E2.63845
G1 X120.89 Y79.11 E3.05559
G1 X129.25 Y79.111 E3.47267
G1 X129.649 Y79.121 E3.49258
G1 X131.017 Y79.191 E3.56092
G1 X131.835 Y79.276 E3.60195
G1 X133.19 Y79.49 E3.67039
G1 X133.996 Y79.662 E3.7115
G1 X135.318 Y80.017 E3.7798
G1 X136.094 Y80.269 E3.8205
G1 X137.374 Y80.761 E3.88892
G1 X138.125 Y81.097 E3.92996
G1 X139.344 Y81.72 E3.99826
G1 X140.081 Y82.149 E4.04081
G1 X141.309 Y82.957 E4.11414
G1 X141.94 Y83.419 E4.15316
G1 X142.926 Y84.22 E4.21654
G1 X143.521 Y84.756 E4.25649
G1 X144.49 Y85.724 E4.32482
G1 X145.04 Y86.335 E4.36584
G1 X145.902 Y87.4 E4.43419
G1 X146.38 Y88.058 E4.47477
G1 X147.125 Y89.205 E4.54301
G1 X147.53 Y89.904 E4.58331
G1 X148.154 Y91.125 E4.65172
G1 X148.491 Y91.883 E4.6931
G1 X148.982 Y93.164 E4.76155
G1 X149.232 Y93.933 E4.80189
G1 X149.587 Y95.255 E4.87018
G1 X149.758 Y96.059 E4.91119
G1 X149.972 Y97.412 E4.97953
G1 X150.057 Y98.221 E5.02011
G1 X150.129 Y99.589 E5.08846
G1 X150.13 Y100.403 E5.12907
G1 X150.059 Y101.772 E5.19746
G1 X149.974 Y102.585 E5.23824
G1 X149.76 Y103.94 E5.30668
G1 X149.588 Y104.746 E5.3478
G1 X149.233 Y106.068 E5.41609
G1 X148.981 Y106.842 E5.4567
G1 X148.49 Y108.12 E5.525
G1 X148.155 Y108.873 E5.56612
G1 X147.531 Y110.094 E5.63453
G1 X147.127 Y110.792 E5.67477
G1 X146.381 Y111.941 E5.74311
G1 X145.902 Y112.6 E5.78376
G1 X145.04 Y113.665 E5.85211
G1 X144.498 Y114.268 E5.89256
G1 X143.53 Y115.238 E5.96093
G1 X142.91 Y115.796 E6.00255
G1 X141.844 Y116.657 E6.07091
G1 X141.192 Y117.13 E6.1111
G1 X140.045 Y117.875 E6.17933
G1 X139.346 Y118.28 E6.21964
G1 X138.125 Y118.904 E6.28805
G1 X137.367 Y119.241 E6.32943
G1 X136.086 Y119.732 E6.39788
G1 X135.317 Y119.982 E6.43822
G1 X133.995 Y120.337 E6.50651
G1 X133.189 Y120.509 E6.54763
G1 X131.834 Y120.723 E6.61607
G1 X131.022 Y120.808 E6.6568
G1 X129.655 Y120.879 E6.72509
G1 X129.25 Y120.889 E6.7453
G1 X120.89 Y120.89 E7.16238
G1 X120.889 Y129.25 E7.57947
G1 X120.879 Y129.649 E7.59938
G1 X120.809 Y131.017 E7.66772
G1 X120.724 Y131.835 E7.70875
G1 X120.51 Y133.19 E7.77719
G1 X120.338 Y133.996 E7.8183
G1 X119.983 Y135.318 E7.88659
G1 X119.731 Y136.092 E7.9272
G1 X119.24 Y137.37 E7.99551
G1 X118.905 Y138.123 E8.03663
G1 X118.281 Y139.344 E8.10504
G1 X117.877 Y140.042 E8.14527
G1 X117.131 Y141.191 E8.21362
G1 X116.652 Y141.85 E8.25426
G1 X115.79 Y142.915 E8.32262
G1 X115.248 Y143.518 E8.36307
G1 X114.28 Y144.488 E8.43144
G1 X113.66 Y145.046 E8.47305
G1 X112.594 Y145.907 E8.54142
G1 X111.942 Y146.38 E8.5816
G1 X110.795 Y147.125 E8.64984
G1 X110.096 Y147.53 E8.69014
G1 X108.875 Y148.154 E8.75855
G1 X108.117 Y148.491 E8.79994
G1 X106.836 Y148.982 E8.86838
G1 X106.067 Y149.232 E8.90872
G1 X104.745 Y149.587 E8.97701
G1 X103.939 Y149.759 E9.01813
G1 X102.584 Y149.973 E9.08657
G1 X101.777 Y150.057 E9.12705
G1 X100.41 Y150.129 E9.19534
G1 X99.596 Y150.13 E9.23595
G1 X98.228 Y150.059 E9.3043
G1 X97.415 Y149.974 E9.34508
G1 X96.06 Y149.76 E9.41352
G1 X95.254 Y149.588 E9.45463
G1 X93.932 Y149.233 E9.52292
G1 X93.156 Y148.981 E9.56363
G1 X91.876 Y148.489 E9.63204
G1 X91.125 Y148.154 E9.67307
G1 X89.904 Y147.53 E9.74148
G1 X89.205 Y147.125 E9.78178
G1 X88.058 Y146.38 E9.85002
G1 X87.4 Y145.902 E9.8906
G1 X86.335 Y145.04 E9.95895
G1 X85.727 Y144.492 E9.99979
G1 X84.758 Y143.523 E10.06816
G1 X84.21 Y142.915 E10.10899
G1 X83.348 Y141.85 E10.17735
G1 X82.869 Y141.191 E10.21799
G1 X82.123 Y140.042 E10.28634
G1 X81.719 Y139.344 E10.32657
G1 X81.095 Y138.123 E10.39498
G1 X80.757 Y137.363 E10.43648
G1 X80.267 Y136.084 E10.50481
G1 X80.018 Y135.317 E10.54505
G1 X79.663 Y133.995 E10.61334
G1 X79.491 Y133.189 E10.65445
G1 X79.277 Y131.834 E10.72289
G1 X79.193 Y131.022 E10.76362
G1 X79.122 Y129.656 E10.83186
G1 X79.111 Y129.251 E10.85208
G1 X79.11 Y120.89 E11.26921
G1 X70.75 Y120.889 E11.68629
G1 X70.351 Y120.879 E11.7062
G1 X68.983 Y120.809 E11.77454
G1 X68.165 Y120.724 E11.81557
G1 X66.81 Y120.51 E11.88401
G1 X66.004 Y120.338 E11.92513
G1 X64.682 Y119.983 E11.99342
G1 X63.906 Y119.731 E12.03412
G1 X62.626 Y119.239 E12.10254
G1 X61.875 Y118.904 E12.14356
G1 X60.654 Y118.28 E12.21197
G1 X59.955 Y117.875 E12.25228
G1 X58.808 Y117.13 E12.32051
G1 X58.15 Y116.652 E12.36109
G1 X57.085 Y115.79 E12.42945
G1 X56.477 Y115.242 E12.47028
G1 X55.508 Y114.273 E12.53865
G1 X54.96 Y113.665 E12.57949
G1 X54.098 Y112.6 E12.64784
G1 X53.619 Y111.941 E12.68849
G1 X52.873 Y110.792 E12.75683
G1 X52.469 Y110.094 E12.79707
G1 X51.845 Y108.873 E12.86548
G1 X51.507 Y108.113 E12.90698
G1 X51.017 Y106.834 E12.97531
G1 X50.768 Y106.067 E13.01554
G1 X50.413 Y104.745 E13.08383
G1 X50.241 Y103.939 E13.12495
G1 X50.027 Y102.584 E13.19339
G1 X49.943 Y101.778 E13.23382
G1 X49.871 Y100.412 E13.30206
G1 X49.87 Y99.597 E13.34272
G1 X49.941 Y98.228 E13.41111
G1 X50.026 Y97.415 E13.45189
G1 X50.24 Y96.06 E13.52033
G1 X50.412 Y95.254 E13.56145
G1 X50.767 Y93.932 E13.62974
G1 X51.019 Y93.158 E13.67035
G1 X51.51 Y91.88 E13.73866
G1 X51.845 Y91.127 E13.77977
G1 X52.469 Y89.906 E13.84818
G1 X52.873 Y89.208 E13.88842
G1 X53.619 Y88.059 E13.95677
G1 X54.098 Y87.4 E13.99741
G1 X54.96 Y86.335 E14.06577
G1 X55.502 Y85.732 E14.10622
G1 X56.47 Y84.762 E14.17459
G1 X57.09 Y84.204 E14.2162
G1 X58.156 Y83.343 E14.28456
G1 X58.808 Y82.87 E14.32475
G1 X59.955 Y82.125 E14.39299
G1 X60.654 Y81.72 E14.43329
G1 X61.875 Y81.096 E14.5017
G1 X62.633 Y80.759 E14.54309
G1 X63.914 Y80.268 E14.61153
G1 X64.683 Y80.018 E14.65187
G1 X66.005 Y79.663 E14.72016
G1 X66.811 Y79.491 E14.76128
G1 X68.166 Y79.277 E14.82972
G1 X68.978 Y79.192 E14.87045
G1 X70.345 Y79.121 E14.93874
G1 X70.75 Y79.111 E14.95895
G1 X79.11 Y79.11 E15.37604
G1 X79.111 Y70.75 E15.79312
G1 X79.121 Y70.351 E15.81303
G1 X79.191 Y68.983 E15.88137
G1 X79.276 Y68.165 E15.9224
G1 X79.49 Y66.81 E15.99084
G1 X79.662 Y66.004 E16.03196
G1 X80.017 Y64.682 E16.10025
G1 X80.269 Y63.908 E16.14086
G1 X80.76 Y62.63 E16.20916
G1 X81.095 Y61.877 E16.25028
G1 X81.719 Y60.656 E16.31869
G1 X82.123 Y59.958 E16.35892
G1 X82.869 Y58.809 E16.42727
G0 F3600 X83.204 Y59.027
G1 F1800 X83.659 Y58.401 E16.46588
G1 X84.521 Y57.336 E16.53424
G1 X85.035 Y56.765 E16.57256
G1 X86.003 Y55.795 E16.64093
G1 X86.591 Y55.265 E16.68043
G1 X87.657 Y54.404 E16.74879
G1 X88.276 Y53.955 E16.78694
G1 X89.423 Y53.21 E16.85518
G1 X90.086 Y52.827 E16.89338
G1 X91.307 Y52.203 E16.96179
G1 X92.027 Y51.882 E17.00111
G1 X93.308 Y51.391 E17.06956
G1 X94.037 Y51.154 E17.1078
G1 X95.359 Y50.799 E17.17609
G1 X96.124 Y50.637 E17.21511
G1 X97.479 Y50.423 E17.28354
G1 X98.244 Y50.342 E17.32192
G1 X99.611 Y50.27 E17.39022
G1 X100.384 Y50.27 E17.42878
G1 X101.752 Y50.341 E17.49713
G1 X102.522 Y50.422 E17.53575
G1 X103.877 Y50.636 E17.60419
G1 X104.642 Y50.798 E17.6432
G1 X105.964 Y51.153 E17.7115
G1 X106.7 Y51.393 E17.75012
G1 X107.98 Y51.885 E17.81853
G1 X108.693 Y52.203 E17.85748
G1 X109.912 Y52.826 E17.92578
G1 X110.574 Y53.208 E17.96391
G1 X111.723 Y53.954 E18.03226
G1 X112.349 Y54.409 E18.07087
G1 X113.414 Y55.271 E18.13922
G1 X113.991 Y55.79 E18.17794
G1 X114.96 Y56.759 E18.24631
G1 X115.479 Y57.336 E18.28503
G1 X116.341 Y58.401 E18.35338
G1 X116.795 Y59.026 E18.39192
G1 X117.54 Y60.173 E18.46016
G1 X117.923 Y60.836 E18.49836
G1 X118.547 Y62.057 E18.56677
G1 X118.868 Y62.777 E18.6061
G1 X119.359 Y64.058 E18.67454
G1 X119.596 Y64.787 E18.71279
G1 X119.951 Y66.109 E18.78108
G1 X120.113 Y66.872 E18.81999
G1 X120.327 Y68.225 E18.88833
G1 X120.408 Y68.997 E18.92706
G1 X120.479 Y70.365 E18.9954
G1 X120.489 Y70.749 E19.01456
G1 X120.49 Y79.51 E19.45165
G1 X129.25 Y79.511 E19.88869
G1 X129.628 Y79.521 E19.90756
G1 X130.996 Y79.591 E19.9759
G1 X131.772 Y79.672 E20.01482
G1 X133.127 Y79.886 E20.08326
G1 X133.892 Y80.048 E20.12227
G1 X135.214 Y80.403 E20.19056
G1 X135.95 Y80.643 E20.22919
G1 X137.23 Y81.135 E20.2976
G1 X137.943 Y81.453 E20.33655
G1 X139.162 Y82.076 E20.40485
G1 X139.862 Y82.483 E20.44524
G1 X141.09 Y83.291 E20.51858
G1 X141.688 Y83.729 E20.55556
G1 X142.674 Y84.53 E20.61894
G1 X143.238 Y85.039 E20.65684
G1 X144.207 Y86.007 E20.72518
G1 X144.729 Y86.586 E20.76407
G1 X145.591 Y87.651 E20.83243
G1 X146.045 Y88.276 E20.87097
G1 X146.79 Y89.423 E20.9392
G1 X147.173 Y90.086 E20.9774
G1 X147.797 Y91.307 E21.04581
G1 X148.118 Y92.027 E21.08514
G1 X148.609 Y93.308 E21.15358
G1 X148.846 Y94.037 E21.19183
G1 X149.201 Y95.359 E21.26012
G1 X149.363 Y96.122 E21.29903
G1 X149.577 Y97.475 E21.36737
G1 X149.658 Y98.242 E21.40585
G1 X149.73 Y99.61 E21.4742
G1 X149.73 Y100.382 E21.51271
G1 X149.659 Y101.751 E21.5811
G1 X149.578 Y102.522 E21.61978
G1 X149.364 Y103.877 E21.68822
G1 X149.202 Y104.642 E21.72723
G1 X148.847 Y105.964 E21.79552
G1 X148.608 Y106.699 E21.83408
G1 X148.117 Y107.977 E21.90239
G1 X147.798 Y108.691 E21.9414
G1 X147.174 Y109.912 E22.00981
G1 X146.792 Y110.574 E22.04794
G1 X146.046 Y111.723 E22.11629
G1 X145.591 Y112.349 E22.1549
G1 X144.729 Y113.414 E22.22325
G1 X144.215 Y113.985 E22.26158
G1 X143.247 Y114.955 E22.32995
G1 X142.659 Y115.485 E22.36945
G1 X141.593 Y116.346 E22.43781
G1 X140.974 Y116.795 E22.47596
G1 X139.827 Y117.54 E22.5442
G1 X139.164 Y117.923 E22.5824
G1 X137.943 Y118.547 E22.65081
G1 X137.223 Y118.868 E22.69013
G1 X135.942 Y119.359 E22.75858
G1 X135.213 Y119.596 E22.79682
G1 X133.891 Y119.951 E22.86511
G1 X133.126 Y120.113 E22.90412
G1 X131.771 Y120.327 E22.97256
G1 X131.001 Y120.408 E23.01119
G1 X129.634 Y120.479 E23.07948
G1 X129.25 Y120.489 E23.09865
G1 X120.49 Y120.49 E23.53569
G1 X120.489 Y129.25 E23.97272
G1 X120.479 Y129.628 E23.99159
G1 X120.409 Y130.996 E24.05993
G1 X120.328 Y131.772 E24.09885
G1 X120.114 Y133.127 E24.16729
G1 X119.952 Y133.892 E24.2063
G1 X119.597 Y135.214 E24.2746
G1 X119.358 Y135.949 E24.31316
G1 X118.867 Y137.227 E24.38146
G1 X118.548 Y137.941 E24.42047
G1 X117.924 Y139.162 E24.48888
G1 X117.542 Y139.824 E24.52702
G1 X116.796 Y140.973 E24.59536
G1 X116.341 Y141.599 E24.63397
G1 X115.479 Y142.664 E24.70233
G1 X114.965 Y143.235 E24.74066
G1 X113.997 Y144.205 E24.80902
G1 X113.409 Y144.735 E24.84852
G1 X112.343 Y145.596 E24.91688
G1 X111.724 Y146.045 E24.95503
G1 X110.577 Y146.79 E25.02327
G1 X109.914 Y147.173 E25.06147
G1 X108.693 Y147.797 E25.12988
G1 X107.973 Y148.118 E25.16921
G1 X106.692 Y148.609 E25.23765
G1 X105.963 Y148.846 E25.27589
G1 X104.641 Y149.201 E25.34419
G1 X103.876 Y149.363 E25.3832
G1 X102.521 Y149.577 E25.45164
G1 X101.756 Y149.658 E25.49002
G1 X100.389 Y149.73 E25.55831
G1 X99.616 Y149.73 E25.59688
G1 X98.248 Y149.659 E25.66522
G1 X97.478 Y149.578 E25.70384
G1 X96.123 Y149.364 E25.77228
G1 X95.358 Y149.202 E25.8113
G1 X94.036 Y148.847 E25.87959
G1 X93.3 Y148.607 E25.91821
G1 X92.02 Y148.115 E25.98662
G1 X91.307 Y147.797 E26.02557
G1 X90.086 Y147.173 E26.09398
G1 X89.423 Y146.79 E26.13218
G1 X88.276 Y146.045 E26.20042
G1 X87.651 Y145.591 E26.23896
G1 X86.586 Y144.729 E26.30731
G1 X86.009 Y144.21 E26.34603
G1 X85.04 Y143.241 E26.4144
G1 X84.521 Y142.664 E26.45312
G1 X83.659 Y141.599 E26.52148
G1 X83.204 Y140.973 E26.56009
G1 X82.458 Y139.824 E26.62843
G1 X82.076 Y139.162 E26.66656
G1 X81.452 Y137.941 E26.73497
G1 X81.131 Y137.22 E26.77435
G1 X80.641 Y135.941 E26.84268
G1 X80.404 Y135.213 E26.88088
G1 X80.049 Y133.891 E26.94917
G1 X79.887 Y133.126 E26.98818
G1 X79.673 Y131.771 E27.05662
G1 X79.592 Y131.001 E27.09525
G1 X79.521 Y129.635 E27.16349
G1 X79.511 Y129.251 E27.18265
G1 X79.51 Y120.49 E27.61974
G1 X70.75 Y120.489 E28.05678
G1 X70.372 Y120.479 E28.07564
G1 X69.004 Y120.409 E28.14398
G1 X68.228 Y120.328 E28.18291
G1 X66.873 Y120.114 E28.25135
G1 X66.108 Y119.952 E28.29036
G1 X64.786 Y119.597 E28.35865
G1 X64.05 Y119.357 E28.39727
G1 X62.77 Y118.865 E28.46569
G1 X62.057 Y118.547 E28.50464
G1 X60.836 Y117.923 E28.57305
G1 X60.173 Y117.54 E28.61125
G1 X59.026 Y116.795 E28.67948
G1 X58.401 Y116.341 E28.71802
G1 X57.336 Y115.479 E28.78638
G1 X56.759 Y114.96 E28.8251
G1 X55.79 Y113.991 E28.89347
G1 X55.271 Y113.414 E28.93218
G1 X54.409 Y112.349 E29.00054
G1 X53.954 Y111.723 E29.03915
G1 X53.208 Y110.574 E29.1075
G1 X52.826 Y109.912 E29.14563
G1 X52.202 Y108.691 E29.21404
G1 X51.881 Y107.97 E29.25341
G1 X51.391 Y106.691 E29.32174
G1 X51.154 Y105.963 E29.35994
G1 X50.799 Y104.641 E29.42823
G1 X50.637 Y103.876 E29.46724
G1 X50.423 Y102.521 E29.53568
G1 X50.342 Y101.757 E29.57401
G1 X50.27 Y100.391 E29.64226
G1 X50.27 Y99.618 E29.68082
G1 X50.341 Y98.249 E29.74921
G1 X50.422 Y97.478 E29.78789
G1 X50.636 Y96.123 E29.85633
G1 X50.798 Y95.358 E29.89534
G1 X51.153 Y94.036 E29.96363
G1 X51.392 Y93.301 E30.00219
G1 X51.883 Y92.023 E30.0705
G1 X52.202 Y91.309 E30.10951
G1 X52.826 Y90.088 E30.17792
G1 X53.208 Y89.426 E30.21605
G1 X53.954 Y88.277 E30.2844
G1 X54.409 Y87.651 E30.32301
G1 X55.271 Y86.586 E30.39137
G1 X55.785 Y86.015 E30.42969
G1 X56.753 Y85.045 E30.49806
G1 X57.341 Y84.515 E30.53756
G1 X58.407 Y83.654 E30.60592
G1 X59.026 Y83.205 E30.64407
G1 X60.173 Y82.46 E30.71231
G1 X60.836 Y82.077 E30.75051
G1 X62.057 Y81.453 E30.81892
G1 X62.777 Y81.132 E30.85824
G1 X64.058 Y80.641 E30.92669
G1 X64.787 Y80.404 E30.96493
G1 X66.109 Y80.049 E31.03322
G1 X66.874 Y79.887 E31.07224
G1 X68.229 Y79.673 E31.14067
G1 X68.999 Y79.592 E31.1793
G1 X70.366 Y79.521 E31.24759
G1 X70.75 Y79.511 E31.26676
G1 X79.51 Y79.51 E31.7038
G1 X79.511 Y70.75 E32.14083
G1 X79.521 Y70.372 E32.1597
G1 X79.591 Y69.004 E32.22804
G1 X79.672 Y68.228 E32.26696
G1 X79.886 Y66.873 E32.3354
G1 X80.048 Y66.108 E32.37442
G1 X80.403 Y64.786 E32.44271
G1 X80.642 Y64.051 E32.48127
G1 X81.133 Y62.773 E32.54957
G1 X81.452 Y62.059 E32.58858
G1 X82.076 Y60.838 E32.65699
G1 X82.458 Y60.176 E32.69513
G1 X83.204 Y59.027 E32.76347
G0 F3600 X83.54 Y59.245
G1 F1800 X83.97 Y58.653 E32.79998
G1 X84.832 Y57.588 E32.86833
G1 X85.318 Y57.047 E32.90461
G1 X86.286 Y56.077 E32.97298
G1 X86.843 Y55.576 E33.01036
G1 X87.909 Y54.715 E33.07872
G1 X88.494 Y54.291 E33.11477
G1 X89.641 Y53.546 E33.183
G1 X90.268 Y53.183 E33.21915
G1 X91.489 Y52.559 E33.28756
G1 X92.17 Y52.256 E33.32475
G1 X93.451 Y51.765 E33.39319
G1 X94.141 Y51.541 E33.42938
G1 X95.463 Y51.186 E33.49767
G1 X96.186 Y51.032 E33.53455
G1 X97.541 Y50.818 E33.60299
G1 X98.265 Y50.742 E33.63931
G1 X99.632 Y50.67 E33.70761
G1 X100.363 Y50.669 E33.74407
G1 X101.731 Y50.74 E33.81242
