;FLAVOR:RepRap
;TIME:3406
;Filament used: 2.0473m
;Layer height: 0.1
;Generated with Cura_SteamEngine 2.5.0
M190 S60
M104 S200
M109 S200
G21 ;metric values
G90 ;absolute positioning
M82 ;set extruder to absolute mode
M107 ;start with the fan off
G28 X0 Y0 ;move X/Y to min endstops
G28 Z0 ;move Z to min endstops
G1 Z15.0 F9000 ;move the platform down 15mm
G92 E0 ;zero the extruded length
G1 F200 E3 ;extrude 3mm of feed stock
G92 E0 ;zero the extruded length again
G1 F9000
;Put printing message on LCD screen
M117 Printing...
;LAYER_COUNT:68
;LAYER:0
M107
G0 F3600 X59.132 Y82.971 Z0.3
;TYPE:SKIRT
G1 F1800 X60.268 Y82.233 E0.06758
G1 X60.969 Y81.828 E0.10798
G1 X62.177 Y81.211 E0.17565
G1 X62.932 Y80.874 E0.2169
G1 X64.202 Y80.387 E0.28476
G1 X64.975 Y80.136 E0.3253
G1 X66.284 Y79.785 E0.39292
G1 X67.081 Y79.615 E0.43357
G1 X68.423 Y79.402 E0.50137
G1 X69.243 Y79.316 E0.5425
G1 X70.597 Y79.246 E0.61014
G1 X71 Y79.236 E0.63025
G1 X129 Y79.236 E3.52388
G1 X129.397 Y79.246 E3.5437
G1 X130.752 Y79.315 E3.61139
G1 X131.578 Y79.401 E3.65282
G1 X132.92 Y79.614 E3.72061
G1 X133.724 Y79.786 E3.76163
G1 X135.032 Y80.138 E3.82921
G1 X135.798 Y80.387 E3.86939
G1 X137.068 Y80.874 E3.93725
G1 X137.823 Y81.211 E3.9785
G1 X139.029 Y81.827 E4.04606
G1 X139.729 Y82.231 E4.08638
G1 X140.867 Y82.97 E4.15408
G1 X141.524 Y83.447 E4.19458
G1 X142.58 Y84.301 E4.26234
G1 X143.19 Y84.851 E4.30332
G1 X144.149 Y85.81 E4.37098
G1 X144.699 Y86.42 E4.41196
G1 X145.553 Y87.476 E4.47971
G1 X146.029 Y88.132 E4.52015
G1 X146.767 Y89.268 E4.58773
G1 X147.172 Y89.969 E4.62812
G1 X147.789 Y91.177 E4.6958
G1 X148.126 Y91.932 E4.73705
G1 X148.613 Y93.202 E4.80491
G1 X148.864 Y93.975 E4.84545
G1 X149.215 Y95.284 E4.91307
G1 X149.384 Y96.08 E4.95367
G1 X149.597 Y97.42 E5.02136
G1 X149.683 Y98.236 E5.06229
G1 X149.754 Y99.591 E5.12999
G1 X149.755 Y100.401 E5.1704
G1 X149.685 Y101.757 E5.23814
G1 X149.599 Y102.578 E5.27932
G1 X149.386 Y103.92 E5.34711
G1 X149.214 Y104.724 E5.38813
G1 X148.862 Y106.032 E5.45571
G1 X148.613 Y106.797 E5.49585
G1 X148.127 Y108.065 E5.5636
G1 X147.79 Y108.821 E5.60489
G1 X147.173 Y110.029 E5.67256
G1 X146.769 Y110.729 E5.71289
G1 X146.03 Y111.867 E5.78058
G1 X145.553 Y112.524 E5.82109
G1 X144.699 Y113.58 E5.88884
G1 X144.155 Y114.185 E5.92944
G1 X143.197 Y115.145 E5.9971
G1 X142.574 Y115.705 E6.03889
G1 X141.517 Y116.558 E6.10665
G1 X140.868 Y117.029 E6.14666
G1 X139.732 Y117.767 E6.21425
G1 X139.031 Y118.172 E6.25464
G1 X137.823 Y118.789 E6.32231
G1 X137.068 Y119.126 E6.36356
G1 X135.798 Y119.613 E6.43142
G1 X135.025 Y119.864 E6.47197
G1 X133.716 Y120.215 E6.53958
G1 X132.919 Y120.385 E6.58024
G1 X131.577 Y120.598 E6.64803
G1 X130.757 Y120.684 E6.68916
G1 X129.403 Y120.754 E6.7568
G1 X129 Y120.764 E6.77691
G1 X71 Y120.764 E9.67055
G1 X70.603 Y120.754 E9.69036
G1 X69.248 Y120.685 E9.75805
G1 X68.422 Y120.599 E9.79948
G1 X67.08 Y120.386 E9.86727
G1 X66.276 Y120.214 E9.90829
G1 X64.968 Y119.862 E9.97587
G1 X64.202 Y119.613 E10.01605
G1 X62.932 Y119.126 E10.08391
G1 X62.177 Y118.789 E10.12516
G1 X60.969 Y118.172 E10.19283
G1 X60.268 Y117.767 E10.23322
G1 X59.132 Y117.029 E10.30081
G1 X58.476 Y116.553 E10.34125
G1 X57.42 Y115.699 E10.409
G1 X56.81 Y115.149 E10.44998
G1 X55.851 Y114.19 E10.51764
G1 X55.301 Y113.58 E10.55862
G1 X54.447 Y112.524 E10.62637
G1 X53.97 Y111.867 E10.66688
G1 X53.231 Y110.729 E10.73458
G1 X52.827 Y110.029 E10.7749
G1 X52.21 Y108.821 E10.84257
G1 X51.873 Y108.065 E10.88387
G1 X51.387 Y106.797 E10.95161
G1 X51.136 Y106.025 E10.99211
G1 X50.785 Y104.716 E11.05973
G1 X50.615 Y103.919 E11.10038
G1 X50.402 Y102.577 E11.16818
G1 X50.317 Y101.763 E11.20901
G1 X50.246 Y100.41 E11.2766
G1 X50.245 Y99.599 E11.31706
G1 X50.315 Y98.243 E11.3848
G1 X50.401 Y97.422 E11.42599
G1 X50.614 Y96.08 E11.49378
G1 X50.786 Y95.276 E11.5348
G1 X51.138 Y93.968 E11.60238
G1 X51.387 Y93.203 E11.64251
G1 X51.873 Y91.935 E11.71026
G1 X52.21 Y91.179 E11.75156
G1 X52.827 Y89.971 E11.81923
G1 X53.231 Y89.271 E11.85955
G1 X53.97 Y88.133 E11.92725
G1 X54.447 Y87.476 E11.96775
G1 X55.301 Y86.42 E12.03551
G1 X55.845 Y85.815 E12.0761
G1 X56.803 Y84.855 E12.14376
G1 X57.426 Y84.295 E12.18556
G1 X58.483 Y83.442 E12.25332
G1 X59.132 Y82.971 E12.29333
G0 F3600 X59.35 Y83.307
G1 F1800 X60.486 Y82.569 E12.36091
G1 X61.151 Y82.184 E12.39925
G1 X62.359 Y81.567 E12.46692
G1 X63.075 Y81.248 E12.50603
G1 X64.345 Y80.761 E12.57389
G1 X65.078 Y80.522 E12.61235
G1 X66.387 Y80.171 E12.67996
G1 X67.144 Y80.01 E12.71857
G1 X68.486 Y79.797 E12.78637
G1 X69.264 Y79.716 E12.82539
G1 X70.618 Y79.646 E12.89303
G1 X71 Y79.636 E12.9121
G1 X129 Y79.636 E15.80573
G1 X129.376 Y79.646 E15.82449
G1 X130.731 Y79.715 E15.89218
G1 X131.515 Y79.796 E15.9315
G1 X132.857 Y80.009 E15.99929
G1 X133.62 Y80.172 E16.03822
G1 X134.928 Y80.524 E16.1058
G1 X135.655 Y80.761 E16.14395
G1 X136.925 Y81.248 E16.21181
G1 X137.641 Y81.567 E16.25091
G1 X138.847 Y82.183 E16.31847
G1 X139.511 Y82.567 E16.35674
G1 X140.649 Y83.306 E16.42444
G1 X141.272 Y83.758 E16.46284
G1 X142.328 Y84.612 E16.53059
G1 X142.908 Y85.133 E16.56949
G1 X143.867 Y86.092 E16.63715
G1 X144.388 Y86.672 E16.67605
G1 X145.242 Y87.728 E16.74381
G1 X145.693 Y88.35 E16.78214
G1 X146.431 Y89.486 E16.84972
G1 X146.816 Y90.151 E16.88806
G1 X147.433 Y91.359 E16.95573
G1 X147.752 Y92.075 E16.99484
G1 X148.239 Y93.345 E17.0627
G1 X148.478 Y94.078 E17.10116
G1 X148.829 Y95.387 E17.16877
G1 X148.989 Y96.142 E17.20728
G1 X149.202 Y97.482 E17.27497
G1 X149.284 Y98.257 E17.31385
G1 X149.355 Y99.612 E17.38155
G1 X149.355 Y100.38 E17.41986
G1 X149.285 Y101.736 E17.4876
G1 X149.204 Y102.515 E17.52668
G1 X148.991 Y103.857 E17.59447
G1 X148.828 Y104.62 E17.63339
G1 X148.476 Y105.928 E17.70097
G1 X148.24 Y106.653 E17.73901
G1 X147.754 Y107.921 E17.80676
G1 X147.434 Y108.639 E17.84597
G1 X146.817 Y109.847 E17.91365
G1 X146.433 Y110.511 E17.95192
G1 X145.694 Y111.649 E18.01961
G1 X145.242 Y112.272 E18.05801
G1 X144.388 Y113.328 E18.12577
G1 X143.872 Y113.902 E18.16428
G1 X142.914 Y114.862 E18.23194
G1 X142.323 Y115.394 E18.27161
G1 X141.266 Y116.247 E18.33937
G1 X140.65 Y116.693 E18.37731
G1 X139.514 Y117.431 E18.4449
G1 X138.849 Y117.816 E18.48324
G1 X137.641 Y118.433 E18.55091
G1 X136.925 Y118.752 E18.59002
G1 X135.655 Y119.239 E18.65787
G1 X134.922 Y119.478 E18.69634
G1 X133.613 Y119.829 E18.76395
G1 X132.856 Y119.99 E18.80256
G1 X131.514 Y120.203 E18.87035
G1 X130.736 Y120.284 E18.90938
G1 X129.382 Y120.354 E18.97702
G1 X129 Y120.364 E18.99609
G1 X71 Y120.364 E21.88972
G1 X70.624 Y120.354 E21.90848
G1 X69.269 Y120.285 E21.97617
G1 X68.485 Y120.204 E22.01549
G1 X67.143 Y119.991 E22.08328
G1 X66.38 Y119.828 E22.12221
G1 X65.072 Y119.476 E22.18979
G1 X64.345 Y119.239 E22.22794
G1 X63.075 Y118.752 E22.2958
G1 X62.359 Y118.433 E22.3349
G1 X61.151 Y117.816 E22.40258
G1 X60.486 Y117.431 E22.44091
G1 X59.35 Y116.693 E22.5085
G1 X58.728 Y116.242 E22.54683
G1 X57.672 Y115.388 E22.61458
G1 X57.092 Y114.867 E22.65348
G1 X56.133 Y113.908 E22.72114
G1 X55.612 Y113.328 E22.76004
G1 X54.758 Y112.272 E22.82779
G1 X54.306 Y111.649 E22.8662
G1 X53.567 Y110.511 E22.93389
G1 X53.183 Y109.847 E22.97216
G1 X52.566 Y108.639 E23.03983
G1 X52.246 Y107.921 E23.07905
G1 X51.76 Y106.653 E23.1468
G1 X51.522 Y105.922 E23.18515
G1 X51.171 Y104.613 E23.25277
G1 X51.01 Y103.856 E23.29138
G1 X50.797 Y102.514 E23.35917
G1 X50.716 Y101.742 E23.39789
G1 X50.645 Y100.389 E23.46549
G1 X50.645 Y99.62 E23.50385
G1 X50.715 Y98.264 E23.5716
G1 X50.796 Y97.485 E23.61067
G1 X51.009 Y96.143 E23.67846
G1 X51.172 Y95.38 E23.71739
G1 X51.524 Y94.072 E23.78496
G1 X51.76 Y93.347 E23.823
G1 X52.246 Y92.079 E23.89075
G1 X52.566 Y91.361 E23.92997
G1 X53.183 Y90.153 E23.99764
G1 X53.567 Y89.489 E24.03591
G1 X54.306 Y88.351 E24.10361
G1 X54.758 Y87.728 E24.14201
G1 X55.612 Y86.672 E24.20976
G1 X56.128 Y86.098 E24.24827
G1 X57.086 Y85.138 E24.31593
G1 X57.677 Y84.606 E24.3556
G1 X58.734 Y83.753 E24.42337
G1 X59.35 Y83.307 E24.46131
G0 F3600 X59.568 Y83.642
G1 F1800 X60.704 Y82.904 E24.52889
G1 X61.333 Y82.54 E24.56515
G1 X62.541 Y81.923 E24.63282
G1 X63.219 Y81.621 E24.66985
G1 X64.489 Y81.134 E24.73771
G1 X65.182 Y80.909 E24.77406
G1 X66.491 Y80.558 E24.84168
G1 X67.207 Y80.406 E24.87819
G1 X68.549 Y80.193 E24.94598
G1 X69.285 Y80.115 E24.98291
G1 X70.639 Y80.045 E25.05055
G1 X71 Y80.036 E25.06857
G1 X129 Y80.036 E27.9622
G1 X129.356 Y80.045 E27.97997
G1 X130.711 Y80.114 E28.04765
G1 X131.452 Y80.192 E28.08483
G1 X132.794 Y80.405 E28.15262
G1 X133.516 Y80.558 E28.18944
G1 X134.824 Y80.91 E28.25702
G1 X135.511 Y81.134 E28.29307
G1 X136.781 Y81.621 E28.36093
G1 X137.459 Y81.923 E28.39796
G1 X138.665 Y82.539 E28.46552
G1 X139.293 Y82.902 E28.50171
G1 X140.431 Y83.641 E28.5694
G1 X141.021 Y84.069 E28.60577
G1 X142.077 Y84.923 E28.67352
G1 X142.625 Y85.416 E28.7103
G1 X143.584 Y86.375 E28.77796
G1 X144.077 Y86.923 E28.81474
G1 X144.931 Y87.979 E28.88249
G1 X145.358 Y88.568 E28.91879
G1 X146.096 Y89.704 E28.98637
G1 X146.46 Y90.333 E29.02263
G1 X147.077 Y91.541 E29.0903
G1 X147.379 Y92.219 E29.12733
G1 X147.866 Y93.489 E29.19519
G1 X148.091 Y94.182 E29.23154
G1 X148.442 Y95.491 E29.29915
G1 X148.594 Y96.205 E29.33557
G1 X148.807 Y97.545 E29.40327
G1 X148.884 Y98.278 E29.44004
G1 X148.955 Y99.633 E29.50773
G1 X148.956 Y100.36 E29.544
G1 X148.886 Y101.716 E29.61174
G1 X148.808 Y102.452 E29.64867
G1 X148.595 Y103.794 E29.71646
G1 X148.442 Y104.516 E29.75328
G1 X148.09 Y105.824 E29.82086
G1 X147.866 Y106.51 E29.85686
G1 X147.38 Y107.778 E29.92461
G1 X147.078 Y108.457 E29.96168
G1 X146.461 Y109.665 E30.02936
G1 X146.098 Y110.293 E30.06555
G1 X145.359 Y111.431 E30.13324
G1 X144.931 Y112.021 E30.16961
G1 X144.077 Y113.077 E30.23736
G1 X143.589 Y113.62 E30.27378
G1 X142.631 Y114.58 E30.34145
G1 X142.072 Y115.082 E30.37893
G1 X141.015 Y115.935 E30.44669
G1 X140.432 Y116.358 E30.48263
G1 X139.296 Y117.096 E30.55022
G1 X138.667 Y117.46 E30.58647
G1 X137.459 Y118.077 E30.65415
G1 X136.781 Y118.379 E30.69117
G1 X135.511 Y118.866 E30.75903
G1 X134.818 Y119.091 E30.79538
G1 X133.509 Y119.442 E30.863
G1 X132.793 Y119.594 E30.89952
G1 X131.451 Y119.807 E30.96731
G1 X130.715 Y119.885 E31.00423
G1 X129.361 Y119.955 E31.07187
G1 X129 Y119.964 E31.08989
G1 X71 Y119.964 E33.98352
G1 X70.644 Y119.955 E34.00129
G1 X69.289 Y119.886 E34.06898
G1 X68.548 Y119.808 E34.10615
G1 X67.206 Y119.595 E34.17394
G1 X66.484 Y119.442 E34.21076
G1 X65.176 Y119.09 E34.27834
G1 X64.489 Y118.866 E34.31439
G1 X63.219 Y118.379 E34.38225
G1 X62.541 Y118.077 E34.41928
G1 X61.333 Y117.46 E34.48695
G1 X60.704 Y117.096 E34.52321
G1 X59.568 Y116.358 E34.59079
G1 X58.979 Y115.931 E34.62709
G1 X57.923 Y115.077 E34.69484
G1 X57.375 Y114.584 E34.73162
G1 X56.416 Y113.625 E34.79928
G1 X55.923 Y113.077 E34.83606
G1 X55.069 Y112.021 E34.90381
G1 X54.641 Y111.431 E34.94018
G1 X53.902 Y110.293 E35.00787
G1 X53.539 Y109.665 E35.04406
G1 X52.922 Y108.457 E35.11174
G1 X52.62 Y107.778 E35.14881
G1 X52.134 Y106.51 E35.21656
G1 X51.909 Y105.818 E35.25286
G1 X51.558 Y104.509 E35.32047
G1 X51.406 Y103.793 E35.35699
G1 X51.193 Y102.451 E35.42478
G1 X51.116 Y101.721 E35.4614
G1 X51.045 Y100.368 E35.529
G1 X51.044 Y99.64 E35.56532
G1 X51.114 Y98.284 E35.63306
G1 X51.192 Y97.548 E35.66999
G1 X51.405 Y96.206 E35.73778
G1 X51.558 Y95.484 E35.7746
G1 X51.91 Y94.176 E35.84217
G1 X52.134 Y93.49 E35.87818
G1 X52.62 Y92.222 E35.94593
G1 X52.922 Y91.543 E35.983
G1 X53.539 Y90.335 E36.05067
G1 X53.902 Y89.707 E36.08686
G1 X54.641 Y88.569 E36.15456
G1 X55.069 Y87.979 E36.19092
G1 X55.923 Y86.923 E36.25868
G1 X56.411 Y86.38 E36.2951
G1 X57.369 Y85.42 E36.36277
G1 X57.928 Y84.918 E36.40025
G1 X58.985 Y84.065 E36.46801
G1 X59.568 Y83.642 E36.50395
G0 F3600 X59.785 Y83.977
G1 F1800 X60.921 Y83.239 E36.57153
G1 X61.515 Y82.896 E36.60575
G1 X62.723 Y82.279 E36.67343
G1 X63.362 Y81.995 E36.70831
G1 X64.632 Y81.508 E36.77617
G1 X65.286 Y81.295 E36.81049
G1 X66.595 Y80.944 E36.8781
G1 X67.269 Y80.801 E36.91248
G1 X68.611 Y80.588 E36.98027
G1 X69.305 Y80.515 E37.01508
G1 X70.659 Y80.445 E37.08272
G1 X71 Y80.436 E37.09974
G1 X129 Y80.436 E39.99337
G1 X129.336 Y80.445 E40.01014
G1 X130.691 Y80.514 E40.07783
G1 X131.39 Y80.587 E40.11289
G1 X132.732 Y80.8 E40.18068
G1 X133.412 Y80.945 E40.21537
G1 X134.72 Y81.297 E40.28295
G1 X135.368 Y81.508 E40.31695
G1 X136.638 Y81.995 E40.38481
G1 X137.277 Y82.279 E40.4197
G1 X138.483 Y82.895 E40.48726
G1 X139.076 Y83.238 E40.52144
G1 X140.214 Y83.977 E40.58913
G1 X140.769 Y84.38 E40.62335
G1 X141.825 Y85.234 E40.69111
G1 X142.342 Y85.699 E40.7258
G1 X143.301 Y86.658 E40.79346
G1 X143.766 Y87.175 E40.82815
G1 X144.62 Y88.231 E40.89591
G1 X145.023 Y88.785 E40.93009
G1 X145.761 Y89.921 E40.99767
G1 X146.104 Y90.515 E41.03189
G1 X146.721 Y91.723 E41.09957
G1 X147.005 Y92.362 E41.13445
G1 X147.492 Y93.632 E41.20231
G1 X147.705 Y94.286 E41.23663
G1 X148.056 Y95.595 E41.30424
G1 X148.199 Y96.268 E41.33857
G1 X148.412 Y97.608 E41.40626
G1 X148.485 Y98.299 E41.44092
G1 X148.556 Y99.654 E41.50862
G1 X148.556 Y100.339 E41.54279
G1 X148.486 Y101.695 E41.61053
G1 X148.413 Y102.39 E41.6454
G1 X148.2 Y103.732 E41.71319
G1 X148.055 Y104.412 E41.74788
G1 X147.703 Y105.72 E41.81545
G1 X147.493 Y106.367 E41.84939
G1 X147.007 Y107.635 E41.91714
G1 X146.722 Y108.275 E41.95209
G1 X146.105 Y109.483 E42.01977
G1 X145.762 Y110.076 E42.05394
G1 X145.023 Y111.214 E42.12164
G1 X144.62 Y111.769 E42.15586
G1 X143.766 Y112.825 E42.22361
G1 X143.306 Y113.337 E42.25795
G1 X142.348 Y114.297 E42.32562
G1 X141.821 Y114.771 E42.36098
G1 X140.764 Y115.624 E42.42874
G1 X140.215 Y116.023 E42.4626
G1 X139.079 Y116.761 E42.53019
G1 X138.485 Y117.104 E42.56441
G1 X137.277 Y117.721 E42.63208
G1 X136.638 Y118.005 E42.66697
G1 X135.368 Y118.492 E42.73483
G1 X134.714 Y118.705 E42.76914
G1 X133.405 Y119.056 E42.83675
G1 X132.731 Y119.199 E42.87113
G1 X131.389 Y119.412 E42.93892
G1 X130.695 Y119.485 E42.97373
G1 X129.341 Y119.555 E43.04138
G1 X129 Y119.564 E43.05839
G1 X71 Y119.564 E45.95203
G1 X70.664 Y119.555 E45.9688
G1 X69.309 Y119.486 E46.03648
G1 X68.61 Y119.413 E46.07155
G1 X67.268 Y119.2 E46.13934
G1 X66.588 Y119.055 E46.17403
G1 X65.28 Y118.703 E46.2416
G1 X64.632 Y118.492 E46.2756
G1 X63.362 Y118.005 E46.34346
G1 X62.723 Y117.721 E46.37835
G1 X61.515 Y117.104 E46.44602
G1 X60.921 Y116.761 E46.48024
G1 X59.785 Y116.023 E46.54783
G1 X59.231 Y115.62 E46.58201
G1 X58.175 Y114.766 E46.64976
G1 X57.658 Y114.301 E46.68445
G1 X56.699 Y113.342 E46.75212
G1 X56.234 Y112.825 E46.78681
G1 X55.38 Y111.769 E46.85456
G1 X54.977 Y111.214 E46.88878
G1 X54.238 Y110.076 E46.95648
G1 X53.895 Y109.483 E46.99066
G1 X53.278 Y108.275 E47.05833
G1 X52.993 Y107.635 E47.09328
G1 X52.507 Y106.367 E47.16103
G1 X52.295 Y105.714 E47.19528
G1 X51.944 Y104.405 E47.2629
G1 X51.801 Y103.731 E47.29727
G1 X51.588 Y102.389 E47.36506
G1 X51.515 Y101.7 E47.39963
G1 X51.444 Y100.347 E47.46722
G1 X51.444 Y99.661 E47.50145
G1 X51.514 Y98.305 E47.56919
G1 X51.587 Y97.61 E47.60405
G1 X51.8 Y96.268 E47.67184
G1 X51.945 Y95.588 E47.70653
G1 X52.297 Y94.28 E47.77411
G1 X52.507 Y93.633 E47.80805
G1 X52.993 Y92.365 E47.87579
G1 X53.278 Y91.725 E47.91075
G1 X53.895 Y90.517 E47.97842
G1 X54.238 Y89.924 E48.0126
G1 X54.977 Y88.786 E48.08029
G1 X55.38 Y88.231 E48.11451
G1 X56.234 Y87.175 E48.18227
G1 X56.694 Y86.663 E48.21661
G1 X57.652 Y85.703 E48.28427
G1 X58.179 Y85.229 E48.31963
G1 X59.236 Y84.376 E48.3874
G1 X59.785 Y83.977 E48.42126
G0 F3600 X60.003 Y84.313
G1 F1800 X61.139 Y83.575 E48.48884
G1 X61.697 Y83.253 E48.52098
G1 X62.905 Y82.636 E48.58866
G1 X63.505 Y82.368 E48.62144
G1 X64.775 Y81.881 E48.6893
G1 X65.389 Y81.682 E48.7215
G1 X66.698 Y81.331 E48.78911
G1 X67.332 Y81.196 E48.82145
G1 X68.674 Y80.983 E48.88924
G1 X69.326 Y80.914 E48.92195
G1 X70.68 Y80.844 E48.9896
G1 X71 Y80.836 E49.00557
G1 X129 Y80.836 E51.8992
G1 X129.315 Y80.844 E51.91492
G1 X130.67 Y80.913 E51.98261
G1 X131.327 Y80.982 E52.01556
G1 X132.669 Y81.195 E52.08336
G1 X133.308 Y81.331 E52.11595
G1 X134.616 Y81.683 E52.18353
G1 X135.225 Y81.881 E52.21548
G1 X136.495 Y82.368 E52.28334
G1 X137.095 Y82.636 E52.31612
G1 X138.301 Y83.252 E52.38368
