;FLAVOR:RepRap
;TIME:610
;Filament used: 0.289191m
;Layer height: 0.1
;Generated with Cura_SteamEngine 2.5.0
M190 S60
M104 S200
M109 S200
G21 ;metric values
G90 ;absolute positioning
M82 ;set extruder to absolute mode
M107 ;start with the fan off
G28 X0 Y0 ;move X/Y to min endstops
G28 Z0 ;move Z to min endstops
G1 Z15.0 F9000 ;move the platform down 15mm
G92 E0 ;zero the extruded length
G1 F200 E3 ;extrude 3mm of feed stock
G92 E0 ;zero the extruded length again
G1 F9000
;Put printing message on LCD screen
M117 Printing...
;LAYER_COUNT:63
;LAYER:0
M107
G0 F3600 X90.246 Y90.073 Z0.3
;TYPE:SKIRT
G1 F1800 X90.608 Y89.735 E0.02471
G1 X91.581 Y88.924 E0.0879
G1 X92.152 Y88.52 E0.1228
G1 X93.685 Y87.61 E0.21174
G1 X94.198 Y87.35 E0.24043
G1 X94.877 Y87.059 E0.27729
G1 X95.365 Y86.883 E0.30317
G1 X96.779 Y86.466 E0.37672
G1 X97.57 Y86.31 E0.41694
G1 X99.544 Y86.105 E0.51596
G1 X100.395 Y86.099 E0.55841
G1 X102.126 Y86.256 E0.64513
G1 X102.81 Y86.373 E0.67975
G1 X104.002 Y86.675 E0.7411
G1 X104.658 Y86.897 E0.77565
G1 X106.299 Y87.602 E0.86475
G1 X106.915 Y87.927 E0.8995
G1 X107.945 Y88.579 E0.96032
G1 X108.483 Y88.98 E0.99379
G1 X109.776 Y90.107 E1.07937
G1 X110.266 Y90.609 E1.11437
G1 X111.077 Y91.583 E1.1776
G1 X111.479 Y92.151 E1.21231
G1 X112.389 Y93.683 E1.30121
G1 X112.652 Y94.201 E1.3302
G1 X112.943 Y94.882 E1.36714
G1 X113.117 Y95.366 E1.3928
G1 X113.534 Y96.779 E1.4663
G1 X113.69 Y97.569 E1.50648
G1 X113.895 Y99.542 E1.60544
G1 X113.901 Y100.394 E1.64795
G1 X113.744 Y102.126 E1.73471
G1 X113.628 Y102.805 E1.76908
G1 X113.333 Y103.975 E1.82928
G1 X113.127 Y104.595 E1.86187
G1 X112.491 Y106.118 E1.94421
G1 X112.144 Y106.782 E1.98159
G1 X111.291 Y108.124 E2.06093
G1 X110.978 Y108.557 E2.08758
G1 X110.555 Y109.072 E2.12083
G1 X110.195 Y109.46 E2.14724
G1 X108.995 Y110.607 E2.23005
G1 X108.489 Y111.023 E2.26273
G1 X107.498 Y111.721 E2.32321
G1 X107.088 Y111.977 E2.34732
G1 X106.346 Y112.386 E2.38959
G1 X105.85 Y112.621 E2.41698
G1 X104.436 Y113.184 E2.49291
G1 X103.745 Y113.395 E2.52895
G1 X102.171 Y113.738 E2.60932
G1 X101.519 Y113.83 E2.64217
G1 X100.287 Y113.91 E2.70377
G1 X99.605 Y113.901 E2.7378
G1 X97.874 Y113.744 E2.82451
G1 X97.19 Y113.627 E2.85913
G1 X95.998 Y113.325 E2.92048
G1 X95.338 Y113.101 E2.95525
G1 X93.683 Y112.388 E3.04516
G1 X93.068 Y112.063 E3.07986
G1 X92.052 Y111.419 E3.13987
G1 X91.667 Y111.145 E3.16345
G1 X90.98 Y110.598 E3.20726
G1 X90.584 Y110.242 E3.23383
G1 X89.611 Y109.253 E3.30304
G1 X89.154 Y108.705 E3.33864
G1 X88.164 Y107.303 E3.42427
G1 X87.738 Y106.553 E3.4673
G1 X86.927 Y104.73 E3.56685
G1 X86.699 Y104.09 E3.60074
G1 X86.438 Y103.124 E3.65066
G1 X86.309 Y102.43 E3.68588
G1 X86.104 Y100.454 E3.78499
G1 X86.099 Y99.602 E3.8275
G1 X86.256 Y97.873 E3.91411
G1 X86.42 Y97.02 E3.95745
G1 X86.989 Y95.102 E4.05726
G1 X87.312 Y94.306 E4.10012
G1 X88.116 Y92.776 E4.18635
G1 X88.502 Y92.168 E4.22228
G1 X89.336 Y91.066 E4.29123
G1 X89.666 Y90.679 E4.3166
G1 X90.246 Y90.073 E4.35845
G0 F3600 X90.535 Y90.349
G1 F1800 X90.864 Y90.042 E4.3809
G1 X91.837 Y89.231 E4.44409
G1 X92.356 Y88.864 E4.47581
G1 X93.889 Y87.954 E4.56475
G1 X94.355 Y87.717 E4.59083
G1 X95.034 Y87.426 E4.62769
G1 X95.479 Y87.266 E4.65128
G1 X96.893 Y86.849 E4.72483
G1 X97.611 Y86.707 E4.76134
G1 X99.585 Y86.502 E4.86036
G1 X100.359 Y86.497 E4.89897
G1 X102.09 Y86.654 E4.98569
G1 X102.711 Y86.761 E5.01712
G1 X103.903 Y87.063 E5.07847
G1 X104.5 Y87.265 E5.10992
G1 X106.141 Y87.97 E5.19902
G1 X106.701 Y88.265 E5.2306
G1 X107.731 Y88.917 E5.29142
G1 X108.22 Y89.282 E5.32186
G1 X109.513 Y90.409 E5.40743
G1 X109.959 Y90.865 E5.43925
G1 X110.77 Y91.839 E5.50249
G1 X111.135 Y92.355 E5.53402
G1 X112.045 Y93.887 E5.62292
G1 X112.284 Y94.358 E5.64927
G1 X112.575 Y95.039 E5.68622
G1 X112.733 Y95.479 E5.70954
G1 X113.15 Y96.892 E5.78304
G1 X113.293 Y97.611 E5.81961
G1 X113.498 Y99.584 E5.91858
G1 X113.503 Y100.358 E5.95719
G1 X113.346 Y102.09 E6.04396
G1 X113.241 Y102.707 E6.07518
G1 X112.946 Y103.877 E6.13538
G1 X112.758 Y104.44 E6.16499
G1 X112.122 Y105.963 E6.24734
G1 X111.807 Y106.568 E6.28137
G1 X110.954 Y107.91 E6.3607
G1 X110.669 Y108.303 E6.38492
G1 X110.246 Y108.818 E6.41817
G1 X109.919 Y109.171 E6.44217
G1 X108.719 Y110.318 E6.52499
G1 X108.258 Y110.696 E6.55473
G1 X107.267 Y111.394 E6.61521
G1 X106.895 Y111.627 E6.63711
G1 X106.153 Y112.036 E6.67938
G1 X105.702 Y112.249 E6.70426
G1 X104.288 Y112.812 E6.78019
G1 X103.66 Y113.004 E6.81295
G1 X102.086 Y113.347 E6.89332
G1 X101.493 Y113.431 E6.9232
G1 X100.261 Y113.511 E6.9848
G1 X99.641 Y113.503 E7.01573
G1 X97.91 Y113.346 E7.10245
G1 X97.289 Y113.239 E7.13389
G1 X96.097 Y112.937 E7.19523
G1 X95.496 Y112.734 E7.22688
G1 X93.841 Y112.021 E7.31679
G1 X93.283 Y111.725 E7.3483
G1 X92.267 Y111.081 E7.40831
G1 X91.916 Y110.832 E7.42978
G1 X91.229 Y110.285 E7.4736
G1 X90.87 Y109.961 E7.49772
G1 X89.897 Y108.972 E7.56694
G1 X89.481 Y108.474 E7.59931
G1 X88.491 Y107.072 E7.68494
G1 X88.103 Y106.391 E7.72404
G1 X87.292 Y104.568 E7.82359
G1 X87.085 Y103.985 E7.85445
G1 X86.824 Y103.019 E7.90437
G1 X86.707 Y102.389 E7.93634
G1 X86.502 Y100.413 E8.03545
G1 X86.497 Y99.638 E8.07412
G1 X86.654 Y97.909 E8.16073
G1 X86.803 Y97.133 E8.20016
G1 X87.372 Y95.215 E8.29997
G1 X87.666 Y94.492 E8.33891
G1 X88.47 Y92.962 E8.42514
G1 X88.821 Y92.409 E8.45781
G1 X89.655 Y91.307 E8.52676
G1 X89.955 Y90.955 E8.54984
G1 X90.535 Y90.349 E8.59169
G0 F3600 X90.824 Y90.626
G1 F1800 X91.12 Y90.35 E8.61188
G1 X92.093 Y89.539 E8.67507
G1 X92.56 Y89.208 E8.70363
G1 X94.093 Y88.298 E8.79257
G1 X94.513 Y88.085 E8.81606
G1 X95.192 Y87.794 E8.85292
G1 X95.592 Y87.65 E8.87413
G1 X97.006 Y87.233 E8.94768
G1 X97.652 Y87.105 E8.98053
G1 X99.626 Y86.9 E9.07955
G1 X100.323 Y86.896 E9.11432
G1 X102.054 Y87.053 E9.20104
G1 X102.613 Y87.148 E9.22932
G1 X103.805 Y87.45 E9.29067
G1 X104.342 Y87.632 E9.31896
G1 X105.983 Y88.337 E9.40807
G1 X106.487 Y88.603 E9.4365
G1 X107.517 Y89.255 E9.49731
G1 X107.957 Y89.583 E9.52469
G1 X109.25 Y90.71 E9.61027
G1 X109.652 Y91.12 E9.63891
G1 X110.463 Y92.094 E9.70215
G1 X110.791 Y92.56 E9.73058
G1 X111.701 Y94.092 E9.81948
G1 X111.916 Y94.515 E9.84315
G1 X112.207 Y95.196 E9.8801
G1 X112.35 Y95.592 E9.9011
G1 X112.767 Y97.005 E9.9746
G1 X112.895 Y97.652 E10.00751
G1 X113.1 Y99.625 E10.10647
G1 X113.104 Y100.322 E10.14124
G1 X112.947 Y102.054 E10.22801
G1 X112.853 Y102.609 E10.25609
G1 X112.558 Y103.779 E10.31629
G1 X112.389 Y104.286 E10.34295
G1 X111.753 Y105.809 E10.42529
G1 X111.469 Y106.353 E10.45591
G1 X110.616 Y107.695 E10.53524
G1 X110.36 Y108.049 E10.55704
G1 X109.937 Y108.564 E10.59029
G1 X109.642 Y108.881 E10.61189
G1 X108.442 Y110.028 E10.69471
G1 X108.028 Y110.369 E10.72147
G1 X107.037 Y111.067 E10.78194
G1 X106.702 Y111.277 E10.80167
G1 X105.96 Y111.686 E10.84394
G1 X105.554 Y111.878 E10.86634
G1 X104.14 Y112.441 E10.94227
G1 X103.575 Y112.613 E10.97174
G1 X102.001 Y112.956 E11.05211
G1 X101.467 Y113.031 E11.07901
G1 X100.235 Y113.111 E11.14061
G1 X99.677 Y113.104 E11.16845
G1 X97.946 Y112.947 E11.25516
G1 X97.387 Y112.852 E11.28345
G1 X96.195 Y112.55 E11.3448
G1 X95.655 Y112.366 E11.37326
G1 X94 Y111.653 E11.46317
G1 X93.497 Y111.388 E11.49153
G1 X92.481 Y110.744 E11.55154
G1 X92.166 Y110.519 E11.57086
G1 X91.479 Y109.972 E11.61467
G1 X91.155 Y109.681 E11.63639
G1 X90.182 Y108.692 E11.70561
G1 X89.807 Y108.244 E11.73476
G1 X88.817 Y106.842 E11.82039
G1 X88.469 Y106.228 E11.8556
G1 X87.658 Y104.405 E11.95514
G1 X87.472 Y103.881 E11.98288
G1 X87.211 Y102.915 E12.0328
G1 X87.105 Y102.347 E12.06163
G1 X86.9 Y100.371 E12.16074
G1 X86.896 Y99.674 E12.19552
G1 X87.053 Y97.945 E12.28213
G1 X87.187 Y97.247 E12.31759
G1 X87.756 Y95.329 E12.4174
G1 X88.02 Y94.678 E12.45245
G1 X88.824 Y93.148 E12.53868
G1 X89.14 Y92.651 E12.56806
G1 X89.974 Y91.549 E12.63701
G1 X90.244 Y91.232 E12.65779
G1 X90.824 Y90.626 E12.69963
G0 F3600 X91.113 Y90.902
G1 F1800 X91.376 Y90.657 E12.71757
G1 X92.349 Y89.846 E12.78076
G1 X92.765 Y89.552 E12.80618
G1 X94.298 Y88.642 E12.89512
G1 X94.67 Y88.453 E12.91593
G1 X95.349 Y88.162 E12.95279
G1 X95.705 Y88.034 E12.97166
G1 X97.119 Y87.617 E13.04521
G1 X97.693 Y87.503 E13.07441
G1 X99.667 Y87.298 E13.17342
G1 X100.287 Y87.294 E13.20435
G1 X102.018 Y87.451 E13.29107
G1 X102.515 Y87.536 E13.31622
G1 X103.707 Y87.838 E13.37757
G1 X104.184 Y88 E13.4027
G1 X105.825 Y88.705 E13.49181
G1 X106.274 Y88.941 E13.51712
G1 X107.304 Y89.593 E13.57793
G1 X107.695 Y89.885 E13.60228
G1 X108.988 Y91.012 E13.68785
G1 X109.344 Y91.376 E13.71325
G1 X110.155 Y92.35 E13.77649
G1 X110.447 Y92.764 E13.80176
G1 X111.357 Y94.296 E13.89066
G1 X111.549 Y94.673 E13.91177
G1 X111.84 Y95.354 E13.94872
G1 X111.966 Y95.705 E13.96732
G1 X112.383 Y97.118 E14.04082
G1 X112.497 Y97.693 E14.07007
G1 X112.702 Y99.666 E14.16903
G1 X112.706 Y100.286 E14.19996
G1 X112.549 Y102.018 E14.28673
G1 X112.465 Y102.511 E14.31168
G1 X112.17 Y103.681 E14.37188
G1 X112.02 Y104.132 E14.39559
G1 X111.384 Y105.655 E14.47793
G1 X111.132 Y106.139 E14.50515
G1 X110.279 Y107.481 E14.58449
G1 X110.051 Y107.795 E14.60385
G1 X109.628 Y108.31 E14.6371
G1 X109.366 Y108.592 E14.6563
G1 X108.166 Y109.739 E14.73912
G1 X107.798 Y110.042 E14.7629
G1 X106.807 Y110.74 E14.82337
G1 X106.509 Y110.926 E14.8409
G1 X105.767 Y111.335 E14.88317
G1 X105.406 Y111.506 E14.9031
G1 X103.992 Y112.069 E14.97903
G1 X103.489 Y112.223 E15.00527
G1 X101.915 Y112.566 E15.08564
G1 X101.441 Y112.632 E15.10952
G1 X100.209 Y112.712 E15.17111
G1 X99.713 Y112.706 E15.19586
G1 X97.982 Y112.549 E15.28258
G1 X97.485 Y112.464 E15.30773
G1 X96.293 Y112.162 E15.36908
G1 X95.813 Y111.999 E15.39437
G1 X94.158 Y111.286 E15.48427
G1 X93.711 Y111.05 E15.50949
G1 X92.695 Y110.406 E15.56951
G1 X92.415 Y110.206 E15.58667
G1 X91.728 Y109.659 E15.63048
G1 X91.44 Y109.4 E15.64981
G1 X90.467 Y108.411 E15.71903
G1 X90.134 Y108.013 E15.74492
G1 X89.144 Y106.611 E15.83054
G1 X88.834 Y106.066 E15.86182
G1 X88.023 Y104.243 E15.96137
G1 X87.858 Y103.777 E15.98603
G1 X87.597 Y102.811 E16.03595
G1 X87.503 Y102.306 E16.06158
G1 X87.298 Y100.33 E16.16069
G1 X87.294 Y99.711 E16.19157
G1 X87.451 Y97.982 E16.27819
G1 X87.57 Y97.361 E16.30973
G1 X88.139 Y95.443 E16.40955
G1 X88.374 Y94.864 E16.44072
G1 X89.178 Y93.334 E16.52695
G1 X89.459 Y92.892 E16.55308
G1 X90.293 Y91.79 E16.62203
G1 X90.533 Y91.508 E16.6405
G1 X91.113 Y90.902 E16.68235
G1 F1500 E10.18235
G0 F3600 X92.827 Y92.76
G0 X93.701 Y93.701
G0 X93.757 Y93.757
G0 X93.687 Y93.687
;TYPE:WALL-INNER
G1 F1500 E16.68235
G1 F1800 X94.207 Y93.206 E16.71769
G1 X94.76 Y92.77 E16.75283
G1 X95.336 Y92.385 E16.78739
G1 X95.942 Y92.046 E16.82203
G1 X96.586 Y91.75 E16.85739
G1 X97.242 Y91.508 E16.89228
G1 X97.917 Y91.317 E16.92728
G1 X98.595 Y91.182 E16.96177
G1 X99.296 Y91.1 E16.99698
G1 X100 Y91.072 E17.03213
G1 X100.704 Y91.1 E17.06728
G1 X101.405 Y91.182 E17.10249
G1 X102.083 Y91.317 E17.13698
G1 X102.758 Y91.508 E17.17198
G1 X103.414 Y91.75 E17.20686
G1 X104.058 Y92.046 E17.24222
G1 X104.664 Y92.385 E17.27687
G1 X105.24 Y92.77 E17.31143
G1 X105.793 Y93.206 E17.34656
G1 X106.313 Y93.687 E17.3819
G1 X106.794 Y94.207 E17.41724
G1 X107.23 Y94.76 E17.45238
G1 X107.615 Y95.336 E17.48694
G1 X107.954 Y95.942 E17.52158
G1 X108.252 Y96.591 E17.55721
G1 X108.492 Y97.242 E17.59183
G1 X108.682 Y97.914 E17.62667
G1 X108.818 Y98.595 E17.66131
G1 X108.901 Y99.302 E17.69683
G1 X108.928 Y100 E17.73168
G1 X108.901 Y100.698 E17.76653
G1 X108.818 Y101.405 E17.80204
G1 X108.683 Y102.083 E17.83653
G1 X108.492 Y102.758 E17.87153
G1 X108.252 Y103.409 E17.90614
G1 X107.954 Y104.058 E17.94177
G1 X107.615 Y104.664 E17.97642
G1 X107.23 Y105.24 E18.01098
G1 X106.794 Y105.793 E18.04611
G1 X106.313 Y106.313 E18.08145
G1 X105.793 Y106.794 E18.11679
G1 X105.243 Y107.228 E18.15175
G1 X104.664 Y107.615 E18.18649
G1 X104.058 Y107.954 E18.22113
G1 X103.414 Y108.25 E18.2565
G1 X102.758 Y108.492 E18.29138
G1 X102.083 Y108.683 E18.32638
G1 X101.405 Y108.818 E18.36087
G1 X100.704 Y108.9 E18.39608
G1 X100 Y108.928 E18.43123
G1 X99.296 Y108.9 E18.46638
G1 X98.595 Y108.818 E18.50159
G1 X97.917 Y108.683 E18.53608
G1 X97.242 Y108.492 E18.57108
G1 X96.586 Y108.25 E18.60596
G1 X95.942 Y107.954 E18.64132
G1 X95.336 Y107.615 E18.67597
G1 X94.757 Y107.228 E18.71071
G1 X94.207 Y106.794 E18.74566
G1 X93.687 Y106.313 E18.781
G1 X93.206 Y105.793 E18.81634
G1 X92.77 Y105.24 E18.85148
G1 X92.385 Y104.664 E18.88604
G1 X92.046 Y104.058 E18.92068
G1 X91.748 Y103.409 E18.95631
G1 X91.508 Y102.758 E18.99093
G1 X91.317 Y102.083 E19.02593
G1 X91.182 Y101.405 E19.06042
G1 X91.099 Y100.698 E19.09593
G1 X91.072 Y100 E19.13078
G1 X91.099 Y99.302 E19.16563
G1 X91.182 Y98.595 E19.20114
G1 X91.318 Y97.914 E19.23579
G1 X91.508 Y97.242 E19.27063
G1 X91.748 Y96.591 E19.30525
G1 X92.046 Y95.942 E19.34088
G1 X92.385 Y95.336 E19.37552
G1 X92.77 Y94.76 E19.41008
G1 X93.206 Y94.207 E19.44522
G1 X93.687 Y93.687 E19.48056
G0 F3600 X93.404 Y93.404
;TYPE:WALL-OUTER
G1 F1800 X93.943 Y92.905 E19.5172
G1 X94.523 Y92.448 E19.55404
G1 X95.125 Y92.045 E19.59018
G1 X95.758 Y91.691 E19.62637
G1 X96.433 Y91.38 E19.66344
G1 X97.125 Y91.125 E19.70024
G1 X97.818 Y90.929 E19.73617
G1 X98.534 Y90.787 E19.77259
G1 X99.272 Y90.7 E19.80966
G1 X100 Y90.671 E19.84601
G1 X100.728 Y90.7 E19.88236
G1 X101.466 Y90.787 E19.91943
G1 X102.182 Y90.929 E19.95585
G1 X102.875 Y91.125 E19.99178
G1 X103.567 Y91.38 E20.02857
G1 X104.242 Y91.691 E20.06565
G1 X104.875 Y92.045 E20.10183
G1 X105.477 Y92.448 E20.13798
G1 X106.057 Y92.905 E20.17482
G1 X106.596 Y93.404 E20.21146
G1 X107.095 Y93.943 E20.24811
G1 X107.552 Y94.523 E20.28495
G1 X107.955 Y95.125 E20.32109
G1 X108.309 Y95.758 E20.35727
G1 X108.622 Y96.438 E20.39462
G1 X108.875 Y97.125 E20.43114
G1 X109.07 Y97.815 E20.46692
G1 X109.213 Y98.534 E20.50349
G1 X109.301 Y99.277 E20.54082
G1 X109.329 Y100 E20.57691
G1 X109.301 Y100.723 E20.61301
G1 X109.213 Y101.466 E20.65034
G1 X109.071 Y102.182 E20.68676
G1 X108.875 Y102.875 E20.72269
G1 X108.622 Y103.562 E20.75921
G1 X108.309 Y104.242 E20.79656
G1 X107.955 Y104.875 E20.83274
G1 X107.552 Y105.477 E20.86888
G1 X107.095 Y106.057 E20.90572
G1 X106.596 Y106.596 E20.94237
G1 X106.057 Y107.095 E20.97901
G1 X105.48 Y107.55 E21.01567
G1 X104.875 Y107.955 E21.052
G1 X104.242 Y108.309 E21.08818
G1 X103.567 Y108.62 E21.12526
G1 X102.875 Y108.875 E21.16205
G1 X102.182 Y109.071 E21.19798
G1 X101.466 Y109.213 E21.2344
G1 X100.728 Y109.3 E21.27147
G1 X100 Y109.329 E21.30782
G1 X99.272 Y109.3 E21.34417
G1 X98.534 Y109.213 E21.38124
G1 X97.818 Y109.071 E21.41766
G1 X97.125 Y108.875 E21.45359
G1 X96.433 Y108.62 E21.49039
G1 X95.758 Y108.309 E21.52746
G1 X95.125 Y107.955 E21.56365
G1 X94.52 Y107.55 E21.59997
G1 X93.943 Y107.095 E21.63663
G1 X93.404 Y106.596 E21.67328
G1 X92.905 Y106.057 E21.70992
G1 X92.448 Y105.477 E21.74676
G1 X92.045 Y104.875 E21.7829
G1 X91.691 Y104.242 E21.81909
G1 X91.378 Y103.562 E21.85643
G1 X91.125 Y102.875 E21.89296
G1 X90.929 Y102.182 E21.92889
G1 X90.787 Y101.466 E21.9653
G1 X90.699 Y100.723 E22.00263
G1 X90.671 Y100 E22.03873
G1 X90.699 Y99.277 E22.07483
G1 X90.787 Y98.534 E22.11216
G1 X90.93 Y97.815 E22.14873
G1 X91.125 Y97.125 E22.1845
G1 X91.378 Y96.438 E22.22103
G1 X91.691 Y95.758 E22.25837
G1 X92.045 Y95.125 E22.29456
G1 X92.448 Y94.523 E22.3307
G1 X92.905 Y93.943 E22.36754
G1 X93.404 Y93.404 E22.40418
G0 F3600 X93.55 Y93.269
G0 X93.814 Y93.814
;TYPE:SKIN
G1 F1800 X106.184 Y106.184 E23.27695
G1 X106.254 Y106.254
G0 F3600 X106.457 Y105.891
G1 F1800 X94.108 Y93.543 E24.14821
G1 X94.038 Y93.473
G0 F3600 X94.408 Y93.277
G1 F1800 X106.722 Y105.591 E25.01703
G1 X106.792 Y105.661
G0 F3600 X106.972 Y105.275
G1 F1800 X94.724 Y93.027 E25.88119
G1 X94.654 Y92.957
G0 F3600 X95.052 Y92.79
G1 F1800 X107.209 Y104.946 E26.7389
G1 X107.279 Y105.016
G0 F3600 X107.435 Y104.607
G1 F1800 X95.392 Y92.563 E27.58863
G1 X95.322 Y92.493
G0 F3600 X95.752 Y92.358
G1 F1800 X107.64 Y104.246 E28.42739
G1 X107.71 Y104.316
G0 F3600 X107.838 Y103.878
G1 F1800 X96.121 Y92.162 E29.25405
G1 X96.051 Y92.092
G0 F3600 X96.509 Y91.983
G1 F1800 X108.016 Y103.49 E30.06594
G1 X108.086 Y103.56
G0 F3600 X108.178 Y103.086
G1 F1800 X96.913 Y91.822 E30.86071
G1 X96.843 Y91.752
