;FLAVOR:RepRap
;TIME:5985
;Filament used: 2.81434m
;Layer height: 0.1
;Generated with Cura_SteamEngine 2.5.0
M190 S60
M104 S200
M109 S200
G21 ;metric values
G90 ;absolute positioning
M82 ;set extruder to absolute mode
M107 ;start with the fan off
G28 X0 Y0 ;move X/Y to min endstops
G28 Z0 ;move Z to min endstops
G1 Z15.0 F9000 ;move the platform down 15mm
G92 E0 ;zero the extruded length
G1 F200 E3 ;extrude 3mm of feed stock
G92 E0 ;zero the extruded length again
G1 F9000
;Put printing message on LCD screen
M117 Printing...
;LAYER_COUNT:328
;LAYER:0
M107
G0 F3600 X66.299 Y75.7 Z0.3
;TYPE:SKIRT
G1 F1800 X66.742 Y75.397 E0.02678
G1 X67.224 Y75.163 E0.05351
G1 X67.736 Y75.003 E0.08027
G1 X68.409 Y74.913 E0.11414
G1 X72.406 Y74.757 E0.31371
G1 X77.878 Y74.285 E0.58772
G1 X83.255 Y73.513 E0.85873
G1 X88.637 Y72.426 E1.13266
G1 X91.201 Y71.796 E1.26439
G1 X96.501 Y70.249 E1.53984
G1 X101.616 Y68.437 E1.81056
G1 X106.659 Y66.321 E2.08341
G1 X111.868 Y63.776 E2.37265
G1 X112.366 Y63.577 E2.3994
G1 X112.888 Y63.455 E2.42615
G1 X113.448 Y63.411 E2.45417
G1 X121.438 Y63.411 E2.8528
G1 X121.973 Y63.451 E2.87956
G1 X122.496 Y63.57 E2.90632
G1 X122.995 Y63.765 E2.93305
G1 X123.46 Y64.033 E2.95983
G1 X123.945 Y64.428 E2.99103
G1 X124.455 Y64.923 E3.02649
G1 X124.527 Y64.994 E3.03153
G1 X125.014 Y65.494 E3.06636
G1 X125.358 Y65.905 E3.0931
G1 X125.638 Y66.363 E3.11988
G1 X125.847 Y66.857 E3.14664
G1 X125.98 Y67.376 E3.17337
G1 X126.035 Y68.007 E3.20497
G1 X126.015 Y130.259 E6.31073
G1 X125.947 Y130.955 E6.34562
G1 X125.821 Y131.593 E6.37807
G1 X125.678 Y132.11 E6.40483
G1 X125.493 Y132.538 E6.42809
G1 X125.037 Y133.428 E6.47798
G1 X124.758 Y133.885 E6.5047
G1 X124.306 Y134.402 E6.53896
G1 X123.573 Y135.095 E6.58928
G1 X123.157 Y135.433 E6.61602
G1 X122.529 Y135.783 E6.65189
G1 X121.537 Y136.212 E6.70581
G1 X121.03 Y136.388 E6.73259
G1 X120.586 Y136.476 E6.75517
G1 X120.063 Y136.546 E6.78149
G1 X119.577 Y136.578 E6.80579
G1 X115.155 Y136.568 E7.02641
G1 X114.465 Y136.5 E7.061
G1 X113.858 Y136.38 E7.09187
G1 X113.341 Y136.237 E7.11863
G1 X112.99 Y136.089 E7.13764
G1 X110.167 Y134.725 E7.29405
G1 X105.099 Y132.452 E7.57116
G1 X102.655 Y131.474 E7.7025
G1 X97.449 Y129.652 E7.97767
G1 X92.198 Y128.141 E8.25027
G1 X86.833 Y126.918 E8.5248
G1 X84.236 Y126.443 E8.65652
G1 X78.82 Y125.686 E8.92935
G1 X73.357 Y125.236 E9.20282
G1 X68.442 Y125.088 E9.44814
G1 X67.908 Y125.032 E9.47493
G1 X67.389 Y124.898 E9.50167
G1 X66.896 Y124.688 E9.52841
G1 X66.439 Y124.406 E9.5552
G1 X66.029 Y124.06 E9.58196
G1 X65.676 Y123.657 E9.60869
G1 X65.386 Y123.206 E9.63544
G1 X65.166 Y122.717 E9.66219
G1 X65.021 Y122.201 E9.68893
G1 X64.95 Y121.481 E9.72503
G1 X64.98 Y109.067 E10.34437
G1 X64.988 Y108.831 E10.35615
G1 X65.313 Y104.067 E10.59438
G1 X65.388 Y98.61 E10.86666
G1 X65.152 Y93.114 E11.1411
G1 X64.951 Y90.44 E11.27489
G1 X64.941 Y90.167 E11.28852
G1 X64.95 Y78.507 E11.87024
G1 X64.99 Y77.972 E11.897
G1 X65.11 Y77.45 E11.92372
G1 X65.305 Y76.95 E11.9505
G1 X65.573 Y76.486 E11.97723
G1 X65.907 Y76.066 E12.004
G1 X66.299 Y75.7 E12.03076
G0 F3600 X66.688 Y75.908
G1 F1800 X67.121 Y75.647 E12.05598
G1 X67.59 Y75.457 E12.08123
G1 X68.082 Y75.344 E12.10641
G1 X68.425 Y75.312 E12.1236
G1 X72.455 Y75.154 E12.32481
G1 X77.9 Y74.685 E12.59747
G1 X83.336 Y73.904 E12.87146
G1 X88.714 Y72.819 E13.14517
G1 X91.317 Y72.179 E13.27891
G1 X96.62 Y70.631 E13.55452
G1 X101.767 Y68.807 E13.82695
G1 X106.825 Y66.685 E14.1006
G1 X112.043 Y64.136 E14.39033
G1 X112.514 Y63.95 E14.41559
G1 X113.008 Y63.841 E14.44083
G1 X113.448 Y63.811 E14.46283
G1 X121.438 Y63.811 E14.86146
G1 X121.942 Y63.851 E14.88668
G1 X122.433 Y63.97 E14.91189
G1 X122.9 Y64.164 E14.93711
G1 X123.33 Y64.43 E14.96234
G1 X123.667 Y64.715 E14.98436
G1 X124.177 Y65.21 E15.01982
G1 X124.24 Y65.273 E15.02426
G1 X124.727 Y65.773 E15.05908
G1 X125.05 Y66.162 E15.08431
G1 X125.308 Y66.597 E15.10954
G1 X125.494 Y67.067 E15.13476
G1 X125.604 Y67.561 E15.16001
G1 X125.635 Y68.007 E15.18231
G1 X125.615 Y130.259 E18.28808
G1 X125.554 Y130.878 E18.31911
G1 X125.428 Y131.516 E18.35156
G1 X125.292 Y132.003 E18.37678
G1 X125.137 Y132.355 E18.39597
G1 X124.681 Y133.245 E18.44586
G1 X124.416 Y133.676 E18.4711
G1 X124.031 Y134.111 E18.50008
G1 X123.298 Y134.804 E18.55041
G1 X122.905 Y135.122 E18.57563
G1 X122.37 Y135.416 E18.60609
G1 X121.378 Y135.845 E18.66001
G1 X120.9 Y136.009 E18.68522
G1 X120.533 Y136.08 E18.70387
G1 X120.01 Y136.15 E18.7302
G1 X119.578 Y136.178 E18.75179
G1 X115.156 Y136.168 E18.97241
G1 X114.542 Y136.107 E19.00319
G1 X113.935 Y135.987 E19.03406
G1 X113.449 Y135.85 E19.05925
G1 X113.164 Y135.729 E19.0747
G1 X110.339 Y134.364 E19.23123
G1 X105.242 Y132.077 E19.50995
G1 X102.795 Y131.099 E19.64142
G1 X97.566 Y129.268 E19.91782
G1 X92.309 Y127.756 E20.19073
G1 X86.925 Y126.529 E20.46622
G1 X84.293 Y126.048 E20.59971
G1 X78.854 Y125.288 E20.8737
G1 X73.402 Y124.838 E21.14663
G1 X68.454 Y124.689 E21.39359
G1 X67.951 Y124.633 E21.41884
G1 X67.464 Y124.5 E21.44403
G1 X67.003 Y124.291 E21.46928
G1 X66.581 Y124.013 E21.49449
G1 X66.208 Y123.671 E21.51974
G1 X65.894 Y123.275 E21.54496
G1 X65.646 Y122.835 E21.57015
G1 X65.471 Y122.36 E21.59541
G1 X65.372 Y121.865 E21.62059
G1 X65.35 Y121.482 E21.63973
G1 X65.38 Y109.068 E22.25907
G1 X65.387 Y108.858 E22.26955
G1 X65.713 Y104.081 E22.50843
G1 X65.788 Y98.598 E22.78201
G1 X65.552 Y93.098 E23.05666
G1 X65.35 Y90.41 E23.19114
G1 X65.341 Y90.168 E23.20322
G1 X65.35 Y78.508 E23.78494
G1 X65.39 Y78.004 E23.81016
G1 X65.51 Y77.512 E23.83543
G1 X65.705 Y77.046 E23.86063
G1 X65.971 Y76.616 E23.88586
G1 X66.301 Y76.233 E23.91108
G1 X66.688 Y75.908 E23.93629
G1 F1500 E17.43629
G0 F3600 X69.154 Y77.835
G0 X69.154 Y79.114
G0 X69.34 Y79.2
G0 X69.34 Y79.1
;TYPE:WALL-INNER
G1 F1500 E23.93629
G1 F1800 X72.41 Y79.1 E24.08946
G1 X74.092 Y79.193 E24.1735
G1 X75.681 Y79.462 E24.2539
G1 X77.229 Y79.908 E24.33427
G1 X78.724 Y80.528 E24.41502
G1 X80.139 Y81.31 E24.49568
G1 X81.453 Y82.241 E24.57602
G1 X82.659 Y83.318 E24.65669
G1 X83.736 Y84.524 E24.73736
G1 X84.667 Y85.838 E24.8177
G1 X85.449 Y87.253 E24.89836
G1 X86.069 Y88.748 E24.9791
G1 X86.515 Y90.296 E25.05947
G1 X86.784 Y91.885 E25.13988
G1 X86.876 Y93.512 E25.22118
G1 X86.876 Y106.489 E25.8686
G1 X86.784 Y108.115 E25.94985
G1 X86.516 Y109.7 E26.03005
G1 X86.069 Y111.252 E26.11063
G1 X85.449 Y112.747 E26.19138
G1 X84.667 Y114.162 E26.27203
G1 X83.736 Y115.476 E26.35238
G1 X82.659 Y116.682 E26.43304
G1 X81.453 Y117.759 E26.51371
G1 X80.139 Y118.69 E26.59405
G1 X78.724 Y119.472 E26.67471
G1 X77.229 Y120.092 E26.75546
G1 X75.681 Y120.538 E26.83583
G1 X74.092 Y120.807 E26.91623
G1 X72.46 Y120.9 E26.99779
G1 X69.141 Y120.9 E27.16337
G1 X69.14 Y110.3 E27.69221
G1 X69.14 Y110.1 E27.70219
G1 X69.34 Y110.1 E27.70865
G1 X74.502 Y110.1 E27.96618
G1 X75.45 Y110.017 E28.01366
G1 X76.394 Y109.764 E28.06241
G1 X77.277 Y109.352 E28.11103
G1 X78.077 Y108.792 E28.15975
G1 X78.769 Y108.1 E28.20857
G1 X79.329 Y107.301 E28.25725
G1 X79.741 Y106.416 E28.30595
G1 X79.993 Y105.473 E28.35465
G1 X80.076 Y104.526 E28.40208
G1 X80.076 Y95.474 E28.85368
G1 X79.993 Y94.527 E28.90111
G1 X79.741 Y93.584 E28.94981
G1 X79.329 Y92.699 E28.99851
G1 X78.769 Y91.9 E29.04719
G1 X78.077 Y91.208 E29.09601
G1 X77.277 Y90.648 E29.14473
G1 X76.394 Y90.236 E29.19334
G1 X75.45 Y89.983 E29.2421
G1 X74.502 Y89.9 E29.28958
G1 X69.141 Y89.9 E29.55704
G1 X69.14 Y79.3 E30.08588
G1 X69.14 Y79.1 E30.09585
G1 X69.34 Y79.1 E30.10231
G0 F3600 X69.34 Y79.2
G0 X82.479 Y94.311
G0 X82.543 Y94.387
G1 F1800 X82.363 Y94.567 E30.11501
G1 X82.218 Y94.776 E30.12771
G1 X82.112 Y95.003 E30.1402
G1 X82.046 Y95.248 E30.15286
G1 X82.023 Y95.5 E30.16549
G1 X82.046 Y95.753 E30.17816
G1 X82.112 Y95.997 E30.19077
G1 X82.218 Y96.226 E30.20336
G1 X82.363 Y96.434 E30.21601
G1 X82.543 Y96.614 E30.22871
G1 X82.751 Y96.759 E30.24136
G1 X82.98 Y96.865 E30.25395
G1 X83.224 Y96.931 E30.26656
G1 X83.476 Y96.954 E30.27919
G1 X83.729 Y96.931 E30.29186
G1 X83.974 Y96.865 E30.30452
G1 X84.201 Y96.759 E30.31702
G1 X84.41 Y96.614 E30.32971
G1 X84.59 Y96.434 E30.34241
G1 X84.735 Y96.226 E30.35506
G1 X84.841 Y95.997 E30.36765
G1 X84.908 Y95.752 E30.38032
G1 X84.928 Y95.5 E30.39293
G1 X84.908 Y95.249 E30.40549
G1 X84.841 Y95.003 E30.41821
G1 X84.735 Y94.776 E30.43071
G1 X84.59 Y94.567 E30.4434
G1 X84.41 Y94.387 E30.4561
G1 X84.201 Y94.242 E30.46879
G1 X83.974 Y94.136 E30.48129
G1 X83.729 Y94.07 E30.49395
G1 X83.476 Y94.047 E30.50663
G1 X83.224 Y94.07 E30.51925
G1 X82.98 Y94.136 E30.53186
G1 X82.751 Y94.242 E30.54445
G1 X82.543 Y94.387 E30.5571
G0 F3600 X82.479 Y94.311
G0 X82.075 Y94.99
G0 X81.983 Y95.5
G0 X83.208 Y102.97
G0 X83.225 Y103.068
G1 F1800 X82.98 Y103.135 E30.56977
G1 X82.751 Y103.241 E30.58236
G1 X82.543 Y103.386 E30.59501
G1 X82.363 Y103.566 E30.60771
G1 X82.218 Y103.775 E30.6204
G1 X82.112 Y104.002 E30.6329
G1 X82.046 Y104.247 E30.64556
G1 X82.023 Y104.5 E30.65824
G1 X82.046 Y104.752 E30.67086
G1 X82.112 Y104.996 E30.68347
G1 X82.218 Y105.225 E30.69606
G1 X82.363 Y105.433 E30.70871
G1 X82.543 Y105.613 E30.72141
G1 X82.751 Y105.758 E30.73406
G1 X82.98 Y105.864 E30.74665
G1 X83.224 Y105.93 E30.75926
G1 X83.476 Y105.953 E30.77188
G1 X83.729 Y105.93 E30.78456
G1 X83.974 Y105.864 E30.79722
G1 X84.201 Y105.758 E30.80972
G1 X84.41 Y105.613 E30.82241
G1 X84.59 Y105.433 E30.83511
G1 X84.735 Y105.225 E30.84776
G1 X84.841 Y104.996 E30.86035
G1 X84.908 Y104.751 E30.87302
G1 X84.928 Y104.5 E30.88558
G1 X84.908 Y104.248 E30.89819
G1 X84.841 Y104.002 E30.91091
G1 X84.735 Y103.775 E30.92341
G1 X84.59 Y103.566 E30.9361
G1 X84.41 Y103.386 E30.9488
G1 X84.201 Y103.241 E30.96149
G1 X83.974 Y103.135 E30.97399
G1 X83.728 Y103.068 E30.98671
G1 X83.476 Y103.048 E30.99932
G1 X83.225 Y103.068 E31.01189
G0 F3600 X83.294 Y103.464
;TYPE:WALL-OUTER
G1 F1800 X83.117 Y103.512 E31.02104
G1 X82.951 Y103.589 E31.03016
G1 X82.801 Y103.694 E31.0393
G1 X82.671 Y103.824 E31.04847
G1 X82.566 Y103.975 E31.05765
G1 X82.489 Y104.14 E31.06673
G1 X82.441 Y104.317 E31.07588
G1 X82.425 Y104.5 E31.08505
G1 X82.441 Y104.682 E31.09416
G1 X82.489 Y104.859 E31.10331
G1 X82.566 Y105.025 E31.11244
G1 X82.671 Y105.175 E31.12157
G1 X82.801 Y105.305 E31.13075
G1 X82.951 Y105.41 E31.13988
G1 X83.117 Y105.487 E31.14901
G1 X83.294 Y105.535 E31.15816
G1 X83.476 Y105.551 E31.16728
G1 X83.659 Y105.535 E31.17644
G1 X83.836 Y105.487 E31.18559
G1 X84.001 Y105.41 E31.19467
G1 X84.152 Y105.305 E31.20385
G1 X84.282 Y105.175 E31.21302
G1 X84.387 Y105.025 E31.22216
G1 X84.464 Y104.859 E31.23129
G1 X84.512 Y104.682 E31.24044
G1 X84.527 Y104.5 E31.24955
G1 X84.512 Y104.317 E31.25871
G1 X84.464 Y104.14 E31.26786
G1 X84.387 Y103.975 E31.27694
G1 X84.282 Y103.824 E31.28612
G1 X84.152 Y103.694 E31.29529
G1 X84.001 Y103.589 E31.30446
G1 X83.836 Y103.512 E31.31355
G1 X83.659 Y103.464 E31.3227
G1 X83.476 Y103.449 E31.33186
G1 X83.294 Y103.464 E31.34097
G0 F3600 X83.117 Y103.512
G0 X83.102 Y103.519
G0 X82.893 Y103.066
G0 X80.173 Y104.551
G0 X79.676 Y104.509
G1 F1800 X79.676 Y95.491 E31.79088
G1 X79.598 Y94.597 E31.83565
G1 X79.364 Y93.721 E31.88089
G1 X78.981 Y92.9 E31.92608
G1 X78.461 Y92.158 E31.97129
G1 X77.819 Y91.516 E32.01658
G1 X77.076 Y90.996 E32.06183
G1 X76.256 Y90.613 E32.10698
G1 X75.38 Y90.378 E32.15223
G1 X74.485 Y90.3 E32.19705
G1 X68.741 Y90.3 E32.48362
G1 X68.74 Y78.9 E33.05237
G1 X68.74 Y78.7 E33.06235
G1 X68.94 Y78.7 E33.06881
G1 X72.414 Y78.7 E33.24213
G1 X74.137 Y78.795 E33.32822
G1 X75.771 Y79.072 E33.4109
G1 X77.359 Y79.529 E33.49334
G1 X78.9 Y80.168 E33.57657
G1 X80.351 Y80.97 E33.65928
G1 X81.707 Y81.931 E33.7422
G1 X82.942 Y83.035 E33.82485
G1 X84.046 Y84.27 E33.90749
G1 X85.007 Y85.626 E33.99041
G1 X85.809 Y87.077 E34.07312
G1 X86.448 Y88.618 E34.15635
G1 X86.905 Y90.206 E34.23879
G1 X87.182 Y91.84 E34.32147
G1 X87.276 Y93.512 E34.40502
G1 X87.276 Y106.489 E35.05245
G1 X87.182 Y108.16 E35.13594
G1 X86.905 Y109.794 E35.21863
G1 X86.448 Y111.382 E35.30107
G1 X85.809 Y112.923 E35.3843
G1 X85.007 Y114.374 E35.46701
G1 X84.046 Y115.73 E35.54993
G1 X82.942 Y116.965 E35.63257
G1 X81.707 Y118.069 E35.71522
G1 X80.351 Y119.03 E35.79813
G1 X78.9 Y119.832 E35.88085
G1 X77.359 Y120.471 E35.96407
G1 X75.771 Y120.928 E36.04652
G1 X74.137 Y121.205 E36.1292
G1 X72.465 Y121.3 E36.21275
G1 X68.741 Y121.3 E36.39854
G1 X68.74 Y109.9 E36.96729
G1 X68.74 Y109.7 E36.97727
G1 X68.94 Y109.7 E36.98373
G1 X74.485 Y109.7 E37.26037
G1 X75.38 Y109.622 E37.30519
G1 X76.256 Y109.387 E37.35044
G1 X77.076 Y109.004 E37.39559
G1 X77.819 Y108.484 E37.44084
G1 X78.461 Y107.842 E37.48613
G1 X78.981 Y107.1 E37.53134
G1 X79.364 Y106.279 E37.57654
G1 X79.598 Y105.403 E37.62177
G1 X79.676 Y104.509 E37.66654
G0 F3600 X79.676 Y104.309
G0 X80.176 Y104.309
G0 X82.907 Y96.94
G0 X83.117 Y96.488
G1 F1800 X83.294 Y96.536 E37.67569
G1 X83.476 Y96.552 E37.68481
G1 X83.659 Y96.536 E37.69397
G1 X83.836 Y96.488 E37.70312
G1 X84.001 Y96.411 E37.71221
G1 X84.152 Y96.306 E37.72138
G1 X84.282 Y96.176 E37.73055
G1 X84.387 Y96.026 E37.73969
G1 X84.464 Y95.86 E37.74882
G1 X84.512 Y95.683 E37.75797
G1 X84.527 Y95.5 E37.76713
G1 X84.512 Y95.318 E37.77624
G1 X84.464 Y95.141 E37.78539
G1 X84.387 Y94.976 E37.79447
G1 X84.282 Y94.825 E37.80365
G1 X84.152 Y94.695 E37.81282
G1 X84.001 Y94.59 E37.822
G1 X83.836 Y94.513 E37.83108
G1 X83.659 Y94.465 E37.84023
G1 X83.476 Y94.449 E37.84939
G1 X83.294 Y94.465 E37.85851
G1 X83.117 Y94.513 E37.86766
G1 X82.951 Y94.59 E37.87679
G1 X82.801 Y94.695 E37.88592
G1 X82.671 Y94.825 E37.8951
G1 X82.566 Y94.976 E37.90427
G1 X82.489 Y95.141 E37.91336
G1 X82.441 Y95.318 E37.9225
G1 X82.425 Y95.5 E37.93162
G1 X82.441 Y95.683 E37.94078
G1 X82.489 Y95.86 E37.94993
G1 X82.566 Y96.026 E37.95906
G1 X82.671 Y96.176 E37.9682
G1 X82.801 Y96.306 E37.97737
G1 X82.951 Y96.411 E37.98651
G1 X83.117 Y96.488 E37.99563
G0 F3600 X83.294 Y96.536
G0 X83.311 Y96.537
G0 X83.551 Y97.128
;TYPE:SKIN
G1 F1800 X86.696 Y100.272 E38.2175
G1 X86.766 Y100.342
G0 F3600 X86.696 Y99.707
G1 F1800 X84.027 Y97.038 E38.40581
G1 X83.957 Y96.968
G0 F3600 X84.397 Y96.842
G1 F1800 X86.696 Y99.141 E38.56802
G1 X86.766 Y99.211
G0 F3600 X86.696 Y98.575
G1 F1800 X84.699 Y96.578 E38.70891
G1 X84.629 Y96.508
G0 F3600 X84.926 Y96.24
G1 F1800 X86.696 Y98.009 E38.83376
G1 X86.766 Y98.079
G0 F3600 X86.696 Y97.444
G1 F1800 X85.075 Y95.823 E38.94813
G1 X85.005 Y95.753
G0 F3600 X85.09 Y95.272
G1 F1800 X86.696 Y96.878 E39.06144
G1 X86.766 Y96.948
G0 F3600 X86.696 Y96.312
G1 F1800 X69.662 Y79.279 E40.26325
G1 X69.592 Y79.209
G0 F3600 X69.32 Y79.502
G1 F1800 X83.703 Y93.885 E41.27805
G1 X83.773 Y93.955
G0 F3600 X83.152 Y93.9
G1 F1800 X69.32 Y80.068 E42.25397
G1 X69.25 Y79.998
G0 F3600 X69.32 Y80.634
G1 F1800 X82.735 Y94.049 E43.20047
G1 X82.805 Y94.119
G0 F3600 X82.397 Y94.277
G1 F1800 X69.32 Y81.199 E44.12316
G1 X69.25 Y81.129
G0 F3600 X69.32 Y81.765
G1 F1800 X82.134 Y94.579 E45.02726
G1 X82.204 Y94.649
G0 F3600 X81.939 Y94.95
G1 F1800 X79.226 Y92.237 E45.21867
G1 X79.156 Y92.167
G0 F3600 X79.881 Y93.458
G1 F1800 X81.849 Y95.425 E45.35749
G1 X81.919 Y95.495
G0 F3600 X81.963 Y96.105
G1 F1800 X80.105 Y94.247 E45.48858
G1 X80.035 Y94.177
G0 F3600 X80.207 Y94.915
G1 F1800 X86.696 Y101.404 E45.94642
G1 X86.766 Y101.474
G0 F3600 X86.696 Y101.969
G1 F1800 X80.255 Y95.529 E46.40083
G1 X80.185 Y95.459
G0 F3600 X80.255 Y96.095
G1 F1800 X86.696 Y102.535 E46.85524
G1 X86.766 Y102.605
G0 F3600 X86.696 Y103.101
G1 F1800 X80.255 Y96.66 E47.30969
G1 X80.185 Y96.59
G0 F3600 X80.255 Y97.226
G1 F1800 X86.696 Y103.666 E47.7641
G1 X86.766 Y103.736
G0 F3600 X86.696 Y104.232
G1 F1800 X80.255 Y97.792 E48.21851
G1 X80.185 Y97.722
G0 F3600 X80.255 Y98.357
G1 F1800 X86.696 Y104.798 E48.67296
G1 X86.766 Y104.868
G0 F3600 X86.696 Y105.363
G1 F1800 X80.255 Y98.923 E49.12737
G1 X80.185 Y98.853
G0 F3600 X80.255 Y99.489
G1 F1800 X83.646 Y102.879 E49.36659
G1 X83.716 Y102.949
G0 F3600 X83.111 Y102.91
G1 F1800 X80.255 Y100.054 E49.5681
G1 X80.185 Y99.984
G0 F3600 X80.255 Y100.62
G1 F1800 X82.699 Y103.064 E49.74053
G1 X82.769 Y103.134
G0 F3600 X82.371 Y103.301
G1 F1800 X80.255 Y101.186 E49.88979
G1 X80.185 Y101.116
G0 F3600 X80.255 Y101.751
