;FLAVOR:RepRap
;TIME:304
;Filament used: 0.109984m
;Layer height: 0.1
;Generated with Cura_SteamEngine 2.5.0
M190 S59
M104 S200
M109 S200
G21 ;metric values
G90 ;absolute positioning
M82 ;set extruder to absolute mode
M107 ;start with the fan off
G28 X0 Y0 ;move X/Y to min endstops
G28 Z0 ;move Z to min endstops
G1 Z15.0 F9000 ;move the platform down 15mm
G92 E0 ;zero the extruded length
G1 F200 E3 ;extrude 3mm of feed stock
G92 E0 ;zero the extruded length again
G1 F9000
;Put printing message on LCD screen
M117 Printing...
;LAYER_COUNT:56
;LAYER:0
M107
G0 F3600 X92.685 Y93.211 Z0.3
;TYPE:SKIRT
G1 F1800 X93.248 Y92.651 E0.03962
G1 X93.863 Y92.134 E0.0797
G1 X94.65 Y91.578 E0.12777
G1 X95.289 Y91.197 E0.16489
G1 X95.848 Y90.92 E0.19602
G1 X96.636 Y90.613 E0.23821
G1 X97.772 Y90.282 E0.29724
G1 X98.658 Y90.112 E0.34225
G1 X99.453 Y90.036 E0.38209
G1 X100.072 Y90.017 E0.41299
G1 X100.447 Y90.044 E0.43175
G1 X101.78 Y90.194 E0.49867
G1 X102.389 Y90.303 E0.52954
G1 X102.866 Y90.447 E0.55439
G1 X103.896 Y90.817 E0.609
G1 X104.464 Y91.063 E0.63988
G1 X104.755 Y91.226 E0.65652
G1 X105.518 Y91.687 E0.70099
G1 X106.098 Y92.098 E0.73646
G1 X106.651 Y92.556 E0.77228
G1 X107.182 Y93.07 E0.80915
G1 X107.71 Y93.666 E0.84887
G1 X108.162 Y94.265 E0.88631
G1 X108.643 Y95.018 E0.93089
G1 X108.942 Y95.56 E0.96177
G1 X109.101 Y95.94 E0.98232
G1 X109.56 Y97.184 E1.04848
G1 X109.737 Y97.778 E1.0794
G1 X109.845 Y98.504 E1.11602
G1 X109.958 Y100.088 E1.19524
G1 X109.962 Y100.708 E1.22618
G1 X109.908 Y101.202 E1.25097
G1 X109.777 Y102.006 E1.29161
G1 X109.583 Y102.78 E1.33142
G1 X109.285 Y103.656 E1.37758
G1 X108.985 Y104.352 E1.4154
G1 X108.667 Y104.954 E1.44936
G1 X108.233 Y105.632 E1.48952
G1 X107.577 Y106.488 E1.54333
G1 X107.169 Y106.954 E1.57423
G1 X106.775 Y107.309 E1.60069
G1 X105.698 Y108.175 E1.66964
G1 X105.191 Y108.531 E1.70054
G1 X104.691 Y108.797 E1.7288
G1 X103.594 Y109.3 E1.78901
G1 X103.015 Y109.521 E1.81993
G1 X102.516 Y109.647 E1.8456
G1 X101.307 Y109.884 E1.90707
G1 X100.693 Y109.964 E1.93796
G1 X100.11 Y109.966 E1.96705
G1 X98.764 Y109.889 E2.03431
G1 X98.149 Y109.814 E2.06522
G1 X97.725 Y109.714 E2.08695
G1 X96.828 Y109.459 E2.13348
G1 X96.083 Y109.178 E2.1732
G1 X95.352 Y108.831 E2.21357
G1 X94.747 Y108.489 E2.24824
G1 X94.174 Y108.107 E2.2826
G1 X93.581 Y107.64 E2.32026
G1 X92.892 Y107.004 E2.36704
G1 X92.465 Y106.555 E2.39795
G1 X92.262 Y106.295 E2.41441
G1 X91.61 Y105.396 E2.46981
G1 X91.218 Y104.755 E2.5073
G1 X90.987 Y104.301 E2.53271
G1 X90.7 Y103.607 E2.57018
G1 X90.358 Y102.554 E2.62542
G1 X90.205 Y101.954 E2.65631
G1 X90.155 Y101.621 E2.67311
G1 X90.048 Y100.693 E2.71971
G1 X90.016 Y100.074 E2.75064
G1 X90.032 Y99.749 E2.76687
G1 X90.127 Y98.597 E2.82454
G1 X90.218 Y97.984 E2.85546
G1 X90.319 Y97.592 E2.87565
G1 X90.621 Y96.601 E2.92734
G1 X90.906 Y95.881 E2.96597
G1 X91.185 Y95.314 E2.9975
G1 X91.57 Y94.665 E3.03514
G1 X92.148 Y93.846 E3.08515
G1 X92.685 Y93.211 E3.12664
G0 F3600 X92.967 Y93.494
G1 F1800 X93.53 Y92.934 E3.16626
G1 X94.094 Y92.46 E3.20302
G1 X94.881 Y91.904 E3.25109
G1 X95.466 Y91.555 E3.28508
G1 X96.025 Y91.278 E3.3162
G1 X96.748 Y90.997 E3.3549
G1 X97.884 Y90.666 E3.41393
G1 X98.696 Y90.51 E3.45518
G1 X99.491 Y90.434 E3.49503
G1 X100.084 Y90.417 E3.52462
G1 X100.402 Y90.442 E3.54054
G1 X101.735 Y90.592 E3.60746
G1 X102.318 Y90.697 E3.63702
G1 X102.731 Y90.823 E3.65856
G1 X103.761 Y91.193 E3.71316
G1 X104.548 Y91.568 E3.75665
G1 X105.311 Y92.029 E3.80113
G1 X105.843 Y92.406 E3.83366
G1 X106.396 Y92.864 E3.86948
G1 X106.882 Y93.335 E3.90325
G1 X107.41 Y93.931 E3.94297
G1 X107.825 Y94.48 E3.97731
G1 X108.306 Y95.233 E4.02188
G1 X108.591 Y95.753 E4.05147
G1 X108.726 Y96.079 E4.06907
G1 X109.185 Y97.323 E4.13522
G1 X109.352 Y97.892 E4.16481
G1 X109.446 Y98.533 E4.19713
G1 X109.559 Y100.117 E4.27636
G1 X109.561 Y100.71 E4.30594
G1 X109.513 Y101.138 E4.32743
G1 X109.382 Y101.942 E4.36807
G1 X109.205 Y102.651 E4.40453
G1 X108.907 Y103.527 E4.45069
G1 X108.632 Y104.165 E4.48535
G1 X108.314 Y104.767 E4.51932
G1 X107.915 Y105.388 E4.55614
G1 X107.259 Y106.244 E4.60995
G1 X106.868 Y106.69 E4.63954
G1 X106.524 Y106.997 E4.66254
G1 X105.447 Y107.863 E4.73149
G1 X104.961 Y108.203 E4.76108
G1 X104.524 Y108.434 E4.78574
G1 X103.427 Y108.937 E4.84595
G1 X102.872 Y109.147 E4.87556
G1 X102.439 Y109.255 E4.89782
G1 X101.23 Y109.492 E4.95928
G1 X100.642 Y109.566 E4.98885
G1 X100.133 Y109.567 E5.01425
G1 X98.787 Y109.49 E5.08151
G1 X98.198 Y109.416 E5.11112
G1 X97.835 Y109.329 E5.12975
G1 X96.938 Y109.074 E5.17627
G1 X96.254 Y108.817 E5.21273
G1 X95.523 Y108.47 E5.2531
G1 X94.969 Y108.156 E5.28487
G1 X94.396 Y107.774 E5.31922
G1 X93.853 Y107.346 E5.35372
G1 X93.164 Y106.71 E5.4005
G1 X92.586 Y106.06 E5.44389
G1 X91.934 Y105.161 E5.4993
G1 X91.574 Y104.573 E5.5337
G1 X91.343 Y104.119 E5.55911
G1 X91.08 Y103.483 E5.59344
G1 X90.738 Y102.43 E5.64868
G1 X90.552 Y101.575 E5.69233
G1 X90.445 Y100.647 E5.73894
G1 X90.431 Y99.781 E5.78215
G1 X90.526 Y98.629 E5.83982
G1 X90.614 Y98.043 E5.86938
G1 X90.702 Y97.708 E5.88666
G1 X91.004 Y96.717 E5.93835
G1 X91.265 Y96.057 E5.97376
G1 X91.544 Y95.49 E6.00528
G1 X91.897 Y94.896 E6.03976
G1 X92.475 Y94.077 E6.08977
G1 X92.967 Y93.494 E6.12783
G0 F3600 X93.249 Y93.778
G1 F1800 X93.812 Y93.218 E6.16744
G1 X94.325 Y92.787 E6.20087
G1 X95.112 Y92.231 E6.24894
G1 X95.644 Y91.914 E6.27984
G1 X96.203 Y91.637 E6.31097
G1 X96.86 Y91.381 E6.34614
G1 X97.996 Y91.05 E6.40518
G1 X98.734 Y90.908 E6.44267
G1 X99.529 Y90.832 E6.48251
G1 X100.357 Y90.839 E6.52382
G1 X101.69 Y90.989 E6.59075
G1 X102.246 Y91.092 E6.61896
G1 X102.595 Y91.2 E6.63719
G1 X103.625 Y91.57 E6.69179
G1 X104.342 Y91.91 E6.73138
G1 X105.105 Y92.371 E6.77585
G1 X105.587 Y92.714 E6.80537
G1 X106.14 Y93.172 E6.84119
G1 X106.583 Y93.601 E6.87195
G1 X107.111 Y94.197 E6.91168
G1 X107.488 Y94.696 E6.94288
G1 X107.969 Y95.449 E6.98746
G1 X108.239 Y95.945 E7.01563
G1 X108.351 Y96.217 E7.03031
G1 X108.81 Y97.461 E7.09646
G1 X108.967 Y98.004 E7.12466
G1 X109.047 Y98.561 E7.15274
G1 X109.16 Y100.145 E7.23196
G1 X109.16 Y100.711 E7.2602
G1 X109.118 Y101.073 E7.27838
G1 X108.987 Y101.877 E7.31902
G1 X108.826 Y102.522 E7.35219
G1 X108.528 Y103.398 E7.39835
G1 X108.278 Y103.978 E7.42986
G1 X107.96 Y104.58 E7.46383
G1 X107.598 Y105.145 E7.49731
G1 X106.942 Y106.001 E7.55111
G1 X106.567 Y106.424 E7.57931
G1 X106.274 Y106.685 E7.59889
G1 X105.197 Y107.551 E7.66784
G1 X104.732 Y107.873 E7.69606
G1 X104.357 Y108.07 E7.71719
G1 X103.26 Y108.573 E7.7774
G1 X102.731 Y108.772 E7.80559
G1 X102.362 Y108.862 E7.82454
G1 X101.153 Y109.099 E7.88601
G1 X100.592 Y109.169 E7.91421
G1 X100.156 Y109.167 E7.93597
G1 X98.81 Y109.09 E8.00323
G1 X98.249 Y109.018 E8.03145
G1 X97.944 Y108.945 E8.04709
G1 X97.047 Y108.69 E8.09362
G1 X96.426 Y108.456 E8.12673
G1 X95.695 Y108.109 E8.1671
G1 X95.191 Y107.823 E8.19601
G1 X94.618 Y107.441 E8.23036
G1 X94.124 Y107.052 E8.26173
G1 X93.435 Y106.416 E8.30851
G1 X92.91 Y105.825 E8.34795
G1 X92.258 Y104.926 E8.40336
G1 X91.931 Y104.392 E8.4346
G1 X91.7 Y103.938 E8.46001
G1 X91.461 Y103.36 E8.49122
G1 X91.119 Y102.307 E8.54645
G1 X90.949 Y101.529 E8.58618
G1 X90.842 Y100.601 E8.63279
G1 X90.83 Y99.814 E8.67206
G1 X90.925 Y98.662 E8.72972
G1 X91.011 Y98.104 E8.75789
G1 X91.085 Y97.825 E8.77229
G1 X91.387 Y96.834 E8.82398
G1 X91.624 Y96.234 E8.85616
G1 X91.903 Y95.667 E8.88769
G1 X92.224 Y95.127 E8.91903
G1 X92.802 Y94.308 E8.96904
G1 X93.249 Y93.778 E9.00363
G0 F3600 X93.531 Y94.062
G1 F1800 X94.094 Y93.502 E9.04325
G1 X94.556 Y93.114 E9.07335
G1 X95.343 Y92.558 E9.12142
G1 X95.822 Y92.272 E9.14926
G1 X96.381 Y91.995 E9.18038
G1 X96.972 Y91.765 E9.21202
G1 X98.108 Y91.434 E9.27105
G1 X98.772 Y91.306 E9.30479
G1 X99.567 Y91.23 E9.34463
G1 X100.313 Y91.237 E9.38185
G1 X101.646 Y91.387 E9.44878
G1 X102.173 Y91.486 E9.47553
G1 X102.46 Y91.576 E9.49053
G1 X103.49 Y91.946 E9.54514
G1 X104.135 Y92.253 E9.58077
G1 X104.898 Y92.714 E9.62525
G1 X105.332 Y93.022 E9.6518
G1 X105.885 Y93.48 E9.68762
G1 X106.284 Y93.866 E9.71532
G1 X106.812 Y94.462 E9.75504
G1 X107.151 Y94.911 E9.78311
G1 X107.632 Y95.664 E9.82769
G1 X107.975 Y96.356 E9.86622
G1 X108.434 Y97.6 E9.93238
G1 X108.582 Y98.115 E9.95911
G1 X108.648 Y98.59 E9.98303
G1 X108.761 Y100.174 E10.06226
G1 X108.759 Y100.71 E10.089
G1 X108.723 Y101.009 E10.10403
G1 X108.592 Y101.813 E10.14467
G1 X108.447 Y102.393 E10.17449
G1 X108.149 Y103.269 E10.22066
G1 X107.924 Y103.791 E10.24902
G1 X107.606 Y104.393 E10.28298
G1 X107.28 Y104.902 E10.31314
G1 X106.624 Y105.758 E10.36694
G1 X106.267 Y106.158 E10.39369
G1 X106.023 Y106.374 E10.40995
G1 X104.946 Y107.24 E10.4789
G1 X104.504 Y107.544 E10.50566
G1 X104.19 Y107.706 E10.52329
G1 X103.093 Y108.209 E10.5835
G1 X102.591 Y108.396 E10.61022
G1 X102.286 Y108.47 E10.62588
G1 X101.077 Y108.707 E10.68735
G1 X100.544 Y108.77 E10.71412
G1 X100.178 Y108.768 E10.73238
G1 X98.832 Y108.691 E10.79965
G1 X98.054 Y108.56 E10.83901
G1 X97.157 Y108.305 E10.88553
G1 X96.597 Y108.094 E10.91539
G1 X95.866 Y107.747 E10.95576
G1 X95.413 Y107.49 E10.98174
G1 X94.84 Y107.108 E11.0161
G1 X94.395 Y106.758 E11.04434
G1 X93.706 Y106.122 E11.09112
G1 X93.234 Y105.591 E11.12657
G1 X92.582 Y104.692 E11.18197
G1 X92.287 Y104.211 E11.21013
G1 X92.056 Y103.757 E11.23554
G1 X91.841 Y103.236 E11.26366
G1 X91.499 Y102.183 E11.31889
G1 X91.347 Y101.483 E11.35463
G1 X91.24 Y100.555 E11.40124
G1 X91.228 Y99.847 E11.43656
G1 X91.323 Y98.695 E11.49423
G1 X91.467 Y97.942 E11.53248
G1 X91.769 Y96.951 E11.58417
G1 X91.983 Y96.411 E11.61314
G1 X92.262 Y95.844 E11.64467
G1 X92.551 Y95.357 E11.67292
G1 X93.129 Y94.538 E11.72294
G1 X93.531 Y94.062 E11.75402
G0 F3600 X93.813 Y94.345
G1 F1800 X94.376 Y93.785 E11.79364
G1 X94.787 Y93.44 E11.82041
G1 X95.574 Y92.884 E11.86848
G1 X95.999 Y92.631 E11.89316
G1 X96.558 Y92.354 E11.92428
G1 X97.084 Y92.149 E11.95245
G1 X98.22 Y91.818 E12.01148
G1 X98.81 Y91.705 E12.04145
G1 X99.605 Y91.629 E12.08129
G1 X100.268 Y91.634 E12.11437
G1 X101.601 Y91.784 E12.18129
G1 X102.325 Y91.952 E12.21837
G1 X103.355 Y92.322 E12.27298
G1 X103.928 Y92.595 E12.30464
G1 X104.691 Y93.056 E12.34912
G1 X105.077 Y93.33 E12.37273
G1 X105.63 Y93.788 E12.40856
G1 X105.984 Y94.131 E12.43315
G1 X106.512 Y94.727 E12.47287
G1 X106.814 Y95.126 E12.49784
G1 X107.295 Y95.879 E12.54241
G1 X107.6 Y96.494 E12.57666
G1 X108.059 Y97.738 E12.64282
G1 X108.196 Y98.225 E12.66806
G1 X108.249 Y98.618 E12.68784
G1 X108.362 Y100.202 E12.76707
G1 X108.328 Y100.945 E12.80417
G1 X108.197 Y101.749 E12.84482
G1 X108.069 Y102.265 E12.87134
G1 X107.771 Y103.141 E12.9175
G1 X107.57 Y103.605 E12.94273
G1 X107.252 Y104.207 E12.9767
G1 X106.963 Y104.658 E13.00342
G1 X106.307 Y105.514 E13.05722
G1 X105.969 Y105.89 E13.08245
G1 X105.772 Y106.062 E13.0955
G1 X104.695 Y106.928 E13.16444
G1 X104.277 Y107.212 E13.18966
G1 X104.024 Y107.343 E13.20387
G1 X102.927 Y107.846 E13.26408
G1 X102.209 Y108.077 E13.30171
G1 X101 Y108.314 E13.36317
G1 X100.497 Y108.372 E13.38843
G1 X100.201 Y108.369 E13.4032
G1 X98.855 Y108.292 E13.47046
G1 X98.163 Y108.175 E13.50548
G1 X97.266 Y107.92 E13.552
G1 X96.769 Y107.733 E13.5785
G1 X96.038 Y107.386 E13.61887
G1 X95.635 Y107.158 E13.64197
G1 X95.062 Y106.776 E13.67632
G1 X94.667 Y106.464 E13.70144
G1 X93.978 Y105.828 E13.74822
G1 X93.558 Y105.356 E13.77974
G1 X92.906 Y104.457 E13.83514
G1 X92.644 Y104.029 E13.86018
G1 X92.413 Y103.575 E13.88559
G1 X92.221 Y103.112 E13.9106
G1 X91.879 Y102.059 E13.96583
G1 X91.744 Y101.438 E13.99754
G1 X91.637 Y100.51 E14.04414
G1 X91.627 Y99.88 E14.07558
G1 X91.722 Y98.728 E14.13325
G1 X91.85 Y98.058 E14.16728
G1 X92.152 Y97.067 E14.21897
G1 X92.342 Y96.587 E14.24472
G1 X92.621 Y96.02 E14.27625
G1 X92.878 Y95.588 E14.30133
G1 X93.456 Y94.769 E14.35134
G1 X93.813 Y94.345 E14.37899
G1 F1500 E7.87899
G0 F3600 X95.656 Y96.062
G0 X96.619 Y96.912
G0 X96.679 Y96.966
G0 X96.605 Y96.899
;TYPE:WALL-INNER
G1 F1500 E14.37899
G1 F1800 X96.915 Y96.59 E14.40083
G1 X97.3 Y96.28 E14.42549
G1 X97.706 Y96.015 E14.44967
G1 X98.095 Y95.815 E14.4715
G1 X98.586 Y95.625 E14.49776
G1 X99.04 Y95.504 E14.5212
G1 X99.565 Y95.422 E14.54771
G1 X100.001 Y95.402 E14.56949
G1 X100.431 Y95.421 E14.59096
G1 X100.962 Y95.504 E14.61778
G1 X101.414 Y95.625 E14.64112
G1 X101.905 Y95.815 E14.66739
G1 X102.294 Y96.015 E14.68921
G1 X102.7 Y96.28 E14.7134
G1 X103.085 Y96.59 E14.73806
G1 X103.395 Y96.899 E14.75989
G1 X103.725 Y97.306 E14.78604
G1 X103.98 Y97.699 E14.80941
G1 X104.224 Y98.182 E14.83641
G1 X104.373 Y98.577 E14.85747
G1 X104.491 Y99.011 E14.87991
G1 X104.511 Y99.107 E14.8848
G1 X104.573 Y99.517 E14.90549
G1 X104.598 Y99.995 E14.92937
G1 X104.571 Y100.511 E14.95514
G1 X104.501 Y100.945 E14.97708
G1 X104.375 Y101.414 E15.0013
G1 X104.194 Y101.888 E15.02662
G1 X104.011 Y102.25 E15.04685
G1 X103.715 Y102.707 E15.07402
G1 X103.417 Y103.076 E15.09768
G1 X103.043 Y103.448 E15.124
G1 X102.707 Y103.717 E15.14547
G1 X102.263 Y104.003 E15.17182
G1 X101.868 Y104.2 E15.19384
G1 X101.418 Y104.374 E15.21791
G1 X100.918 Y104.506 E15.24371
G1 X100.497 Y104.572 E15.26497
G1 X100 Y104.596 E15.2898
G1 X99.509 Y104.572 E15.31432
G1 X99.047 Y104.499 E15.33766
G1 X98.561 Y104.367 E15.36278
G1 X98.146 Y104.209 E15.38494
G1 X97.71 Y103.986 E15.40937
G1 X97.284 Y103.71 E15.43469
G1 X96.958 Y103.449 E15.45553
G1 X96.583 Y103.076 E15.48192
G1 X96.285 Y102.707 E15.50558
G1 X95.989 Y102.25 E15.53274
G1 X95.806 Y101.888 E15.55298
G1 X95.625 Y101.414 E15.57829
G1 X95.499 Y100.943 E15.60262
G1 X95.429 Y100.509 E15.62455
G1 X95.402 Y99.993 E15.65033
G1 X95.427 Y99.525 E15.67371
G1 X95.509 Y99.008 E15.69983
G1 X95.63 Y98.567 E15.72264
G1 X95.816 Y98.092 E15.74809
G1 X96.019 Y97.701 E15.77007
G1 X96.279 Y97.3 E15.79392
G1 X96.605 Y96.899 E15.8197
G0 F3600 X96.307 Y96.631
;TYPE:WALL-OUTER
G1 F1800 X96.644 Y96.296 E15.8434
G1 X97.065 Y95.956 E15.8704
G1 X97.51 Y95.666 E15.8969
G1 X97.927 Y95.451 E15.92031
G1 X98.461 Y95.245 E15.94886
G1 X98.957 Y95.112 E15.97448
G1 X99.532 Y95.023 E16.00351
G1 X100 Y95.001 E16.02689
G1 X100.466 Y95.022 E16.05016
G1 X101.044 Y95.112 E16.07934
G1 X101.539 Y95.245 E16.10491
G1 X102.073 Y95.451 E16.13347
G1 X102.49 Y95.666 E16.15688
G1 X102.935 Y95.956 E16.18338
G1 X103.356 Y96.296 E16.21037
G1 X103.693 Y96.631 E16.23408
G1 X104.045 Y97.066 E16.262
G1 X104.328 Y97.5 E16.28785
G1 X104.59 Y98.02 E16.3169
G1 X104.755 Y98.457 E16.3402
G1 X104.877 Y98.906 E16.36341
G1 X104.902 Y99.024 E16.36943
G1 X104.971 Y99.477 E16.39229
G1 X104.998 Y100.002 E16.41852
G1 X104.979 Y100.444 E16.44059
G1 X104.967 Y100.566 E16.44671
G1 X104.893 Y101.025 E16.4699
G1 X104.754 Y101.543 E16.49666
G1 X104.561 Y102.049 E16.52368
G1 X104.357 Y102.452 E16.54621
G1 X104.044 Y102.935 E16.57493
G1 X103.711 Y103.348 E16.6014
G1 X103.313 Y103.744 E16.62941
G1 X102.939 Y104.044 E16.65333
G1 X102.54 Y104.305 E16.67711
G1 X102.442 Y104.361 E16.68274
G1 X102.034 Y104.565 E16.7055
G1 X101.538 Y104.756 E16.73202
G1 X101.004 Y104.897 E16.75957
G1 X100.532 Y104.971 E16.78341
G1 X100 Y104.997 E16.80998
G1 X99.472 Y104.971 E16.83636
G1 X98.968 Y104.891 E16.86182
G1 X98.547 Y104.782 E16.88351
G1 X98.424 Y104.743 E16.88995
G1 X97.985 Y104.576 E16.91338
G1 X97.504 Y104.33 E16.94034
G1 X97.055 Y104.039 E16.96703
G1 X96.688 Y103.745 E16.99049
G1 X96.289 Y103.348 E17.01857
G1 X95.956 Y102.935 E17.04504
G1 X95.643 Y102.452 E17.07375
G1 X95.439 Y102.049 E17.09629
G1 X95.246 Y101.543 E17.12331
G1 X95.107 Y101.025 E17.15006
G1 X95.033 Y100.564 E17.17336
G1 X95.022 Y100.447 E17.17922
G1 X95.002 Y100.001 E17.20149
G1 X95.029 Y99.477 E17.22767
G1 X95.096 Y99.03 E17.25022
G1 X95.119 Y98.919 E17.25588
G1 X95.248 Y98.447 E17.28029
G1 X95.409 Y98.021 E17.30301
G1 X95.461 Y97.908 E17.30922
G1 X95.672 Y97.501 E17.33209
G1 X95.959 Y97.06 E17.35834
G1 X96.307 Y96.631 E17.3859
G0 F3600 X96.448 Y96.49
G0 X96.879 Y96.879
;TYPE:SKIN
G1 F1800 X103.118 Y103.118 E17.82609
G1 X103.188 Y103.188
G0 F3600 X103.388 Y102.823
G1 F1800 X97.176 Y96.61 E18.26442
G1 X97.106 Y96.54
G0 F3600 X97.496 Y96.365
G1 F1800 X103.632 Y102.501 E18.69735
G1 X103.702 Y102.571
G0 F3600 X103.854 Y102.157
G1 F1800 X97.843 Y96.146 E19.12145
G1 X97.773 Y96.076
