;FLAVOR:RepRap
;TIME:742
;Filament used: 0.37041m
;Layer height: 0.1
;Generated with Cura_SteamEngine 2.5.0
M190 S59
M104 S200
M109 S200
G21 ;metric values
G90 ;absolute positioning
M82 ;set extruder to absolute mode
M107 ;start with the fan off
G28 X0 Y0 ;move X/Y to min endstops
G28 Z0 ;move Z to min endstops
G1 Z15.0 F9000 ;move the platform down 15mm
G92 E0 ;zero the extruded length
G1 F200 E3 ;extrude 3mm of feed stock
G92 E0 ;zero the extruded length again
G1 F9000
;Put printing message on LCD screen
M117 Printing...
;LAYER_COUNT:98
;LAYER:0
M107
G0 F3600 X68.089 Y92.132 Z0.3
;TYPE:SKIRT
G1 F1800 X68.668 Y91.739 E0.03491
G1 X70.075 Y90.972 E0.11486
G1 X70.708 Y90.702 E0.14919
G1 X73.266 Y89.89 E0.28309
G1 X80.421 Y87.266 E0.6633
G1 X80.937 Y87.119 E0.69007
G1 X81.634 Y87.046 E0.72503
G1 X87.504 Y87.004 E1.01789
G1 X92.964 Y86.652 E1.29086
G1 X98.725 Y85.968 E1.5803
G1 X99.198 Y85.943 E1.60393
G1 X101.181 Y85.97 E1.70287
G1 X101.776 Y86.028 E1.73269
G1 X103.272 Y86.3 E1.80855
G1 X103.774 Y86.429 E1.83441
G1 X105.171 Y86.898 E1.90793
G1 X105.718 Y87.134 E1.93765
G1 X107.491 Y88.079 E2.03789
G1 X108.063 Y88.458 E2.07212
G1 X109.611 Y89.711 E2.17148
G1 X110.045 Y90.126 E2.20144
G1 X111.041 Y91.254 E2.27651
G1 X111.397 Y91.732 E2.30625
G1 X112.443 Y93.409 E2.40486
G1 X112.716 Y93.942 E2.43473
G1 X113.286 Y95.325 E2.50936
G1 X113.448 Y95.813 E2.53501
G1 X113.821 Y97.286 E2.61082
G1 X113.919 Y97.879 E2.64081
G1 X114.079 Y99.854 E2.73966
G1 X114.07 Y100.538 E2.77379
G1 X113.852 Y102.525 E2.87352
G1 X113.718 Y103.178 E2.90678
G1 X113.174 Y104.969 E3.00016
G1 X112.964 Y105.502 E3.02874
G1 X112.31 Y106.842 E3.10313
G1 X112.008 Y107.35 E3.13262
G1 X110.893 Y108.917 E3.22856
G1 X110.624 Y109.251 E3.24996
G1 X110.155 Y109.767 E3.28475
G1 X109.875 Y110.044 E3.3044
G1 X108.748 Y111.04 E3.37943
G1 X108.267 Y111.398 E3.40935
G1 X106.582 Y112.447 E3.50837
G1 X106.051 Y112.719 E3.53814
G1 X104.675 Y113.286 E3.61239
G1 X104.19 Y113.447 E3.63788
G1 X102.718 Y113.821 E3.71365
G1 X102.205 Y113.913 E3.73966
G1 X100.721 Y114.068 E3.8141
G1 X100.293 Y114.087 E3.83547
G1 X99.294 Y114.072 E3.88532
G1 X98.956 Y114.051 E3.90221
G1 X91.356 Y113.218 E4.28365
G1 X85.905 Y112.957 E4.55591
G1 X81.673 Y112.958 E4.76705
G1 X81.138 Y112.918 E4.79381
G1 X80.399 Y112.725 E4.83192
G1 X75.019 Y110.691 E5.11887
G1 X70.559 Y109.238 E5.35289
G1 X69.883 Y108.938 E5.38979
G1 X68.462 Y108.123 E5.47151
G1 X68.018 Y107.822 E5.49828
G1 X67.772 Y107.609 E5.51451
G1 X66.795 Y106.68 E5.58177
G1 X66.435 Y106.282 E5.60854
G1 X66.26 Y106.036 E5.62361
G1 X65.393 Y104.705 E5.70286
G1 X65.134 Y104.235 E5.72963
G1 X65.006 Y103.915 E5.74682
G1 X64.52 Y102.507 E5.82114
G1 X64.383 Y101.988 E5.84792
G1 X64.343 Y101.708 E5.86203
G1 X64.202 Y100.366 E5.92935
G1 X64.193 Y99.707 E5.96223
G1 X64.27 Y98.73 E6.01112
G1 X64.404 Y98.001 E6.0481
G1 X64.852 Y96.471 E6.12764
G1 X65.041 Y95.969 E6.1544
G1 X65.207 Y95.653 E6.17221
G1 X65.984 Y94.337 E6.24845
G1 X66.404 Y93.763 E6.28394
G1 X67.04 Y93.054 E6.33146
G1 X67.418 Y92.69 E6.35764
G1 X68.089 Y92.132 E6.40118
G0 F3600 X68.345 Y92.44
G1 F1800 X68.859 Y92.09 E6.4322
G1 X70.266 Y91.323 E6.51215
G1 X70.829 Y91.083 E6.54268
G1 X73.405 Y90.265 E6.67752
G1 X80.558 Y87.642 E7.05762
G1 X81.045 Y87.506 E7.08285
G1 X81.637 Y87.446 E7.11254
G1 X87.533 Y87.404 E7.4067
G1 X92.98 Y87.052 E7.67902
G1 X98.772 Y86.365 E7.97001
G1 X99.193 Y86.343 E7.99104
G1 X101.176 Y86.37 E8.08998
G1 X101.704 Y86.422 E8.11645
G1 X103.2 Y86.694 E8.19231
G1 X103.646 Y86.808 E8.21527
G1 X105.043 Y87.277 E8.28879
G1 X105.53 Y87.487 E8.31525
G1 X107.303 Y88.432 E8.41549
G1 X107.811 Y88.769 E8.4459
G1 X109.359 Y90.022 E8.54526
G1 X109.745 Y90.391 E8.5719
G1 X110.741 Y91.519 E8.64698
G1 X111.057 Y91.943 E8.67336
G1 X112.103 Y93.62 E8.77197
G1 X112.347 Y94.095 E8.79861
G1 X112.917 Y95.478 E8.87324
G1 X113.06 Y95.911 E8.89599
G1 X113.433 Y97.384 E8.97179
G1 X113.521 Y97.912 E8.9985
G1 X113.681 Y99.887 E9.09736
G1 X113.672 Y100.494 E9.12764
G1 X113.454 Y102.481 E9.22737
G1 X113.335 Y103.062 E9.25696
G1 X112.791 Y104.853 E9.35034
G1 X112.605 Y105.327 E9.37574
G1 X111.951 Y106.667 E9.45013
G1 X111.682 Y107.118 E9.47633
G1 X110.567 Y108.685 E9.57228
G1 X110.328 Y108.982 E9.5913
G1 X109.859 Y109.498 E9.62609
G1 X109.61 Y109.744 E9.64355
G1 X108.483 Y110.74 E9.71859
G1 X108.055 Y111.059 E9.74522
G1 X106.37 Y112.108 E9.84425
G1 X105.898 Y112.35 E9.87071
G1 X104.522 Y112.917 E9.94496
G1 X104.091 Y113.059 E9.9676
G1 X102.619 Y113.433 E10.04337
G1 X102.163 Y113.515 E10.06648
G1 X100.679 Y113.67 E10.14092
G1 X100.299 Y113.687 E10.1599
G1 X99.3 Y113.672 E10.20975
G1 X99 Y113.653 E10.22474
G1 X91.387 Y112.819 E10.60683
G1 X85.924 Y112.557 E10.87969
G1 X81.673 Y112.558 E11.09178
G1 X81.169 Y112.518 E11.117
G1 X80.54 Y112.351 E11.14947
G1 X75.151 Y110.313 E11.43691
G1 X70.683 Y108.858 E11.67134
G1 X70.082 Y108.591 E11.70415
G1 X68.661 Y107.776 E11.78588
G1 X68.244 Y107.49 E11.81111
G1 X68.048 Y107.319 E11.82408
G1 X67.071 Y106.39 E11.89134
G1 X66.595 Y105.818 E11.92847
G1 X65.728 Y104.487 E12.00772
G1 X65.486 Y104.042 E12.03299
G1 X65.384 Y103.784 E12.04683
G1 X64.898 Y102.376 E12.12114
G1 X64.741 Y101.666 E12.15742
G1 X64.6 Y100.324 E12.22474
G1 X64.592 Y99.739 E12.25393
G1 X64.669 Y98.762 E12.30282
G1 X64.788 Y98.114 E12.33569
G1 X65.236 Y96.584 E12.41523
G1 X65.416 Y96.111 E12.44048
G1 X65.551 Y95.856 E12.45487
G1 X66.328 Y94.54 E12.53112
G1 X66.702 Y94.03 E12.56267
G1 X67.338 Y93.321 E12.61019
G1 X67.674 Y92.998 E12.63344
G1 X68.345 Y92.44 E12.67698
G1 F1500 E6.17698
G0 F3600 X69.941 Y94.395
G0 X70.735 Y95.404
G0 X70.782 Y95.468
G0 X70.724 Y95.388
;TYPE:WALL-INNER
G1 F1500 E12.67698
G1 F1800 X71.095 Y95.139 E12.69927
G1 X71.475 Y94.927 E12.72098
G1 X71.898 Y94.732 E12.74422
G1 X72.305 Y94.582 E12.76586
G1 X72.751 Y94.457 E12.78897
G1 X73.172 Y94.372 E12.8104
G1 X73.62 Y94.32 E12.8329
G1 X74.072 Y94.301 E12.85547
G1 X74.524 Y94.32 E12.87804
G1 X74.971 Y94.372 E12.90049
G1 X75.394 Y94.457 E12.92202
G1 X75.839 Y94.582 E12.94508
G1 X76.246 Y94.732 E12.96672
G1 X76.669 Y94.927 E12.98995
G1 X77.048 Y95.139 E13.01162
G1 X77.626 Y95.528 E13.04638
G1 X81.532 Y91.62 E13.32204
G1 X81.673 Y91.479 E13.33199
G1 X81.814 Y91.62 E13.33841
G1 X82.593 Y92.399 E13.39337
G1 X78.442 Y96.551 E13.68628
G1 X76.799 Y96.551 E13.76825
G1 X76.751 Y96.509 E13.77144
G1 X76.272 Y96.189 E13.80018
G1 X75.757 Y95.935 E13.82882
G1 X75.211 Y95.749 E13.8576
G1 X74.646 Y95.636 E13.88635
G1 X74.072 Y95.6 E13.91504
G1 X73.498 Y95.636 E13.94373
G1 X72.932 Y95.749 E13.97253
G1 X72.387 Y95.935 E14.00126
G1 X71.872 Y96.189 E14.02991
G1 X71.393 Y96.509 E14.05865
G1 X70.96 Y96.887 E14.08732
G1 X70.58 Y97.321 E14.1161
G1 X70.26 Y97.801 E14.14488
G1 X70.006 Y98.315 E14.17349
G1 X69.82 Y98.861 E14.20226
G1 X69.707 Y99.427 E14.23106
G1 X69.671 Y100 E14.2597
G1 X69.707 Y100.573 E14.28835
G1 X69.82 Y101.139 E14.31714
G1 X70.006 Y101.685 E14.34592
G1 X70.26 Y102.199 E14.37452
G1 X70.58 Y102.679 E14.4033
G1 X70.96 Y103.113 E14.43208
G1 X71.393 Y103.491 E14.46076
G1 X71.872 Y103.811 E14.4895
G1 X72.387 Y104.065 E14.51815
G1 X72.932 Y104.251 E14.54688
G1 X73.498 Y104.364 E14.57567
G1 X74.072 Y104.4 E14.60437
G1 X74.646 Y104.364 E14.63306
G1 X75.211 Y104.251 E14.6618
G1 X75.757 Y104.065 E14.69058
G1 X76.272 Y103.811 E14.71923
G1 X76.751 Y103.491 E14.74797
G1 X76.799 Y103.449 E14.75115
G1 X78.442 Y103.449 E14.83312
G1 X82.593 Y107.601 E15.12603
G1 X81.814 Y108.38 E15.181
G1 X81.673 Y108.521 E15.19094
G1 X81.532 Y108.38 E15.19737
G1 X77.626 Y104.472 E15.47303
G1 X77.048 Y104.861 E15.50779
G1 X76.669 Y105.073 E15.52945
G1 X76.246 Y105.268 E15.55269
G1 X75.839 Y105.418 E15.57433
G1 X75.394 Y105.543 E15.59739
G1 X74.971 Y105.628 E15.61892
G1 X74.524 Y105.68 E15.64137
G1 X74.072 Y105.699 E15.66394
G1 X73.62 Y105.68 E15.68651
G1 X73.172 Y105.628 E15.70901
G1 X72.751 Y105.543 E15.73044
G1 X72.305 Y105.418 E15.75354
G1 X71.898 Y105.268 E15.77519
G1 X71.475 Y105.073 E15.79842
G1 X71.095 Y104.861 E15.82013
G1 X70.727 Y104.615 E15.84222
G1 X70.369 Y104.332 E15.86498
G1 X70.042 Y104.029 E15.88722
G1 X69.739 Y103.702 E15.90947
G1 X69.457 Y103.345 E15.93216
G1 X69.214 Y102.98 E15.95404
G1 X68.995 Y102.588 E15.97644
G1 X68.801 Y102.168 E15.99952
G1 X68.653 Y101.766 E16.02089
G1 X68.528 Y101.32 E16.044
G1 X68.443 Y100.898 E16.06548
G1 X68.39 Y100.446 E16.08818
G1 X68.373 Y100 E16.11045
G1 X68.39 Y99.554 E16.13272
G1 X68.443 Y99.102 E16.15542
G1 X68.528 Y98.677 E16.17705
G1 X68.653 Y98.234 E16.20001
G1 X68.801 Y97.832 E16.22138
G1 X68.995 Y97.412 E16.24446
G1 X69.214 Y97.02 E16.26687
G1 X69.46 Y96.651 E16.28899
G1 X69.739 Y96.298 E16.31144
G1 X70.042 Y95.971 E16.33368
G1 X70.375 Y95.663 E16.35631
G1 X70.724 Y95.388 E16.37848
G0 F3600 X70.493 Y95.061
;TYPE:WALL-OUTER
G1 F1800 X70.884 Y94.799 E16.40196
G1 X71.296 Y94.569 E16.4255
G1 X71.74 Y94.364 E16.4499
G1 X72.185 Y94.2 E16.47356
G1 X72.655 Y94.068 E16.49792
G1 X73.111 Y93.977 E16.52111
G1 X73.596 Y93.92 E16.54548
G1 X74.072 Y93.9 E16.56925
G1 X74.548 Y93.92 E16.59301
G1 X75.032 Y93.977 E16.61733
G1 X75.489 Y94.068 E16.64058
G1 X75.959 Y94.2 E16.66493
G1 X76.404 Y94.364 E16.68859
G1 X76.848 Y94.569 E16.71299
G1 X77.259 Y94.799 E16.73649
G1 X77.576 Y95.012 E16.75554
G1 X81.532 Y91.054 E17.03473
G1 X81.673 Y90.913 E17.04468
G1 X81.814 Y91.054 E17.0511
G1 X83.159 Y92.399 E17.146
G1 X78.608 Y96.951 E17.46713
G1 X76.648 Y96.951 E17.56492
G1 X76.507 Y96.827 E17.57428
G1 X76.072 Y96.536 E17.60039
G1 X75.603 Y96.305 E17.62648
G1 X75.107 Y96.136 E17.65262
G1 X74.594 Y96.034 E17.67871
G1 X74.072 Y96.001 E17.70481
G1 X73.55 Y96.034 E17.7309
G1 X73.036 Y96.136 E17.75705
G1 X72.541 Y96.305 E17.78314
G1 X72.072 Y96.536 E17.80923
G1 X71.637 Y96.827 E17.83534
G1 X71.243 Y97.171 E17.86143
G1 X70.898 Y97.565 E17.88756
G1 X70.607 Y98.001 E17.91371
G1 X70.376 Y98.469 E17.93975
G1 X70.207 Y98.965 E17.96589
G1 X70.105 Y99.479 E17.99203
G1 X70.072 Y100 E18.01808
G1 X70.105 Y100.521 E18.04412
G1 X70.207 Y101.035 E18.07027
G1 X70.376 Y101.531 E18.09641
G1 X70.607 Y101.999 E18.12245
G1 X70.898 Y102.435 E18.1486
G1 X71.243 Y102.829 E18.17473
G1 X71.637 Y103.173 E18.20082
G1 X72.072 Y103.464 E18.22693
G1 X72.541 Y103.695 E18.25302
G1 X73.036 Y103.864 E18.27911
G1 X73.55 Y103.966 E18.30525
G1 X74.072 Y103.999 E18.33135
G1 X74.594 Y103.966 E18.35744
G1 X75.107 Y103.864 E18.38354
G1 X75.603 Y103.695 E18.40968
G1 X76.072 Y103.464 E18.43576
G1 X76.507 Y103.173 E18.46187
G1 X76.648 Y103.049 E18.47124
G1 X78.608 Y103.049 E18.56903
G1 X83.159 Y107.601 E18.89016
G1 X81.814 Y108.946 E18.98506
G1 X81.673 Y109.087 E18.995
G1 X81.532 Y108.946 E19.00143
G1 X77.576 Y104.988 E19.28062
G1 X77.259 Y105.201 E19.29967
G1 X76.848 Y105.431 E19.32317
G1 X76.404 Y105.636 E19.34757
G1 X75.959 Y105.8 E19.37123
G1 X75.489 Y105.932 E19.39558
G1 X75.032 Y106.023 E19.41883
G1 X74.548 Y106.08 E19.44314
G1 X74.072 Y106.1 E19.46691
G1 X73.596 Y106.08 E19.49068
G1 X73.111 Y106.023 E19.51504
G1 X72.655 Y105.932 E19.53824
G1 X72.185 Y105.8 E19.5626
G1 X71.74 Y105.636 E19.58626
G1 X71.296 Y105.431 E19.61066
G1 X70.884 Y105.201 E19.6342
G1 X70.49 Y104.937 E19.65786
G1 X70.112 Y104.639 E19.68187
G1 X69.759 Y104.312 E19.70588
G1 X69.432 Y103.959 E19.72989
G1 X69.132 Y103.579 E19.75404
G1 X68.875 Y103.193 E19.77718
G1 X68.637 Y102.767 E19.80152
G1 X68.433 Y102.326 E19.82576
G1 X68.271 Y101.886 E19.84916
G1 X68.139 Y101.416 E19.87351
G1 X68.048 Y100.96 E19.89671
G1 X67.99 Y100.471 E19.92128
G1 X67.972 Y100 E19.94479
G1 X67.99 Y99.529 E19.96831
G1 X68.048 Y99.038 E19.99297
G1 X68.139 Y98.584 E20.01607
G1 X68.271 Y98.114 E20.04043
G1 X68.433 Y97.674 E20.06382
G1 X68.637 Y97.233 E20.08806
G1 X68.875 Y96.807 E20.11241
G1 X69.132 Y96.421 E20.13555
G1 X69.432 Y96.041 E20.1597
G1 X69.759 Y95.688 E20.18371
G1 X70.112 Y95.361 E20.20771
G1 X70.493 Y95.061 E20.23191
G0 F3600 X70.659 Y94.95
G0 X71.056 Y95.38
;TYPE:SKIN
G1 F1800 X71.737 Y96.061 E20.27995
G1 X71.807 Y96.131
G0 F3600 X71.397 Y96.288
G1 F1800 X70.725 Y95.615 E20.3274
G1 X70.655 Y95.545
G0 F3600 X70.415 Y95.87
G1 F1800 X71.082 Y96.538 E20.3745
G1 X71.152 Y96.608
G0 F3600 X70.787 Y96.809
G1 F1800 X70.124 Y96.146 E20.42128
G1 X70.054 Y96.076
G0 F3600 X69.854 Y96.441
G1 F1800 X70.524 Y97.111 E20.46855
G1 X70.594 Y97.181
G0 F3600 X70.285 Y97.438
G1 F1800 X69.604 Y96.757 E20.5166
G1 X69.534 Y96.687
G0 F3600 X69.378 Y97.097
G1 F1800 X70.067 Y97.785 E20.56517
G1 X70.137 Y97.855
G0 F3600 X69.879 Y98.164
G1 F1800 X69.174 Y97.459 E20.61492
G1 X69.104 Y97.389
G0 F3600 X68.993 Y97.843
G1 F1800 X69.726 Y98.576 E20.66663
G1 X69.796 Y98.646
G0 F3600 X69.604 Y99.02
G1 F1800 X68.837 Y98.253 E20.72075
G1 X68.767 Y98.183
G0 F3600 X68.709 Y98.69
G1 F1800 X69.522 Y99.503 E20.77811
G1 X69.592 Y99.573
G0 F3600 X69.493 Y100.04
G1 F1800 X68.616 Y99.163 E20.83999
G1 X68.546 Y99.093
G0 F3600 X68.564 Y99.677
G1 F1800 X69.54 Y100.653 E20.90885
G1 X69.61 Y100.723
G0 F3600 X69.717 Y101.396
G1 F1800 X68.561 Y100.24 E20.99041
G1 X68.491 Y100.17
G0 F3600 X68.62 Y100.864
G1 F1800 X70.222 Y102.466 E21.10344
G1 X70.292 Y102.536
G0 F3600 X69.186 Y102.562
G1 F1800 X71.511 Y104.886 E21.26745
G1 X71.581 Y104.956
G0 F3600 X72.464 Y105.274
G1 F1800 X68.795 Y101.604 E21.52635
G1 X68.725 Y101.534
G0 F3600 X71.603 Y103.847
G1 F1800 X73.206 Y105.45 E21.63945
G1 X73.276 Y105.52
G0 F3600 X73.829 Y105.507
G1 F1800 X72.674 Y104.352 E21.72094
G1 X72.604 Y104.282
G0 F3600 X73.418 Y104.53
G1 F1800 X74.391 Y105.503 E21.78959
G1 X74.461 Y105.573
G0 F3600 X74.905 Y105.452
G1 F1800 X74.03 Y104.577 E21.85133
G1 X73.96 Y104.507
G0 F3600 X74.567 Y104.548
G1 F1800 X75.377 Y105.358 E21.90848
G1 X75.447 Y105.428
G0 F3600 X75.817 Y105.233
G1 F1800 X75.05 Y104.465 E21.96263
G1 X74.98 Y104.395
G0 F3600 X75.494 Y104.344
G1 F1800 X76.226 Y105.076 E22.01428
G1 X76.296 Y105.146
G0 F3600 X76.612 Y104.897
G1 F1800 X75.907 Y104.191 E22.06405
G1 X75.837 Y104.121
G0 F3600 X76.286 Y104.004
G1 F1800 X76.973 Y104.692 E22.11256
G1 X77.043 Y104.762
G0 F3600 X77.311 Y104.464
G1 F1800 X76.632 Y103.785 E22.16047
G1 X76.562 Y103.715
G0 F3600 X77.041 Y103.628
G1 F1800 X81.675 Y108.262 E22.48742
G1 X81.745 Y108.332
G0 F3600 X81.958 Y107.98
G1 F1800 X77.607 Y103.628 E22.79444
G1 X77.537 Y103.558
G0 F3600 X78.172 Y103.628
G1 F1800 X82.241 Y107.697 E23.08153
G1 X82.311 Y107.767
G0 F3600 X82.3 Y107.754
G0 X76.775 Y103.522
G0 X75.772 Y104.101
G0 X74.651 Y104.403
G0 X73.493 Y104.403
G0 X72.372 Y104.101
G0 X71.369 Y103.522
G0 X70.549 Y102.703
G0 X69.97 Y101.7
G0 X69.668 Y100.578
G0 X69.668 Y99.422
G0 X69.97 Y98.3
G0 X70.549 Y97.297
G0 X70.932 Y96.859
G0 X71.852 Y96.155
G0 X72.922 Y95.711
G0 X74.072 Y95.56
G0 X75.221 Y95.711
G0 X78.268 Y96.37
G1 F1800 X77.652 Y95.754 E23.12499
G1 X77.582 Y95.684
G0 F3600 X77.935 Y95.471
G1 F1800 X78.601 Y96.137 E23.17198
G1 X78.671 Y96.207
G0 F3600 X78.884 Y95.854
G1 F1800 X78.218 Y95.188 E23.21897
G1 X78.148 Y95.118
G0 F3600 X78.5 Y94.905
G1 F1800 X79.166 Y95.571 E23.26596
G1 X79.236 Y95.641
G0 F3600 X79.449 Y95.289
G1 F1800 X78.783 Y94.622 E23.31299
G1 X78.713 Y94.552
G0 F3600 X79.066 Y94.34
G1 F1800 X79.732 Y95.006 E23.35998
G1 X79.802 Y95.076
G0 F3600 X80.015 Y94.723
G1 F1800 X79.349 Y94.057 E23.40697
G1 X79.279 Y93.987
G0 F3600 X79.632 Y93.774
G1 F1800 X80.298 Y94.44 E23.45396
G1 X80.368 Y94.51
G0 F3600 X80.581 Y94.157
G1 F1800 X79.914 Y93.49 E23.50102
G1 X79.844 Y93.42
G0 F3600 X80.197 Y93.207
G1 F1800 X80.864 Y93.874 E23.54808
G1 X80.934 Y93.944
G0 F3600 X81.146 Y93.591
G1 F1800 X80.48 Y92.925 E23.59507
G1 X80.41 Y92.855
G0 F3600 X80.762 Y92.642
G1 F1800 X81.429 Y93.309 E23.64213
G1 X81.499 Y93.379
G0 F3600 X81.712 Y93.026
G1 F1800 X81.045 Y92.359 E23.68919
G1 X80.975 Y92.289
G0 F3600 X81.328 Y92.076
G1 F1800 X81.995 Y92.743 E23.73625
G1 X82.065 Y92.813
G0 F3600 X82.278 Y92.46
G1 F1800 X81.611 Y91.793 E23.78331
G1 X81.541 Y91.723
G0 F3600 X81.555 Y91.737
G0 X77.703 Y96.37
G1 F1800 X76.277 Y94.944 E23.88392
G1 X76.207 Y94.874
G0 F3600 X75.417 Y94.651
G1 F1800 X77.137 Y96.37 E24.00524
G1 X77.207 Y96.44
G0 F3600 X76.106 Y95.905
G1 F1800 X74.725 Y94.524 E24.10268
G1 X74.655 Y94.454
G0 F3600 X74.117 Y94.482
G1 F1800 X75.196 Y95.561 E24.17881
