;FLAVOR:RepRap
;TIME:1192
;Filament used: 0.584913m
;Layer height: 0.1
;Generated with Cura_SteamEngine 2.5.0
M190 S59
M104 S200
M109 S200
G21 ;metric values
G90 ;absolute positioning
M82 ;set extruder to absolute mode
M107 ;start with the fan off
G28 X0 Y0 ;move X/Y to min endstops
G28 Z0 ;move Z to min endstops
G1 Z15.0 F9000 ;move the platform down 15mm
G92 E0 ;zero the extruded length
G1 F200 E3 ;extrude 3mm of feed stock
G92 E0 ;zero the extruded length again
G1 F9000
;Put printing message on LCD screen
M117 Printing...
;LAYER_COUNT:98
;LAYER:0
M107
G0 F3600 X77.254 Y91.857 Z0.3
;TYPE:SKIRT
G1 F1800 X77.928 Y91.393 E0.04082
G1 X79.34 Y90.622 E0.12109
G1 X80.046 Y90.321 E0.15938
G1 X82.549 Y89.526 E0.2904
G1 X89.757 Y86.885 E0.67339
G1 X90.3 Y86.729 E0.70157
G1 X90.86 Y86.65 E0.72979
G1 X91.386 Y86.649 E0.75603
G1 X94.189 Y86.827 E0.89615
G1 X99.635 Y86.94 E1.16791
G1 X106.659 Y86.646 E1.51865
G1 X107.225 Y86.662 E1.5469
G1 X107.782 Y86.758 E1.5751
G1 X108.32 Y86.931 E1.60329
G1 X108.828 Y87.178 E1.63147
G1 X109.296 Y87.495 E1.65967
G1 X109.651 Y87.809 E1.68332
G1 X111.417 Y89.569 E1.80771
G1 X111.788 Y89.995 E1.83589
G1 X112.095 Y90.47 E1.86411
G1 X112.333 Y90.983 E1.89232
G1 X112.495 Y91.524 E1.9205
G1 X112.58 Y92.083 E1.94871
G1 X112.588 Y92.594 E1.9742
G1 X112.332 Y97.93 E2.24072
G1 X112.372 Y103.397 E2.51348
G1 X112.588 Y107.378 E2.71239
G1 X112.579 Y107.943 E2.74058
G1 X112.49 Y108.501 E2.76877
G1 X112.323 Y109.041 E2.79697
G1 X112.082 Y109.553 E2.8252
G1 X111.771 Y110.025 E2.8534
G1 X111.425 Y110.42 E2.8796
G1 X109.664 Y112.184 E3.00395
G1 X109.237 Y112.555 E3.03217
G1 X108.762 Y112.862 E3.06039
G1 X108.249 Y113.099 E3.08858
G1 X107.708 Y113.261 E3.11676
G1 X107.149 Y113.346 E3.14497
G1 X106.579 Y113.35 E3.1734
G1 X103.796 Y113.173 E3.31253
G1 X98.352 Y113.059 E3.58419
G1 X91.303 Y113.355 E3.93618
G1 X90.737 Y113.339 E3.96443
G1 X90.18 Y113.243 E3.99262
G1 X89.722 Y113.101 E4.01655
G1 X84.269 Y111.043 E4.30733
G1 X79.895 Y109.619 E4.53682
G1 X79.143 Y109.285 E4.57787
G1 X77.727 Y108.473 E4.65931
G1 X77.076 Y108.007 E4.69925
G1 X76.431 Y107.44 E4.7421
G1 X75.902 Y106.876 E4.78067
G1 X74.93 Y105.613 E4.86019
G1 X74.502 Y104.92 E4.90082
G1 X74.07 Y104.03 E4.95018
G1 X73.804 Y103.319 E4.98805
G1 X73.453 Y102.01 E5.05566
G1 X73.346 Y101.455 E5.08386
G1 X73.319 Y101.086 E5.10232
G1 X73.274 Y99.476 E5.18268
G1 X73.298 Y98.911 E5.21089
G1 X73.369 Y98.488 E5.23229
G1 X73.696 Y97.031 E5.30679
G1 X73.941 Y96.288 E5.34582
G1 X74.339 Y95.389 E5.39487
G1 X74.627 Y94.853 E5.42523
G1 X75.113 Y94.093 E5.47023
G1 X75.457 Y93.632 E5.49893
G1 X76.064 Y92.93 E5.54523
G1 X76.499 Y92.499 E5.57578
G1 X77.254 Y91.857 E5.62522
G0 F3600 X77.513 Y92.161
G1 F1800 X78.12 Y91.744 E5.66196
G1 X79.532 Y90.973 E5.74223
G1 X80.167 Y90.702 E5.77667
G1 X82.695 Y89.899 E5.909
G1 X89.895 Y87.261 E6.29156
G1 X90.41 Y87.114 E6.31828
G1 X90.942 Y87.046 E6.34504
G1 X91.361 Y87.048 E6.36595
G1 X94.179 Y87.227 E6.50682
G1 X99.628 Y87.341 E6.77873
G1 X106.676 Y87.045 E7.13067
G1 X107.212 Y87.063 E7.15742
G1 X107.74 Y87.16 E7.18421
G1 X108.247 Y87.334 E7.21095
G1 X108.723 Y87.581 E7.2377
G1 X109.156 Y87.897 E7.26445
G1 X109.368 Y88.092 E7.27882
G1 X111.134 Y89.852 E7.40321
G1 X111.485 Y90.258 E7.42998
G1 X111.771 Y90.711 E7.45671
G1 X111.987 Y91.202 E7.48347
G1 X112.128 Y91.72 E7.51026
G1 X112.19 Y92.252 E7.53698
G1 X112.189 Y92.575 E7.55309
G1 X111.932 Y97.932 E7.82066
G1 X111.972 Y103.399 E8.09342
G1 X112.189 Y107.399 E8.29327
G1 X112.178 Y107.935 E8.32002
G1 X112.087 Y108.464 E8.3468
G1 X111.919 Y108.973 E8.37354
G1 X111.677 Y109.452 E8.40031
G1 X111.367 Y109.889 E8.42704
G1 X111.142 Y110.137 E8.44375
G1 X109.381 Y111.901 E8.5681
G1 X108.975 Y112.252 E8.59488
G1 X108.521 Y112.538 E8.62165
G1 X108.03 Y112.753 E8.64839
G1 X107.512 Y112.893 E8.67516
G1 X106.98 Y112.955 E8.70188
G1 X106.605 Y112.951 E8.72059
G1 X103.808 Y112.773 E8.86042
G1 X98.359 Y112.659 E9.13233
G1 X91.286 Y112.956 E9.48551
G1 X90.75 Y112.938 E9.51227
G1 X90.222 Y112.841 E9.53905
G1 X89.864 Y112.727 E9.5578
G1 X84.389 Y110.66 E9.84976
G1 X80.019 Y109.238 E10.07904
G1 X79.342 Y108.938 E10.11598
G1 X77.926 Y108.126 E10.19742
G1 X77.34 Y107.707 E10.23336
G1 X76.695 Y107.14 E10.2762
G1 X76.219 Y106.632 E10.31093
G1 X75.247 Y105.369 E10.39044
G1 X74.861 Y104.745 E10.42705
G1 X74.429 Y103.855 E10.47641
G1 X74.191 Y103.215 E10.51047
G1 X73.84 Y101.906 E10.57809
G1 X73.74 Y101.379 E10.60485
G1 X73.718 Y101.075 E10.62005
G1 X73.673 Y99.465 E10.70041
G1 X73.698 Y98.929 E10.72718
G1 X73.759 Y98.576 E10.74505
G1 X74.086 Y97.119 E10.81955
G1 X74.307 Y96.45 E10.8547
G1 X74.705 Y95.551 E10.90375
G1 X74.964 Y95.069 E10.93105
G1 X75.45 Y94.309 E10.97605
G1 X75.76 Y93.893 E11.00194
G1 X76.367 Y93.191 E11.04824
G1 X76.758 Y92.803 E11.07572
G1 X77.513 Y92.161 E11.12516
G0 F3600 X77.772 Y92.466
G1 F1800 X78.311 Y92.095 E11.15781
G1 X79.723 Y91.324 E11.23807
G1 X80.288 Y91.083 E11.26872
G1 X82.813 Y90.281 E11.40089
G1 X90.032 Y87.636 E11.78446
G1 X90.519 Y87.5 E11.80969
G1 X91.021 Y87.443 E11.83489
G1 X91.336 Y87.447 E11.85061
G1 X94.169 Y87.627 E11.99223
G1 X99.637 Y87.741 E12.26509
G1 X106.693 Y87.445 E12.61743
G1 X107.198 Y87.464 E12.64264
G1 X107.694 Y87.562 E12.66786
G1 X108.168 Y87.737 E12.69307
G1 X108.609 Y87.984 E12.71829
G1 X109.086 Y88.375 E12.74906
G1 X110.852 Y90.135 E12.87345
G1 X111.181 Y90.519 E12.89868
G1 X111.445 Y90.951 E12.92394
G1 X111.638 Y91.418 E12.94915
G1 X111.755 Y91.91 E12.97438
G1 X111.789 Y92.555 E13.0066
G1 X111.532 Y97.915 E13.27432
G1 X111.573 Y103.424 E13.54917
G1 X111.789 Y107.421 E13.74887
G1 X111.777 Y107.926 E13.77408
G1 X111.685 Y108.423 E13.79929
G1 X111.515 Y108.9 E13.82456
G1 X111.273 Y109.344 E13.84978
G1 X110.859 Y109.855 E13.88259
G1 X109.098 Y111.619 E14.00695
G1 X108.713 Y111.947 E14.03218
G1 X108.282 Y112.211 E14.0574
G1 X107.815 Y112.404 E14.08261
G1 X107.323 Y112.52 E14.10783
G1 X106.63 Y112.552 E14.14244
G1 X103.818 Y112.373 E14.28301
G1 X98.35 Y112.259 E14.55587
G1 X91.269 Y112.556 E14.90945
G1 X90.764 Y112.537 E14.93467
G1 X90.268 Y112.439 E14.95989
G1 X90.005 Y112.353 E14.9737
G1 X84.521 Y110.283 E15.26614
G1 X80.143 Y108.858 E15.49583
G1 X79.541 Y108.591 E15.52869
G1 X78.125 Y107.779 E15.61013
G1 X77.604 Y107.406 E15.64209
G1 X76.959 Y106.839 E15.68494
G1 X76.536 Y106.388 E15.71579
G1 X75.564 Y105.125 E15.7953
G1 X75.221 Y104.57 E15.82785
G1 X74.789 Y103.68 E15.8772
G1 X74.577 Y103.112 E15.90745
G1 X74.226 Y101.803 E15.97506
G1 X74.118 Y101.063 E16.01237
G1 X74.073 Y99.453 E16.09273
G1 X74.099 Y98.948 E16.11796
G1 X74.15 Y98.663 E16.1324
G1 X74.477 Y97.206 E16.2069
G1 X74.673 Y96.612 E16.23811
G1 X75.071 Y95.713 E16.28716
G1 X75.301 Y95.284 E16.31144
G1 X75.787 Y94.524 E16.35645
G1 X76.062 Y94.155 E16.37941
G1 X76.669 Y93.453 E16.42571
G1 X77.017 Y93.108 E16.45015
G1 X77.772 Y92.466 E16.4996
G1 F1500 E9.9996
G0 F3600 X79.336 Y94.446
G0 X80.12 Y95.439
G0 X80.248 Y95.463
G0 X80.19 Y95.383
;TYPE:WALL-INNER
G1 F1500 E16.4996
G1 F1800 X80.554 Y95.139 E16.52146
G1 X80.934 Y94.927 E16.54317
G1 X81.357 Y94.732 E16.56641
G1 X81.764 Y94.582 E16.58805
G1 X82.209 Y94.457 E16.61111
G1 X82.632 Y94.372 E16.63263
G1 X83.079 Y94.32 E16.65509
G1 X83.531 Y94.301 E16.67766
G1 X83.983 Y94.32 E16.70023
G1 X84.431 Y94.372 E16.72273
G1 X84.852 Y94.457 E16.74415
G1 X85.298 Y94.582 E16.76726
G1 X85.705 Y94.732 E16.7889
G1 X86.128 Y94.927 E16.81214
G1 X86.507 Y95.139 E16.83381
G1 X87.085 Y95.528 E16.86857
G1 X90.992 Y91.62 E17.14426
G1 X91.133 Y91.479 E17.15421
G1 X91.274 Y91.62 E17.16063
G1 X92.052 Y92.399 E17.21556
G1 X87.901 Y96.551 E17.50847
G1 X86.258 Y96.551 E17.59044
G1 X86.21 Y96.509 E17.59362
G1 X85.731 Y96.189 E17.62236
G1 X85.216 Y95.935 E17.65101
G1 X84.671 Y95.749 E17.67974
G1 X84.105 Y95.636 E17.70854
G1 X83.531 Y95.6 E17.73723
G1 X82.957 Y95.636 E17.76592
G1 X82.392 Y95.749 E17.79467
G1 X81.846 Y95.935 E17.82345
G1 X81.331 Y96.189 E17.8521
G1 X80.852 Y96.509 E17.88083
G1 X80.419 Y96.887 E17.90951
G1 X80.039 Y97.321 E17.93829
G1 X79.719 Y97.801 E17.96707
G1 X79.465 Y98.316 E17.99572
G1 X79.28 Y98.861 E18.02443
G1 X79.168 Y99.427 E18.05322
G1 X79.13 Y100 E18.08187
G1 X79.168 Y100.573 E18.11052
G1 X79.28 Y101.139 E18.1393
G1 X79.465 Y101.684 E18.16802
G1 X79.719 Y102.199 E18.19667
G1 X80.039 Y102.679 E18.22545
G1 X80.419 Y103.113 E18.25423
G1 X80.852 Y103.491 E18.2829
G1 X81.331 Y103.811 E18.31164
G1 X81.846 Y104.065 E18.34029
G1 X82.392 Y104.251 E18.36907
G1 X82.957 Y104.364 E18.39781
G1 X83.531 Y104.4 E18.42651
G1 X84.105 Y104.364 E18.4552
G1 X84.671 Y104.251 E18.484
G1 X85.216 Y104.065 E18.51273
G1 X85.731 Y103.811 E18.54137
G1 X86.21 Y103.491 E18.57011
G1 X86.258 Y103.449 E18.5733
G1 X87.901 Y103.449 E18.65527
G1 X92.052 Y107.601 E18.94818
G1 X91.274 Y108.38 E19.0031
G1 X91.133 Y108.521 E19.01305
G1 X90.992 Y108.38 E19.01948
G1 X87.085 Y104.472 E19.29517
G1 X86.507 Y104.861 E19.32993
G1 X86.128 Y105.073 E19.3516
G1 X85.705 Y105.268 E19.37483
G1 X85.298 Y105.418 E19.39647
G1 X84.852 Y105.543 E19.41958
G1 X84.431 Y105.628 E19.44101
G1 X83.983 Y105.68 E19.46351
G1 X83.531 Y105.699 E19.48608
G1 X83.079 Y105.68 E19.50865
G1 X82.632 Y105.628 E19.5311
G1 X82.209 Y105.543 E19.55263
G1 X81.764 Y105.418 E19.57569
G1 X81.357 Y105.268 E19.59733
G1 X80.934 Y105.073 E19.62057
G1 X80.554 Y104.861 E19.64228
G1 X80.187 Y104.615 E19.66432
G1 X79.829 Y104.332 E19.68709
G1 X79.501 Y104.029 E19.70936
G1 X79.197 Y103.7 E19.73171
G1 X78.921 Y103.352 E19.75387
G1 X78.673 Y102.978 E19.77626
G1 X78.453 Y102.586 E19.79869
G1 X78.263 Y102.174 E19.82132
G1 X78.111 Y101.76 E19.84332
G1 X77.988 Y101.326 E19.86583
G1 X77.903 Y100.899 E19.88755
G1 X77.85 Y100.446 E19.9103
G1 X77.832 Y100 E19.93257
G1 X77.85 Y99.554 E19.95484
G1 X77.903 Y99.099 E19.9777
G1 X77.988 Y98.674 E19.99932
G1 X78.111 Y98.24 E20.02182
G1 X78.263 Y97.826 E20.04383
G1 X78.453 Y97.414 E20.06646
G1 X78.669 Y97.029 E20.08849
G1 X78.927 Y96.641 E20.11173
G1 X79.197 Y96.3 E20.13343
G1 X79.501 Y95.971 E20.15578
G1 X79.829 Y95.668 E20.17806
G1 X80.19 Y95.383 E20.20101
G0 F3600 X79.952 Y95.061
;TYPE:WALL-OUTER
G1 F1800 X80.343 Y94.799 E20.22449
G1 X80.755 Y94.569 E20.24803
G1 X81.199 Y94.364 E20.27243
G1 X81.644 Y94.2 E20.29609
G1 X82.114 Y94.068 E20.32044
G1 X82.571 Y93.977 E20.34369
G1 X83.055 Y93.92 E20.368
G1 X83.531 Y93.9 E20.39177
G1 X84.007 Y93.92 E20.41554
G1 X84.492 Y93.977 E20.4399
G1 X84.948 Y94.068 E20.4631
G1 X85.418 Y94.2 E20.48746
G1 X85.863 Y94.364 E20.51112
G1 X86.307 Y94.569 E20.53552
G1 X86.718 Y94.799 E20.55901
G1 X87.035 Y95.012 E20.57807
G1 X90.992 Y91.054 E20.85729
G1 X91.133 Y90.913 E20.86724
G1 X91.274 Y91.054 E20.87366
G1 X92.618 Y92.399 E20.96853
G1 X88.067 Y96.951 E21.28966
G1 X86.107 Y96.951 E21.38744
G1 X85.966 Y96.827 E21.39681
G1 X85.531 Y96.536 E21.42292
G1 X85.062 Y96.305 E21.449
G1 X84.567 Y96.136 E21.4751
G1 X84.053 Y96.034 E21.50124
G1 X83.531 Y96.001 E21.52734
G1 X83.009 Y96.034 E21.55343
G1 X82.496 Y96.136 E21.57953
G1 X82 Y96.305 E21.60567
G1 X81.531 Y96.536 E21.63175
G1 X81.096 Y96.827 E21.65786
G1 X80.702 Y97.171 E21.68396
G1 X80.357 Y97.565 E21.71008
G1 X80.066 Y98.001 E21.73624
G1 X79.835 Y98.469 E21.76227
G1 X79.667 Y98.965 E21.7884
G1 X79.565 Y99.479 E21.81454
G1 X79.531 Y100 E21.84059
G1 X79.565 Y100.521 E21.86664
G1 X79.667 Y101.035 E21.89278
G1 X79.835 Y101.531 E21.91891
G1 X80.066 Y101.999 E21.94495
G1 X80.357 Y102.435 E21.9711
G1 X80.702 Y102.829 E21.99723
G1 X81.096 Y103.173 E22.02332
G1 X81.531 Y103.464 E22.04943
G1 X82 Y103.695 E22.07552
G1 X82.496 Y103.864 E22.10166
G1 X83.009 Y103.966 E22.12775
G1 X83.531 Y103.999 E22.15385
G1 X84.053 Y103.966 E22.17994
G1 X84.567 Y103.864 E22.20609
G1 X85.062 Y103.695 E22.23218
G1 X85.531 Y103.464 E22.25826
G1 X85.966 Y103.173 E22.28438
G1 X86.107 Y103.049 E22.29374
G1 X88.067 Y103.049 E22.39153
G1 X92.618 Y107.601 E22.71266
G1 X91.274 Y108.946 E22.80752
G1 X91.133 Y109.087 E22.81747
G1 X90.992 Y108.946 E22.82389
G1 X87.035 Y104.988 E23.10312
G1 X86.718 Y105.201 E23.12217
G1 X86.307 Y105.431 E23.14567
G1 X85.863 Y105.636 E23.17007
G1 X85.418 Y105.8 E23.19373
G1 X84.948 Y105.932 E23.21808
G1 X84.492 Y106.023 E23.24128
G1 X84.007 Y106.08 E23.26565
G1 X83.531 Y106.1 E23.28941
G1 X83.055 Y106.08 E23.31318
G1 X82.571 Y106.023 E23.3375
G1 X82.114 Y105.932 E23.36074
G1 X81.644 Y105.8 E23.3851
G1 X81.199 Y105.636 E23.40876
G1 X80.755 Y105.431 E23.43316
G1 X80.343 Y105.201 E23.4567
G1 X79.949 Y104.937 E23.48036
G1 X79.572 Y104.639 E23.50434
G1 X79.218 Y104.312 E23.52838
G1 X78.892 Y103.959 E23.55235
G1 X78.599 Y103.59 E23.57586
G1 X78.327 Y103.18 E23.60041
G1 X78.1 Y102.776 E23.62352
G1 X77.893 Y102.326 E23.64824
G1 X77.728 Y101.877 E23.6721
G1 X77.6 Y101.425 E23.69554
G1 X77.508 Y100.96 E23.71919
G1 X77.45 Y100.471 E23.74376
G1 X77.431 Y100 E23.76727
G1 X77.45 Y99.529 E23.79079
G1 X77.508 Y99.038 E23.81546
G1 X77.6 Y98.575 E23.83901
G1 X77.728 Y98.123 E23.86244
G1 X77.893 Y97.674 E23.88631
G1 X78.1 Y97.224 E23.91102
G1 X78.327 Y96.82 E23.93414
G1 X78.601 Y96.408 E23.95883
G1 X78.892 Y96.041 E23.98219
G1 X79.218 Y95.688 E24.00617
G1 X79.572 Y95.361 E24.03021
G1 X79.952 Y95.061 E24.05436
G0 F3600 X80.118 Y94.95
G0 X80.609 Y95.317
;TYPE:SKIN
G1 F1800 X81.296 Y96.003 E24.1028
G1 X81.366 Y96.073
G0 F3600 X80.951 Y96.225
G1 F1800 X80.272 Y95.546 E24.15071
G1 X80.202 Y95.476
G0 F3600 X79.957 Y95.796
G1 F1800 X80.626 Y96.465 E24.19791
G1 X80.696 Y96.535
G0 F3600 X80.324 Y96.729
G1 F1800 X79.662 Y96.067 E24.24462
G1 X79.592 Y95.997
G0 F3600 X79.387 Y96.358
G1 F1800 X80.056 Y97.027 E24.29182
G1 X80.126 Y97.097
G0 F3600 X79.807 Y97.343
G1 F1800 X79.133 Y96.669 E24.33937
G1 X79.063 Y96.599
G0 F3600 X78.901 Y97.003
G1 F1800 X79.581 Y97.683 E24.38735
G1 X79.651 Y97.753
G0 F3600 X79.391 Y98.058
G1 F1800 X78.689 Y97.357 E24.43684
G1 X78.619 Y97.287
G0 F3600 X78.502 Y97.735
G1 F1800 X79.226 Y98.459 E24.48793
G1 X79.296 Y98.529
G0 F3600 X79.091 Y98.89
G1 F1800 X78.339 Y98.138 E24.54098
G1 X78.269 Y98.068
G0 F3600 X78.203 Y98.568
G1 F1800 X78.997 Y99.361 E24.59697
G1 X79.067 Y99.431
G0 F3600 X78.957 Y99.888
G1 F1800 X78.099 Y99.03 E24.65751
G1 X78.029 Y98.96
G0 F3600 X78.033 Y99.529
G1 F1800 X78.981 Y100.477 E24.72439
G1 X79.051 Y100.547
G0 F3600 X79.101 Y101.163
G1 F1800 X78.015 Y100.076 E24.80105
G1 X77.945 Y100.006
G0 F3600 X78.059 Y100.687
G1 F1800 X79.467 Y102.094 E24.90036
G1 X79.537 Y102.164
G0 F3600 X78.5 Y102.259
G1 F1800 X81.269 Y105.027 E25.09569
G1 X81.339 Y105.097
G0 F3600 X82.142 Y105.335
G1 F1800 X78.191 Y101.384 E25.37445
G1 X78.121 Y101.314
G0 F3600 X81.435 Y104.062
G1 F1800 X82.841 Y105.469 E25.47369
G1 X82.911 Y105.539
G0 F3600 X83.452 Y105.514
G1 F1800 X82.367 Y104.429 E25.55024
G1 X82.297 Y104.359
G0 F3600 X83.053 Y104.549
G1 F1800 X83.999 Y105.495 E25.61699
G1 X84.069 Y105.565
G0 F3600 X84.499 Y105.429
G1 F1800 X83.642 Y104.572 E25.67746
G1 X83.572 Y104.502
G0 F3600 X84.169 Y104.534
G1 F1800 X84.958 Y105.323 E25.73312
G1 X85.028 Y105.393
G0 F3600 X85.39 Y105.189
G1 F1800 X84.641 Y104.44 E25.78597
G1 X84.571 Y104.37
G0 F3600 X85.071 Y104.304
G1 F1800 X85.793 Y105.027 E25.83695
G1 X85.863 Y105.097
G0 F3600 X86.172 Y104.839
G1 F1800 X85.472 Y104.139 E25.88633
G1 X85.402 Y104.069
G0 F3600 X85.847 Y103.949
G1 F1800 X86.526 Y104.628 E25.93424
G1 X86.596 Y104.698
G0 F3600 X86.865 Y104.401
G1 F1800 X86.186 Y103.722 E25.98215
G1 X86.116 Y103.652
G0 F3600 X86.657 Y103.627
G1 F1800 X91.214 Y108.185 E26.3037
G1 X91.284 Y108.255
G0 F3600 X91.497 Y107.902
G1 F1800 X87.223 Y103.627 E26.60529
G1 X87.153 Y103.557
G0 F3600 X87.788 Y103.627
G1 F1800 X91.78 Y107.619 E26.88695
G1 X91.85 Y107.689
G0 F3600 X91.838 Y107.676
G0 X86.234 Y103.522
G0 X85.231 Y104.101
G0 X84.11 Y104.403
G0 X82.952 Y104.403
G0 X81.831 Y104.101
G0 X80.828 Y103.522
G0 X80.391 Y103.141
G0 X79.685 Y102.218
G0 X79.242 Y101.149
G0 X79.09 Y100
G0 X79.242 Y98.851
G0 X79.685 Y97.782
G0 X80.391 Y96.859
G0 X81.311 Y96.155
G0 X82.382 Y95.711
G0 X82.952 Y95.597
G0 X84.11 Y95.597
G0 X87.855 Y96.341
G1 F1800 X87.19 Y95.675 E26.93391
G1 X87.12 Y95.605
G0 F3600 X87.473 Y95.392
G1 F1800 X88.138 Y96.058 E26.98086
G1 X88.208 Y96.128
G0 F3600 X88.421 Y95.775
